(G-CODE GENERATED BY FLATCAM v8.991 - www.flatcam.org - Version Date: 2019/12/27)

(Name: Gerber_TopLayer.GTL_cutout_cnc_2.4)
(Type: G-code from Geometry)
(Units: MM)

(Created on Friday, 07 February 2025 at 11:23)

(TOOL DIAMETER: 2.4 mm)
(Feedrate: 40.0 mm/min)
(Feedrate_Z: 40.0 mm/min)
(Feedrate rapids 1500.0 mm/min)

(Z_Cut: -2.0 mm)
(DepthPerCut: 0.6 mm <=>4 passes)
(Z_Move: 2.0 mm)
(Z Toolchange: 15.0 mm)
(X,Y Toolchange: 0.0000, 0.0000 mm)
(Z Start: None mm)
(Z End: 15.0 mm)
(Steps per circle: 64)
(Preprocessor Geometry: default)

(X range:   -0.3749 ...   77.4152  mm)
(Y range:   -0.8509 ...   91.4172  mm)

(Spindle Speed: 9000 RPM)
G21
G90
G94




G01 F40.00
G00 Z2.0000

M03 S9000
G00 X36.4201 Y-0.8509
G01 F40.00
G01 Z-0.6000
G01 F40.00
G01 X0.9251 Y-0.8509
G01 X0.7976 Y-0.8447
G01 X0.6714 Y-0.8260
G01 X0.5477 Y-0.7950
G01 X0.4276 Y-0.7520
G01 X0.3122 Y-0.6974
G01 X0.2028 Y-0.6318
G01 X0.1003 Y-0.5558
G01 X0.0058 Y-0.4702
G01 X-0.0799 Y-0.3756
G01 X-0.1559 Y-0.2732
G01 X-0.2214 Y-0.1637
G01 X-0.2760 Y-0.0484
G01 X-0.3190 Y0.0717
G01 X-0.3500 Y0.1955
G01 X-0.3687 Y0.3216
G01 X-0.3749 Y0.4491
G01 X-0.3749 Y43.1831
G00 X-0.3749 Y43.1831
G01 F40.00
G01 Z-1.2000
G01 F40.00
G01 X-0.3749 Y0.4491
G01 X-0.3687 Y0.3216
G01 X-0.3500 Y0.1955
G01 X-0.3190 Y0.0717
G01 X-0.2760 Y-0.0484
G01 X-0.2214 Y-0.1637
G01 X-0.1559 Y-0.2732
G01 X-0.0799 Y-0.3756
G01 X0.0058 Y-0.4702
G01 X0.1003 Y-0.5558
G01 X0.2028 Y-0.6318
G01 X0.3122 Y-0.6974
G01 X0.4276 Y-0.7520
G01 X0.5477 Y-0.7950
G01 X0.6714 Y-0.8260
G01 X0.7976 Y-0.8447
G01 X0.9251 Y-0.8509
G01 X36.4201 Y-0.8509
G00 X36.4201 Y-0.8509
G01 F40.00
G01 Z-1.8000
G01 F40.00
G01 X0.9251 Y-0.8509
G01 X0.7976 Y-0.8447
G01 X0.6714 Y-0.8260
G01 X0.5477 Y-0.7950
G01 X0.4276 Y-0.7520
G01 X0.3122 Y-0.6974
G01 X0.2028 Y-0.6318
G01 X0.1003 Y-0.5558
G01 X0.0058 Y-0.4702
G01 X-0.0799 Y-0.3756
G01 X-0.1559 Y-0.2732
G01 X-0.2214 Y-0.1637
G01 X-0.2760 Y-0.0484
G01 X-0.3190 Y0.0717
G01 X-0.3500 Y0.1955
G01 X-0.3687 Y0.3216
G01 X-0.3749 Y0.4491
G01 X-0.3749 Y43.1831
G00 X-0.3749 Y43.1831
G01 F40.00
G01 Z-2.0000
G01 F40.00
G01 X-0.3749 Y0.4491
G01 X-0.3687 Y0.3216
G01 X-0.3500 Y0.1955
G01 X-0.3190 Y0.0717
G01 X-0.2760 Y-0.0484
G01 X-0.2214 Y-0.1637
G01 X-0.1559 Y-0.2732
G01 X-0.0799 Y-0.3756
G01 X0.0058 Y-0.4702
G01 X0.1003 Y-0.5558
G01 X0.2028 Y-0.6318
G01 X0.3122 Y-0.6974
G01 X0.4276 Y-0.7520
G01 X0.5477 Y-0.7950
G01 X0.6714 Y-0.8260
G01 X0.7976 Y-0.8447
G01 X0.9251 Y-0.8509
G01 X36.4201 Y-0.8509
G00 Z2.0000
G00 X40.8201 Y-0.8509
G01 F40.00
G01 Z-0.6000
G01 F40.00
G01 X76.1152 Y-0.8509
G00 X76.1152 Y-0.8509
G01 F40.00
G01 Z-1.2000
G01 F40.00
G01 X40.8201 Y-0.8509
G00 X40.8201 Y-0.8509
G01 F40.00
G01 Z-1.8000
G01 F40.00
G01 X76.1152 Y-0.8509
G00 X76.1152 Y-0.8509
G01 F40.00
G01 Z-2.0000
G01 F40.00
G01 X40.8201 Y-0.8509
G00 Z2.0000
G00 X76.1152 Y-0.8509
G01 F40.00
G01 Z-0.6000
G01 F40.00
G01 X76.2426 Y-0.8447
G01 X76.3688 Y-0.8260
G01 X76.4925 Y-0.7950
G01 X76.6126 Y-0.7520
G01 X76.7280 Y-0.6974
G01 X76.8374 Y-0.6318
G01 X76.9399 Y-0.5558
G01 X77.0344 Y-0.4702
G01 X77.1201 Y-0.3756
G01 X77.1961 Y-0.2732
G01 X77.2617 Y-0.1637
G01 X77.3162 Y-0.0484
G01 X77.3592 Y0.0717
G01 X77.3902 Y0.1955
G01 X77.4089 Y0.3216
G01 X77.4152 Y0.4491
G01 X77.4152 Y43.1831
G00 X77.4152 Y43.1831
G01 F40.00
G01 Z-1.2000
G01 F40.00
G01 X77.4152 Y0.4491
G01 X77.4089 Y0.3216
G01 X77.3902 Y0.1955
G01 X77.3592 Y0.0717
G01 X77.3162 Y-0.0484
G01 X77.2617 Y-0.1637
G01 X77.1961 Y-0.2732
G01 X77.1201 Y-0.3756
G01 X77.0344 Y-0.4702
G01 X76.9399 Y-0.5558
G01 X76.8374 Y-0.6318
G01 X76.7280 Y-0.6974
G01 X76.6126 Y-0.7520
G01 X76.4925 Y-0.7950
G01 X76.3688 Y-0.8260
G01 X76.2426 Y-0.8447
G01 X76.1152 Y-0.8509
G00 X76.1152 Y-0.8509
G01 F40.00
G01 Z-1.8000
G01 F40.00
G01 X76.2426 Y-0.8447
G01 X76.3688 Y-0.8260
G01 X76.4925 Y-0.7950
G01 X76.6126 Y-0.7520
G01 X76.7280 Y-0.6974
G01 X76.8374 Y-0.6318
G01 X76.9399 Y-0.5558
G01 X77.0344 Y-0.4702
G01 X77.1201 Y-0.3756
G01 X77.1961 Y-0.2732
G01 X77.2617 Y-0.1637
G01 X77.3162 Y-0.0484
G01 X77.3592 Y0.0717
G01 X77.3902 Y0.1955
G01 X77.4089 Y0.3216
G01 X77.4152 Y0.4491
G01 X77.4152 Y43.1831
G00 X77.4152 Y43.1831
G01 F40.00
G01 Z-2.0000
G01 F40.00
G01 X77.4152 Y0.4491
G01 X77.4089 Y0.3216
G01 X77.3902 Y0.1955
G01 X77.3592 Y0.0717
G01 X77.3162 Y-0.0484
G01 X77.2617 Y-0.1637
G01 X77.1961 Y-0.2732
G01 X77.1201 Y-0.3756
G01 X77.0344 Y-0.4702
G01 X76.9399 Y-0.5558
G01 X76.8374 Y-0.6318
G01 X76.7280 Y-0.6974
G01 X76.6126 Y-0.7520
G01 X76.4925 Y-0.7950
G01 X76.3688 Y-0.8260
G01 X76.2426 Y-0.8447
G01 X76.1152 Y-0.8509
G00 Z2.0000
G00 X77.4152 Y47.5831
G01 F40.00
G01 Z-0.6000
G01 F40.00
G01 X77.4152 Y90.1172
G01 X77.4089 Y90.2446
G01 X77.3902 Y90.3708
G01 X77.3592 Y90.4945
G01 X77.3162 Y90.6146
G01 X77.2617 Y90.7300
G01 X77.1961 Y90.8394
G01 X77.1201 Y90.9419
G01 X77.0344 Y91.0364
G01 X76.9399 Y91.1221
G01 X76.8374 Y91.1981
G01 X76.7280 Y91.2637
G01 X76.6126 Y91.3182
G01 X76.4925 Y91.3612
G01 X76.3688 Y91.3922
G01 X76.2426 Y91.4109
G01 X76.1152 Y91.4172
G01 X40.8201 Y91.4172
G00 X40.8201 Y91.4172
G01 F40.00
G01 Z-1.2000
G01 F40.00
G01 X76.1152 Y91.4172
G01 X76.2426 Y91.4109
G01 X76.3688 Y91.3922
G01 X76.4925 Y91.3612
G01 X76.6126 Y91.3182
G01 X76.7280 Y91.2637
G01 X76.8374 Y91.1981
G01 X76.9399 Y91.1221
G01 X77.0344 Y91.0364
G01 X77.1201 Y90.9419
G01 X77.1961 Y90.8394
G01 X77.2617 Y90.7300
G01 X77.3162 Y90.6146
G01 X77.3592 Y90.4945
G01 X77.3902 Y90.3708
G01 X77.4089 Y90.2446
G01 X77.4152 Y90.1172
G01 X77.4152 Y47.5831
G00 X77.4152 Y47.5831
G01 F40.00
G01 Z-1.8000
G01 F40.00
G01 X77.4152 Y90.1172
G01 X77.4089 Y90.2446
G01 X77.3902 Y90.3708
G01 X77.3592 Y90.4945
G01 X77.3162 Y90.6146
G01 X77.2617 Y90.7300
G01 X77.1961 Y90.8394
G01 X77.1201 Y90.9419
G01 X77.0344 Y91.0364
G01 X76.9399 Y91.1221
G01 X76.8374 Y91.1981
G01 X76.7280 Y91.2637
G01 X76.6126 Y91.3182
G01 X76.4925 Y91.3612
G01 X76.3688 Y91.3922
G01 X76.2426 Y91.4109
G01 X76.1152 Y91.4172
G01 X40.8201 Y91.4172
G00 X40.8201 Y91.4172
G01 F40.00
G01 Z-2.0000
G01 F40.00
G01 X76.1152 Y91.4172
G01 X76.2426 Y91.4109
G01 X76.3688 Y91.3922
G01 X76.4925 Y91.3612
G01 X76.6126 Y91.3182
G01 X76.7280 Y91.2637
G01 X76.8374 Y91.1981
G01 X76.9399 Y91.1221
G01 X77.0344 Y91.0364
G01 X77.1201 Y90.9419
G01 X77.1961 Y90.8394
G01 X77.2617 Y90.7300
G01 X77.3162 Y90.6146
G01 X77.3592 Y90.4945
G01 X77.3902 Y90.3708
G01 X77.4089 Y90.2446
G01 X77.4152 Y90.1172
G01 X77.4152 Y47.5831
G00 Z2.0000
G00 X36.4201 Y91.4172
G01 F40.00
G01 Z-0.6000
G01 F40.00
G01 X0.9251 Y91.4172
G01 X0.7976 Y91.4109
G01 X0.6714 Y91.3922
G01 X0.5477 Y91.3612
G01 X0.4276 Y91.3182
G01 X0.3122 Y91.2637
G01 X0.2028 Y91.1981
G01 X0.1003 Y91.1221
G01 X0.0058 Y91.0364
G01 X-0.0799 Y90.9419
G01 X-0.1559 Y90.8394
G01 X-0.2214 Y90.7300
G01 X-0.2760 Y90.6146
G01 X-0.3190 Y90.4945
G01 X-0.3500 Y90.3708
G01 X-0.3687 Y90.2446
G01 X-0.3749 Y90.1172
G01 X-0.3749 Y47.5831
G00 X-0.3749 Y47.5831
G01 F40.00
G01 Z-1.2000
G01 F40.00
G01 X-0.3749 Y90.1172
G01 X-0.3687 Y90.2446
G01 X-0.3500 Y90.3708
G01 X-0.3190 Y90.4945
G01 X-0.2760 Y90.6146
G01 X-0.2214 Y90.7300
G01 X-0.1559 Y90.8394
G01 X-0.0799 Y90.9419
G01 X0.0058 Y91.0364
G01 X0.1003 Y91.1221
G01 X0.2028 Y91.1981
G01 X0.3122 Y91.2637
G01 X0.4276 Y91.3182
G01 X0.5477 Y91.3612
G01 X0.6714 Y91.3922
G01 X0.7976 Y91.4109
G01 X0.9251 Y91.4172
G01 X36.4201 Y91.4172
G00 X36.4201 Y91.4172
G01 F40.00
G01 Z-1.8000
G01 F40.00
G01 X0.9251 Y91.4172
G01 X0.7976 Y91.4109
G01 X0.6714 Y91.3922
G01 X0.5477 Y91.3612
G01 X0.4276 Y91.3182
G01 X0.3122 Y91.2637
G01 X0.2028 Y91.1981
G01 X0.1003 Y91.1221
G01 X0.0058 Y91.0364
G01 X-0.0799 Y90.9419
G01 X-0.1559 Y90.8394
G01 X-0.2214 Y90.7300
G01 X-0.2760 Y90.6146
G01 X-0.3190 Y90.4945
G01 X-0.3500 Y90.3708
G01 X-0.3687 Y90.2446
G01 X-0.3749 Y90.1172
G01 X-0.3749 Y47.5831
G00 X-0.3749 Y47.5831
G01 F40.00
G01 Z-2.0000
G01 F40.00
G01 X-0.3749 Y90.1172
G01 X-0.3687 Y90.2446
G01 X-0.3500 Y90.3708
G01 X-0.3190 Y90.4945
G01 X-0.2760 Y90.6146
G01 X-0.2214 Y90.7300
G01 X-0.1559 Y90.8394
G01 X-0.0799 Y90.9419
G01 X0.0058 Y91.0364
G01 X0.1003 Y91.1221
G01 X0.2028 Y91.1981
G01 X0.3122 Y91.2637
G01 X0.4276 Y91.3182
G01 X0.5477 Y91.3612
G01 X0.6714 Y91.3922
G01 X0.7976 Y91.4109
G01 X0.9251 Y91.4172
G01 X36.4201 Y91.4172
G00 Z2.0000
M05
G00 Z2.0000
G00 Z15.00
G00 X0.0 Y0.0

