(G-CODE GENERATED BY FLATCAM v8.991 - www.flatcam.org - Version Date: 2019/12/27)

(Name: Drill_PTH_Through.DRL_cnc_1mm)
(Type: G-code from Excellon)
(Units: MM)

(Created on Friday, 07 February 2025 at 11:23)

(Feedrate: 300.0 mm/min)
(Feedrate rapids 1500.0 mm/min)

(Z_Cut: -2.0 mm)
(Z_Move: 1.0 mm)
(Z Toolchange: 15.0 mm)
(X,Y Toolchange: 0.0000, 0.0000 mm)
(Z Start: None mm)
(Z End: 0.5 mm)
(Steps per circle: 64)
(Preprocessor Excellon: default)

(X range:    3.4510 ...   73.9450  mm)
(Y range:    2.8460 ...   88.9005  mm)

(Spindle Speed: 9000.0 RPM)
G21
G90
G94




G01 F300.00
G00 Z1.0000

M03 S9000.0
G00 X15.4060 Y87.4470
G01 Z-2.0000
G01 Z0
G00 Z1.0000
G00 X15.4060 Y87.4470
G01 Z-2.0000
G01 Z0
G00 Z1.0000
G00 X12.8660 Y87.4470
G01 Z-2.0000
G01 Z0
G00 Z1.0000
G00 X17.9460 Y87.4470
G01 Z-2.0000
G01 Z0
G00 Z1.0000
M03 S9000.0
G00 X22.8990 Y7.9450
G01 Z-2.0000
G01 Z0
G00 Z1.0000
G00 X22.8990 Y7.9450
G01 Z-2.0000
G01 Z0
G00 Z1.0000
G00 X22.7720 Y15.3110
G01 Z-2.0000
G01 Z0
G00 Z1.0000
G00 X22.7720 Y17.0890
G01 Z-2.0000
G01 Z0
G00 Z1.0000
G00 X22.7720 Y22.6770
G01 Z-2.0000
G01 Z0
G00 Z1.0000
G00 X22.7720 Y24.4550
G01 Z-2.0000
G01 Z0
G00 Z1.0000
G00 X22.7720 Y29.6620
G01 Z-2.0000
G01 Z0
G00 Z1.0000
G00 X22.7720 Y31.4400
G01 Z-2.0000
G01 Z0
G00 Z1.0000
G00 X20.9940 Y34.7420
G01 Z-2.0000
G01 Z0
G00 Z1.0000
G00 X22.7720 Y37.0280
G01 Z-2.0000
G01 Z0
G00 Z1.0000
G00 X22.7720 Y38.6790
G01 Z-2.0000
G01 Z0
G00 Z1.0000
G00 X22.6450 Y45.0290
G01 Z-2.0000
G01 Z0
G00 Z1.0000
G00 X12.8660 Y25.4710
G01 Z-2.0000
G01 Z0
G00 Z1.0000
G00 X40.0440 Y12.3900
G01 Z-2.0000
G01 Z0
G00 Z1.0000
G00 X40.0440 Y3.2460
G01 Z-2.0000
G01 Z0
G00 Z1.0000
G00 X58.0780 Y20.6450
G01 Z-2.0000
G01 Z0
G00 Z1.0000
G00 X58.0780 Y22.4230
G01 Z-2.0000
G01 Z0
G00 Z1.0000
G00 X58.0780 Y28.9000
G01 Z-2.0000
G01 Z0
G00 Z1.0000
G00 X58.0780 Y30.6780
G01 Z-2.0000
G01 Z0
G00 Z1.0000
G00 X58.0780 Y37.0280
G01 Z-2.0000
G01 Z0
G00 Z1.0000
G00 X58.0780 Y38.8060
G01 Z-2.0000
G01 Z0
G00 Z1.0000
G00 X58.0780 Y46.1720
G01 Z-2.0000
G01 Z0
G00 Z1.0000
G00 X58.7130 Y64.5870
G01 Z-2.0000
G01 Z0
G00 Z1.0000
G00 X56.6810 Y81.9860
G01 Z-2.0000
G01 Z0
G00 Z1.0000
G00 X58.8400 Y83.6370
G01 Z-2.0000
G01 Z0
G00 Z1.0000
M03 S9000.0
G00 X19.7040 Y40.2030
G01 Z-2.0000
G01 Z0
G00 Z1.0000
G00 X19.7040 Y40.2030
G01 Z-2.0000
G01 Z0
G00 Z1.0000
G00 X17.2040 Y40.2030
G01 Z-2.0000
G01 Z0
G00 Z1.0000
G00 X17.9500 Y78.6840
G01 Z-2.0000
G01 Z0
G00 Z1.0000
G00 X56.6810 Y85.9430
G01 Z-2.0000
G01 Z0
G00 Z1.0000
G00 X56.6810 Y88.4430
G01 Z-2.0000
G01 Z0
G00 Z1.0000
M03 S9000.0
G00 X10.4530 Y29.0270
G01 Z-2.0000
G01 Z0
G00 Z1.0000
G00 X10.4530 Y29.0270
G01 Z-2.0000
G01 Z0
G00 Z1.0000
G00 X7.9130 Y29.0270
G01 Z-2.0000
G01 Z0
G00 Z1.0000
G00 X7.9130 Y31.5670
G01 Z-2.0000
G01 Z0
G00 Z1.0000
G00 X10.4530 Y31.5670
G01 Z-2.0000
G01 Z0
G00 Z1.0000
G00 X10.4530 Y34.1070
G01 Z-2.0000
G01 Z0
G00 Z1.0000
G00 X7.9130 Y34.1070
G01 Z-2.0000
G01 Z0
G00 Z1.0000
G00 X7.9130 Y36.6470
G01 Z-2.0000
G01 Z0
G00 Z1.0000
G00 X10.4530 Y36.6470
G01 Z-2.0000
G01 Z0
G00 Z1.0000
G00 X10.4530 Y39.1870
G01 Z-2.0000
G01 Z0
G00 Z1.0000
G00 X7.9130 Y39.1870
G01 Z-2.0000
G01 Z0
G00 Z1.0000
G00 X7.9130 Y41.7270
G01 Z-2.0000
G01 Z0
G00 Z1.0000
G00 X10.4530 Y41.7270
G01 Z-2.0000
G01 Z0
G00 Z1.0000
G00 X10.4530 Y44.2670
G01 Z-2.0000
G01 Z0
G00 Z1.0000
G00 X7.9130 Y44.2670
G01 Z-2.0000
G01 Z0
G00 Z1.0000
G00 X7.9130 Y46.8070
G01 Z-2.0000
G01 Z0
G00 Z1.0000
G00 X10.4530 Y46.8070
G01 Z-2.0000
G01 Z0
G00 Z1.0000
G00 X10.4530 Y49.3470
G01 Z-2.0000
G01 Z0
G00 Z1.0000
G00 X7.9130 Y49.3470
G01 Z-2.0000
G01 Z0
G00 Z1.0000
G00 X7.9130 Y51.8870
G01 Z-2.0000
G01 Z0
G00 Z1.0000
G00 X10.4530 Y51.8870
G01 Z-2.0000
G01 Z0
G00 Z1.0000
G00 X10.4530 Y54.4270
G01 Z-2.0000
G01 Z0
G00 Z1.0000
G00 X7.9130 Y54.4270
G01 Z-2.0000
G01 Z0
G00 Z1.0000
G00 X7.9130 Y56.9670
G01 Z-2.0000
G01 Z0
G00 Z1.0000
G00 X10.4530 Y56.9670
G01 Z-2.0000
G01 Z0
G00 Z1.0000
G00 X10.4530 Y59.5070
G01 Z-2.0000
G01 Z0
G00 Z1.0000
G00 X7.9130 Y59.5070
G01 Z-2.0000
G01 Z0
G00 Z1.0000
G00 X7.9130 Y62.0470
G01 Z-2.0000
G01 Z0
G00 Z1.0000
G00 X10.4530 Y62.0470
G01 Z-2.0000
G01 Z0
G00 Z1.0000
G00 X10.4530 Y64.5870
G01 Z-2.0000
G01 Z0
G00 Z1.0000
G00 X10.4530 Y67.1270
G01 Z-2.0000
G01 Z0
G00 Z1.0000
G00 X7.9130 Y67.1270
G01 Z-2.0000
G01 Z0
G00 Z1.0000
G00 X7.9130 Y64.5870
G01 Z-2.0000
G01 Z0
G00 Z1.0000
G00 X7.9130 Y69.6670
G01 Z-2.0000
G01 Z0
G00 Z1.0000
G00 X7.9130 Y72.2070
G01 Z-2.0000
G01 Z0
G00 Z1.0000
G00 X10.4530 Y72.2070
G01 Z-2.0000
G01 Z0
G00 Z1.0000
G00 X10.4530 Y69.6670
G01 Z-2.0000
G01 Z0
G00 Z1.0000
G00 X10.4530 Y74.7470
G01 Z-2.0000
G01 Z0
G00 Z1.0000
G00 X7.9130 Y74.7470
G01 Z-2.0000
G01 Z0
G00 Z1.0000
G00 X7.9130 Y77.2870
G01 Z-2.0000
G01 Z0
G00 Z1.0000
G00 X10.4530 Y77.2870
G01 Z-2.0000
G01 Z0
G00 Z1.0000
G00 X70.9050 Y77.2870
G01 Z-2.0000
G01 Z0
G00 Z1.0000
G00 X73.4450 Y77.2870
G01 Z-2.0000
G01 Z0
G00 Z1.0000
G00 X73.4450 Y74.7470
G01 Z-2.0000
G01 Z0
G00 Z1.0000
G00 X70.9050 Y74.7470
G01 Z-2.0000
G01 Z0
G00 Z1.0000
G00 X70.9050 Y72.2070
G01 Z-2.0000
G01 Z0
G00 Z1.0000
G00 X73.4450 Y72.2070
G01 Z-2.0000
G01 Z0
G00 Z1.0000
G00 X73.4450 Y69.6670
G01 Z-2.0000
G01 Z0
G00 Z1.0000
G00 X70.9050 Y69.6670
G01 Z-2.0000
G01 Z0
G00 Z1.0000
G00 X70.9050 Y67.1270
G01 Z-2.0000
G01 Z0
G00 Z1.0000
G00 X73.4450 Y67.1270
G01 Z-2.0000
G01 Z0
G00 Z1.0000
G00 X73.4450 Y64.5870
G01 Z-2.0000
G01 Z0
G00 Z1.0000
G00 X70.9050 Y64.5870
G01 Z-2.0000
G01 Z0
G00 Z1.0000
G00 X70.9050 Y62.0470
G01 Z-2.0000
G01 Z0
G00 Z1.0000
G00 X73.4450 Y62.0470
G01 Z-2.0000
G01 Z0
G00 Z1.0000
G00 X73.4450 Y59.5070
G01 Z-2.0000
G01 Z0
G00 Z1.0000
G00 X70.9050 Y59.5070
G01 Z-2.0000
G01 Z0
G00 Z1.0000
G00 X70.9050 Y56.9670
G01 Z-2.0000
G01 Z0
G00 Z1.0000
G00 X73.4450 Y56.9670
G01 Z-2.0000
G01 Z0
G00 Z1.0000
G00 X73.4450 Y54.4270
G01 Z-2.0000
G01 Z0
G00 Z1.0000
G00 X70.9050 Y54.4270
G01 Z-2.0000
G01 Z0
G00 Z1.0000
G00 X70.9050 Y51.8870
G01 Z-2.0000
G01 Z0
G00 Z1.0000
G00 X73.4450 Y51.8870
G01 Z-2.0000
G01 Z0
G00 Z1.0000
G00 X73.4450 Y49.3470
G01 Z-2.0000
G01 Z0
G00 Z1.0000
G00 X70.9050 Y49.3470
G01 Z-2.0000
G01 Z0
G00 Z1.0000
G00 X70.9050 Y46.8070
G01 Z-2.0000
G01 Z0
G00 Z1.0000
G00 X73.4450 Y46.8070
G01 Z-2.0000
G01 Z0
G00 Z1.0000
G00 X73.4450 Y44.2670
G01 Z-2.0000
G01 Z0
G00 Z1.0000
G00 X70.9050 Y44.2670
G01 Z-2.0000
G01 Z0
G00 Z1.0000
G00 X70.9050 Y41.7270
G01 Z-2.0000
G01 Z0
G00 Z1.0000
G00 X73.4450 Y41.7270
G01 Z-2.0000
G01 Z0
G00 Z1.0000
G00 X73.4450 Y39.1870
G01 Z-2.0000
G01 Z0
G00 Z1.0000
G00 X70.9050 Y39.1870
G01 Z-2.0000
G01 Z0
G00 Z1.0000
G00 X70.9050 Y36.6470
G01 Z-2.0000
G01 Z0
G00 Z1.0000
G00 X73.4450 Y36.6470
G01 Z-2.0000
G01 Z0
G00 Z1.0000
G00 X73.4450 Y34.1070
G01 Z-2.0000
G01 Z0
G00 Z1.0000
G00 X70.9050 Y34.1070
G01 Z-2.0000
G01 Z0
G00 Z1.0000
G00 X70.9050 Y31.5670
G01 Z-2.0000
G01 Z0
G00 Z1.0000
G00 X73.4450 Y31.5670
G01 Z-2.0000
G01 Z0
G00 Z1.0000
G00 X73.4450 Y29.0270
G01 Z-2.0000
G01 Z0
G00 Z1.0000
G00 X70.9050 Y29.0270
G01 Z-2.0000
G01 Z0
G00 Z1.0000
M03 S9000.0
G00 X50.9660 Y86.5580
G01 Z-2.0000
G01 Z0
G00 Z1.0000
G00 X50.9660 Y86.5580
G01 Z-2.0000
G01 Z0
G00 Z1.0000
G00 X48.4260 Y86.5580
G01 Z-2.0000
G01 Z0
G00 Z1.0000
G00 X45.8860 Y86.5580
G01 Z-2.0000
G01 Z0
G00 Z1.0000
G00 X43.3460 Y86.5580
G01 Z-2.0000
G01 Z0
G00 Z1.0000
G00 X40.8060 Y86.5580
G01 Z-2.0000
G01 Z0
G00 Z1.0000
G00 X38.2660 Y86.5580
G01 Z-2.0000
G01 Z0
G00 Z1.0000
G00 X35.7260 Y86.5580
G01 Z-2.0000
G01 Z0
G00 Z1.0000
G00 X33.1860 Y86.5580
G01 Z-2.0000
G01 Z0
G00 Z1.0000
G00 X30.6460 Y86.5580
G01 Z-2.0000
G01 Z0
G00 Z1.0000
G00 X28.1060 Y86.5580
G01 Z-2.0000
G01 Z0
G00 Z1.0000
G00 X25.5660 Y86.5580
G01 Z-2.0000
G01 Z0
G00 Z1.0000
G00 X23.0260 Y86.5580
G01 Z-2.0000
G01 Z0
G00 Z1.0000
M03 S9000.0
G00 X3.9760 Y77.2870
G01 Z-2.0000
G01 Z0
G00 Z1.0000
G00 X3.9760 Y77.2870
G01 Z-2.0000
G01 Z0
G00 Z1.0000
G00 X3.9760 Y74.7470
G01 Z-2.0000
G01 Z0
G00 Z1.0000
G00 X3.9760 Y72.2070
G01 Z-2.0000
G01 Z0
G00 Z1.0000
G00 X3.9760 Y69.6670
G01 Z-2.0000
G01 Z0
G00 Z1.0000
G00 X3.9760 Y67.1270
G01 Z-2.0000
G01 Z0
G00 Z1.0000
G00 X3.9760 Y64.5870
G01 Z-2.0000
G01 Z0
G00 Z1.0000
G00 X3.9760 Y62.0470
G01 Z-2.0000
G01 Z0
G00 Z1.0000
G00 X3.9760 Y59.5070
G01 Z-2.0000
G01 Z0
G00 Z1.0000
G00 X3.9760 Y56.9670
G01 Z-2.0000
G01 Z0
G00 Z1.0000
G00 X3.9760 Y54.4270
G01 Z-2.0000
G01 Z0
G00 Z1.0000
G00 X3.9760 Y51.8870
G01 Z-2.0000
G01 Z0
G00 Z1.0000
G00 X3.9760 Y49.3470
G01 Z-2.0000
G01 Z0
G00 Z1.0000
G00 X3.9760 Y46.8070
G01 Z-2.0000
G01 Z0
G00 Z1.0000
G00 X3.9760 Y44.2670
G01 Z-2.0000
G01 Z0
G00 Z1.0000
G00 X3.9760 Y41.7270
G01 Z-2.0000
G01 Z0
G00 Z1.0000
G00 X3.9760 Y39.1870
G01 Z-2.0000
G01 Z0
G00 Z1.0000
G00 X3.9760 Y36.6470
G01 Z-2.0000
G01 Z0
G00 Z1.0000
G00 X3.9760 Y34.1070
G01 Z-2.0000
G01 Z0
G00 Z1.0000
G00 X3.9760 Y31.5670
G01 Z-2.0000
G01 Z0
G00 Z1.0000
G00 X3.9760 Y29.0270
G01 Z-2.0000
G01 Z0
G00 Z1.0000
M03 S9000.0
G00 X15.4500 Y81.0000
G01 Z-2.0000
G01 Z0
G00 Z1.0000
G00 X15.4500 Y81.0000
G01 Z-2.0000
G01 Z0
G00 Z1.0000
G00 X17.9900 Y81.0000
G01 Z-2.0000
G01 Z0
G00 Z1.0000
G00 X20.5300 Y81.0000
G01 Z-2.0000
G01 Z0
G00 Z1.0000
G00 X23.0700 Y81.0000
G01 Z-2.0000
G01 Z0
G00 Z1.0000
G00 X25.6100 Y81.0000
G01 Z-2.0000
G01 Z0
G00 Z1.0000
G00 X28.1500 Y81.0000
G01 Z-2.0000
G01 Z0
G00 Z1.0000
G00 X30.6900 Y81.0000
G01 Z-2.0000
G01 Z0
G00 Z1.0000
G00 X33.2300 Y81.0000
G01 Z-2.0000
G01 Z0
G00 Z1.0000
G00 X35.7700 Y81.0000
G01 Z-2.0000
G01 Z0
G00 Z1.0000
G00 X38.3100 Y81.0000
G01 Z-2.0000
G01 Z0
G00 Z1.0000
G00 X40.8500 Y81.0000
G01 Z-2.0000
G01 Z0
G00 Z1.0000
G00 X43.3900 Y81.0000
G01 Z-2.0000
G01 Z0
G00 Z1.0000
G00 X45.9300 Y81.0000
G01 Z-2.0000
G01 Z0
G00 Z1.0000
G00 X48.4700 Y81.0000
G01 Z-2.0000
G01 Z0
G00 Z1.0000
G00 X51.0100 Y81.0000
G01 Z-2.0000
G01 Z0
G00 Z1.0000
G00 X53.5500 Y81.0000
G01 Z-2.0000
G01 Z0
G00 Z1.0000
M05
G00 Z0.50
G00 X0.0 Y0.0

