(G-CODE GENERATED BY FLATCAM v8.991 - www.flatcam.org - Version Date: 2019/12/27)

(Name: Gerber_TopLayer.GTL_iso_cnc_0.5mm)
(Type: G-code from Geometry)
(Units: MM)

(Created on Friday, 07 February 2025 at 11:16)

(TOOL DIAMETER: 0.5 mm)
(Feedrate: 120.0 mm/min)
(Feedrate_Z: 60.0 mm/min)
(Feedrate rapids 1500.0 mm/min)

(Z_Cut: -0.5 mm)
(Z_Move: 2.0 mm)
(Z Toolchange: 15.0 mm)
(X,Y Toolchange: 0.0000, 0.0000 mm)
(Z Start: None mm)
(Z End: 15.0 mm)
(Steps per circle: 64)
(Preprocessor Geometry: default)

(X range:    0.6751 ...   76.3652  mm)
(Y range:    0.1991 ...   90.3672  mm)

(Spindle Speed: 9000 RPM)
G21
G90
G94




G01 F120.00
G00 Z2.0000

M03 S9000
G00 X1.0267 Y0.1991
G01 F60.00
G01 Z-0.5000
G01 F120.00
G01 X76.0136 Y0.1991
G01 X76.0379 Y0.2003
G01 X76.0620 Y0.2038
G01 X76.1006 Y0.2114
G01 X76.1242 Y0.2173
G01 X76.1471 Y0.2254
G01 X76.1692 Y0.2358
G01 X76.1901 Y0.2482
G01 X76.2231 Y0.2700
G01 X76.2428 Y0.2845
G01 X76.2610 Y0.3008
G01 X76.2775 Y0.3188
G01 X76.2922 Y0.3384
G01 X76.3146 Y0.3714
G01 X76.3276 Y0.3929
G01 X76.3384 Y0.4156
G01 X76.3469 Y0.4393
G01 X76.3529 Y0.4638
G01 X76.3605 Y0.5029
G01 X76.3640 Y0.5267
G01 X76.3652 Y0.5507
G01 X76.3652 Y90.0156
G01 X76.3640 Y90.0399
G01 X76.3604 Y90.0640
G01 X76.3528 Y90.1026
G01 X76.3467 Y90.1268
G01 X76.3383 Y90.1504
G01 X76.3275 Y90.1729
G01 X76.3146 Y90.1943
G01 X76.2922 Y90.2273
G01 X76.2780 Y90.2464
G01 X76.2620 Y90.2640
G01 X76.2444 Y90.2800
G01 X76.2253 Y90.2942
G01 X76.1923 Y90.3166
G01 X76.1709 Y90.3295
G01 X76.1484 Y90.3403
G01 X76.1248 Y90.3487
G01 X76.1006 Y90.3548
G01 X76.0620 Y90.3624
G01 X76.0379 Y90.3660
G01 X76.0136 Y90.3672
G01 X1.0267 Y90.3672
G01 X1.0026 Y90.3660
G01 X0.9789 Y90.3625
G01 X0.9397 Y90.3549
G01 X0.9153 Y90.3489
G01 X0.8916 Y90.3404
G01 X0.8689 Y90.3296
G01 X0.8474 Y90.3166
G01 X0.8144 Y90.2942
G01 X0.7949 Y90.2796
G01 X0.7768 Y90.2630
G01 X0.7605 Y90.2448
G01 X0.7460 Y90.2252
G01 X0.7242 Y90.1921
G01 X0.7118 Y90.1712
G01 X0.7014 Y90.1492
G01 X0.6933 Y90.1262
G01 X0.6874 Y90.1026
G01 X0.6798 Y90.0640
G01 X0.6762 Y90.0399
G01 X0.6751 Y90.0156
G01 X0.6751 Y0.5507
G01 X0.6762 Y0.5267
G01 X0.6797 Y0.5029
G01 X0.6873 Y0.4638
G01 X0.6931 Y0.4400
G01 X0.7013 Y0.4169
G01 X0.7117 Y0.3947
G01 X0.7242 Y0.3736
G01 X0.7460 Y0.3406
G01 X0.7609 Y0.3204
G01 X0.7778 Y0.3017
G01 X0.7964 Y0.2849
G01 X0.8166 Y0.2700
G01 X0.8496 Y0.2482
G01 X0.8707 Y0.2357
G01 X0.8929 Y0.2253
G01 X0.9160 Y0.2172
G01 X0.9397 Y0.2113
G01 X0.9789 Y0.2037
G01 X1.0026 Y0.2002
G01 X1.0267 Y0.1991
G00 Z2.0000
G00 X23.7059 Y7.4449
G01 F60.00
G01 Z-0.5000
G01 F120.00
G01 X24.9150 Y7.4449
G01 X24.9518 Y7.4464
G01 X24.9762 Y7.4488
G01 X25.0005 Y7.4524
G01 X25.0246 Y7.4572
G01 X25.0484 Y7.4631
G01 X25.0718 Y7.4703
G01 X25.0950 Y7.4785
G01 X25.1176 Y7.4879
G01 X25.1398 Y7.4984
G01 X25.1614 Y7.5100
G01 X25.1825 Y7.5226
G01 X25.2029 Y7.5362
G01 X25.2226 Y7.5509
G01 X25.2416 Y7.5664
G01 X25.2687 Y7.5914
G01 X25.3299 Y7.6526
G01 X25.5481 Y7.6526
G01 X25.9904 Y7.2104
G01 X26.0174 Y7.1854
G01 X26.0364 Y7.1699
G01 X26.0561 Y7.1552
G01 X26.0765 Y7.1416
G01 X26.0976 Y7.1290
G01 X26.1192 Y7.1174
G01 X26.1414 Y7.1069
G01 X26.1641 Y7.0975
G01 X26.1872 Y7.0893
G01 X26.2107 Y7.0821
G01 X26.2345 Y7.0762
G01 X26.2585 Y7.0714
G01 X26.2828 Y7.0678
G01 X26.3072 Y7.0654
G01 X26.3440 Y7.0639
G01 X27.3057 Y7.0639
G01 X27.3057 Y6.8755
G01 X27.3069 Y6.8510
G01 X27.3105 Y6.8267
G01 X27.3165 Y6.8029
G01 X27.3247 Y6.7798
G01 X27.3352 Y6.7577
G01 X27.3478 Y6.7366
G01 X27.3625 Y6.7169
G01 X27.3789 Y6.6987
G01 X27.3971 Y6.6823
G01 X27.4168 Y6.6676
G01 X27.4379 Y6.6550
G01 X27.4600 Y6.6445
G01 X27.4831 Y6.6363
G01 X27.5069 Y6.6303
G01 X27.5312 Y6.6267
G01 X27.5557 Y6.6255
G01 X27.6219 Y6.6255
G01 X27.6219 Y5.9625
G01 X27.5557 Y5.9625
G01 X27.5312 Y5.9613
G01 X27.5069 Y5.9577
G01 X27.4831 Y5.9517
G01 X27.4600 Y5.9435
G01 X27.4379 Y5.9330
G01 X27.4168 Y5.9204
G01 X27.3971 Y5.9058
G01 X27.3789 Y5.8893
G01 X27.3625 Y5.8711
G01 X27.3478 Y5.8514
G01 X27.3352 Y5.8304
G01 X27.3247 Y5.8082
G01 X27.3165 Y5.7851
G01 X27.3105 Y5.7613
G01 X27.3069 Y5.7370
G01 X27.3057 Y5.7125
G01 X27.3057 Y4.3355
G01 X27.3069 Y4.3110
G01 X27.3105 Y4.2867
G01 X27.3165 Y4.2629
G01 X27.3247 Y4.2398
G01 X27.3352 Y4.2177
G01 X27.3478 Y4.1966
G01 X27.3625 Y4.1769
G01 X27.3789 Y4.1587
G01 X27.3971 Y4.1423
G01 X27.4168 Y4.1276
G01 X27.4379 Y4.1150
G01 X27.4600 Y4.1045
G01 X27.4831 Y4.0963
G01 X27.5069 Y4.0903
G01 X27.5312 Y4.0867
G01 X27.5557 Y4.0855
G01 X28.6882 Y4.0855
G01 X28.7127 Y4.0867
G01 X28.7370 Y4.0903
G01 X28.7608 Y4.0963
G01 X28.7839 Y4.1045
G01 X28.8061 Y4.1150
G01 X28.8271 Y4.1276
G01 X28.8468 Y4.1423
G01 X28.8650 Y4.1587
G01 X28.8815 Y4.1769
G01 X28.8961 Y4.1966
G01 X28.9087 Y4.2177
G01 X28.9192 Y4.2398
G01 X28.9274 Y4.2629
G01 X28.9334 Y4.2867
G01 X28.9370 Y4.3110
G01 X28.9382 Y4.3355
G01 X28.9382 Y5.7125
G01 X28.9370 Y5.7370
G01 X28.9334 Y5.7613
G01 X28.9274 Y5.7851
G01 X28.9192 Y5.8082
G01 X28.9087 Y5.8304
G01 X28.8961 Y5.8514
G01 X28.8815 Y5.8711
G01 X28.8650 Y5.8893
G01 X28.8468 Y5.9058
G01 X28.8271 Y5.9204
G01 X28.8061 Y5.9330
G01 X28.7839 Y5.9435
G01 X28.7608 Y5.9517
G01 X28.7370 Y5.9577
G01 X28.7127 Y5.9613
G01 X28.6882 Y5.9625
G01 X28.6221 Y5.9625
G01 X28.6221 Y6.6255
G01 X28.6882 Y6.6255
G01 X28.7127 Y6.6267
G01 X28.7370 Y6.6303
G01 X28.7608 Y6.6363
G01 X28.7839 Y6.6445
G01 X28.8061 Y6.6550
G01 X28.8271 Y6.6676
G01 X28.8468 Y6.6823
G01 X28.8650 Y6.6987
G01 X28.8815 Y6.7169
G01 X28.8961 Y6.7366
G01 X28.9087 Y6.7577
G01 X28.9192 Y6.7798
G01 X28.9274 Y6.8029
G01 X28.9334 Y6.8267
G01 X28.9370 Y6.8510
G01 X28.9382 Y6.8755
G01 X28.9382 Y8.2525
G01 X28.9370 Y8.2770
G01 X28.9334 Y8.3013
G01 X28.9274 Y8.3251
G01 X28.9192 Y8.3482
G01 X28.9087 Y8.3704
G01 X28.8961 Y8.3914
G01 X28.8815 Y8.4111
G01 X28.8650 Y8.4293
G01 X28.8468 Y8.4458
G01 X28.8271 Y8.4604
G01 X28.8061 Y8.4730
G01 X28.7839 Y8.4835
G01 X28.7608 Y8.4917
G01 X28.7370 Y8.4977
G01 X28.7127 Y8.5013
G01 X28.6882 Y8.5025
G01 X27.5557 Y8.5025
G01 X27.5312 Y8.5013
G01 X27.5069 Y8.4977
G01 X27.4831 Y8.4917
G01 X27.4600 Y8.4835
G01 X27.4379 Y8.4730
G01 X27.4168 Y8.4604
G01 X27.3971 Y8.4458
G01 X27.3789 Y8.4293
G01 X27.3625 Y8.4111
G01 X27.3478 Y8.3914
G01 X27.3352 Y8.3704
G01 X27.3247 Y8.3482
G01 X27.3165 Y8.3251
G01 X27.3105 Y8.3013
G01 X27.3069 Y8.2770
G01 X27.3057 Y8.2525
G01 X27.3057 Y8.0641
G01 X26.5512 Y8.0641
G01 X26.3776 Y8.2377
G01 X26.3776 Y9.0351
G01 X26.3764 Y9.0596
G01 X26.3728 Y9.0839
G01 X26.3668 Y9.1077
G01 X26.3586 Y9.1308
G01 X26.3481 Y9.1530
G01 X26.3355 Y9.1740
G01 X26.3209 Y9.1937
G01 X26.3044 Y9.2119
G01 X26.2862 Y9.2284
G01 X26.2665 Y9.2430
G01 X26.2455 Y9.2556
G01 X26.2233 Y9.2661
G01 X26.2002 Y9.2743
G01 X26.1764 Y9.2803
G01 X26.1521 Y9.2839
G01 X26.1276 Y9.2851
G01 X24.7506 Y9.2851
G01 X24.7261 Y9.2839
G01 X24.7018 Y9.2803
G01 X24.6780 Y9.2743
G01 X24.6549 Y9.2661
G01 X24.6328 Y9.2556
G01 X24.6117 Y9.2430
G01 X24.5920 Y9.2284
G01 X24.5738 Y9.2119
G01 X24.5574 Y9.1937
G01 X24.5427 Y9.1740
G01 X24.5301 Y9.1530
G01 X24.5196 Y9.1308
G01 X24.5114 Y9.1077
G01 X24.5054 Y9.0839
G01 X24.5018 Y9.0596
G01 X24.5006 Y9.0351
G01 X24.5006 Y8.4451
G01 X23.7060 Y8.4451
G01 X23.6956 Y8.4625
G01 X23.6819 Y8.4829
G01 X23.6410 Y8.5381
G01 X23.6255 Y8.5571
G01 X23.5793 Y8.6080
G01 X23.5620 Y8.6253
G01 X23.5111 Y8.6715
G01 X23.4921 Y8.6870
G01 X23.4369 Y8.7280
G01 X23.4165 Y8.7416
G01 X23.3576 Y8.7769
G01 X23.3360 Y8.7885
G01 X23.2739 Y8.8178
G01 X23.2512 Y8.8272
G01 X23.1865 Y8.8504
G01 X23.1631 Y8.8575
G01 X23.0964 Y8.8742
G01 X23.0724 Y8.8790
G01 X23.0044 Y8.8890
G01 X22.9800 Y8.8914
G01 X22.9114 Y8.8948
G01 X22.8868 Y8.8948
G01 X22.8182 Y8.8914
G01 X22.7938 Y8.8890
G01 X22.7259 Y8.8790
G01 X22.7018 Y8.8742
G01 X22.6352 Y8.8575
G01 X22.6117 Y8.8504
G01 X22.5470 Y8.8272
G01 X22.5243 Y8.8178
G01 X22.4622 Y8.7885
G01 X22.4406 Y8.7769
G01 X22.3817 Y8.7416
G01 X22.3613 Y8.7280
G01 X22.3061 Y8.6870
G01 X22.2871 Y8.6715
G01 X22.2362 Y8.6253
G01 X22.2189 Y8.6080
G01 X22.1728 Y8.5571
G01 X22.1572 Y8.5381
G01 X22.1163 Y8.4829
G01 X22.1026 Y8.4625
G01 X22.0673 Y8.4036
G01 X22.0558 Y8.3820
G01 X22.0264 Y8.3199
G01 X22.0170 Y8.2972
G01 X21.9939 Y8.2325
G01 X21.9867 Y8.2091
G01 X21.9701 Y8.1424
G01 X21.9653 Y8.1184
G01 X21.9552 Y8.0504
G01 X21.9528 Y8.0260
G01 X21.9494 Y7.9574
G01 X21.9494 Y7.9329
G01 X21.9528 Y7.8642
G01 X21.9552 Y7.8398
G01 X21.9653 Y7.7719
G01 X21.9701 Y7.7478
G01 X21.9867 Y7.6812
G01 X21.9939 Y7.6577
G01 X22.0170 Y7.5930
G01 X22.0264 Y7.5704
G01 X22.0558 Y7.5083
G01 X22.0673 Y7.4866
G01 X22.1026 Y7.4277
G01 X22.1163 Y7.4073
G01 X22.1572 Y7.3521
G01 X22.1728 Y7.3332
G01 X22.2189 Y7.2823
G01 X22.2362 Y7.2649
G01 X22.2871 Y7.2188
G01 X22.3061 Y7.2032
G01 X22.3613 Y7.1623
G01 X22.3817 Y7.1487
G01 X22.4406 Y7.1133
G01 X22.4622 Y7.1018
G01 X22.5243 Y7.0724
G01 X22.5470 Y7.0630
G01 X22.6117 Y7.0399
G01 X22.6352 Y7.0328
G01 X22.7018 Y7.0161
G01 X22.7259 Y7.0113
G01 X22.7938 Y7.0012
G01 X22.8182 Y6.9988
G01 X22.8868 Y6.9954
G01 X22.9114 Y6.9954
G01 X22.9800 Y6.9988
G01 X23.0044 Y7.0012
G01 X23.0724 Y7.0113
G01 X23.0964 Y7.0161
G01 X23.1631 Y7.0328
G01 X23.1865 Y7.0399
G01 X23.2512 Y7.0630
G01 X23.2739 Y7.0724
G01 X23.3360 Y7.1018
G01 X23.3576 Y7.1133
G01 X23.4165 Y7.1487
G01 X23.4369 Y7.1623
G01 X23.4921 Y7.2032
G01 X23.5111 Y7.2188
G01 X23.5620 Y7.2649
G01 X23.5793 Y7.2823
G01 X23.6255 Y7.3332
G01 X23.6410 Y7.3521
G01 X23.6819 Y7.4073
G01 X23.6956 Y7.4277
G01 X23.7059 Y7.4449
G00 Z2.0000
G00 X29.5558 Y6.6255
G01 F60.00
G01 Z-0.5000
G01 F120.00
G01 X30.6883 Y6.6255
G01 X30.7128 Y6.6267
G01 X30.7371 Y6.6303
G01 X30.7609 Y6.6363
G01 X30.7840 Y6.6445
G01 X30.8062 Y6.6550
G01 X30.8272 Y6.6676
G01 X30.8469 Y6.6823
G01 X30.8651 Y6.6987
G01 X30.8816 Y6.7169
G01 X30.8962 Y6.7366
G01 X30.9088 Y6.7577
G01 X30.9193 Y6.7798
G01 X30.9275 Y6.8029
G01 X30.9335 Y6.8267
G01 X30.9371 Y6.8510
G01 X30.9383 Y6.8755
G01 X30.9383 Y7.0639
G01 X43.1389 Y7.0639
G01 X45.1514 Y5.0514
G01 X45.1603 Y5.0429
G01 X45.1784 Y5.0264
G01 X45.1974 Y5.0109
G01 X45.2171 Y4.9962
G01 X45.2375 Y4.9826
G01 X45.2586 Y4.9700
G01 X45.2802 Y4.9584
G01 X45.3024 Y4.9479
G01 X45.3251 Y4.9385
G01 X45.3482 Y4.9303
G01 X45.3717 Y4.9231
G01 X45.3955 Y4.9172
G01 X45.4195 Y4.9124
G01 X45.4438 Y4.9088
G01 X45.4682 Y4.9064
G01 X45.5050 Y4.9049
G01 X57.6977 Y4.9049
G01 X57.7345 Y4.9064
G01 X57.7589 Y4.9088
G01 X57.7832 Y4.9124
G01 X57.8073 Y4.9172
G01 X57.8311 Y4.9232
G01 X57.8546 Y4.9303
G01 X57.8777 Y4.9386
G01 X57.9004 Y4.9480
G01 X57.9226 Y4.9585
G01 X57.9442 Y4.9700
G01 X57.9653 Y4.9827
G01 X57.9857 Y4.9963
G01 X58.0054 Y5.0109
G01 X58.0244 Y5.0265
G01 X58.0514 Y5.0515
G01 X61.6592 Y8.6614
G01 X61.6841 Y8.6885
G01 X61.6997 Y8.7075
G01 X61.7143 Y8.7272
G01 X61.7279 Y8.7476
G01 X61.7406 Y8.7687
G01 X61.7521 Y8.7903
G01 X61.7626 Y8.8125
G01 X61.7720 Y8.8352
G01 X61.7802 Y8.8583
G01 X61.7874 Y8.8818
G01 X61.7933 Y8.9056
G01 X61.7981 Y8.9296
G01 X61.8017 Y8.9539
G01 X61.8041 Y8.9783
G01 X61.8056 Y9.0151
G01 X61.8055 Y9.3592
G01 X62.2049 Y9.3592
G01 X62.2294 Y9.3604
G01 X62.2537 Y9.3640
G01 X62.2775 Y9.3700
G01 X62.3006 Y9.3783
G01 X62.3228 Y9.3887
G01 X62.3438 Y9.4014
G01 X62.3635 Y9.4160
G01 X62.3817 Y9.4325
G01 X62.3982 Y9.4506
G01 X62.4128 Y9.4703
G01 X62.4254 Y9.4914
G01 X62.4359 Y9.5136
G01 X62.4442 Y9.5367
G01 X62.4501 Y9.5605
G01 X62.4537 Y9.5847
G01 X62.4549 Y9.6092
G01 X62.4549 Y9.6598
G01 X62.4887 Y9.6613
G01 X62.5131 Y9.6637
G01 X62.5374 Y9.6673
G01 X62.5614 Y9.6721
G01 X62.5852 Y9.6780
G01 X62.6087 Y9.6851
G01 X62.6318 Y9.6934
G01 X62.6545 Y9.7028
G01 X62.6767 Y9.7133
G01 X62.6983 Y9.7249
G01 X62.7194 Y9.7375
G01 X62.7398 Y9.7511
G01 X62.7595 Y9.7657
G01 X62.7785 Y9.7813
G01 X62.8055 Y9.8062
G01 X65.2897 Y12.2904
G01 X65.3146 Y12.3174
G01 X65.3302 Y12.3364
G01 X65.3448 Y12.3561
G01 X65.3584 Y12.3765
G01 X65.3710 Y12.3976
G01 X65.3826 Y12.4192
G01 X65.3931 Y12.4414
G01 X65.4025 Y12.4641
G01 X65.4108 Y12.4872
G01 X65.4179 Y12.5107
G01 X65.4238 Y12.5345
G01 X65.4286 Y12.5585
G01 X65.4322 Y12.5828
G01 X65.4346 Y12.6072
G01 X65.4361 Y12.6440
G01 X65.4361 Y27.1689
G01 X69.3342 Y31.0669
G01 X69.9823 Y31.0669
G01 X69.9851 Y31.0615
G01 X70.0255 Y30.9941
G01 X70.0391 Y30.9737
G01 X70.0859 Y30.9107
G01 X70.1015 Y30.8917
G01 X70.1542 Y30.8335
G01 X70.1715 Y30.8162
G01 X70.2297 Y30.7635
G01 X70.2487 Y30.7479
G01 X70.3117 Y30.7011
G01 X70.3321 Y30.6875
G01 X70.3995 Y30.6472
G01 X70.4211 Y30.6356
G01 X70.4921 Y30.6020
G01 X70.5147 Y30.5926
G01 X70.5887 Y30.5662
G01 X70.6121 Y30.5591
G01 X70.6883 Y30.5400
G01 X70.7124 Y30.5352
G01 X70.7900 Y30.5237
G01 X70.8144 Y30.5213
G01 X70.8928 Y30.5174
G01 X70.9174 Y30.5174
G01 X70.9958 Y30.5213
G01 X71.0202 Y30.5237
G01 X71.0979 Y30.5352
G01 X71.1219 Y30.5400
G01 X71.1981 Y30.5591
G01 X71.2216 Y30.5662
G01 X71.2955 Y30.5926
G01 X71.3181 Y30.6020
G01 X71.3891 Y30.6356
G01 X71.4108 Y30.6472
G01 X71.4781 Y30.6875
G01 X71.4985 Y30.7011
G01 X71.5615 Y30.7479
G01 X71.5805 Y30.7635
G01 X71.6387 Y30.8162
G01 X71.6560 Y30.8335
G01 X71.7088 Y30.8917
G01 X71.7243 Y30.9107
G01 X71.7711 Y30.9737
G01 X71.7847 Y30.9941
G01 X71.8251 Y31.0615
G01 X71.8366 Y31.0831
G01 X71.8702 Y31.1541
G01 X71.8796 Y31.1768
G01 X71.9060 Y31.2507
G01 X71.9132 Y31.2741
G01 X71.9322 Y31.3503
G01 X71.9370 Y31.3744
G01 X71.9486 Y31.4520
G01 X71.9510 Y31.4764
G01 X71.9548 Y31.5549
G01 X71.9548 Y31.5794
G01 X71.9510 Y31.6578
G01 X71.9486 Y31.6822
G01 X71.9370 Y31.7599
G01 X71.9322 Y31.7839
G01 X71.9132 Y31.8601
G01 X71.9060 Y31.8836
G01 X71.8796 Y31.9575
G01 X71.8702 Y31.9802
G01 X71.8366 Y32.0511
G01 X71.8251 Y32.0728
G01 X71.7847 Y32.1401
G01 X71.7711 Y32.1605
G01 X71.7243 Y32.2236
G01 X71.7088 Y32.2425
G01 X71.6560 Y32.3007
G01 X71.6387 Y32.3180
G01 X71.5805 Y32.3708
G01 X71.5615 Y32.3863
G01 X71.4985 Y32.4331
G01 X71.4781 Y32.4467
G01 X71.4108 Y32.4871
G01 X71.3891 Y32.4987
G01 X71.3181 Y32.5322
G01 X71.2955 Y32.5416
G01 X71.2216 Y32.5681
G01 X71.1981 Y32.5752
G01 X71.1219 Y32.5943
G01 X71.0979 Y32.5990
G01 X71.0202 Y32.6106
G01 X70.9958 Y32.6130
G01 X70.9174 Y32.6168
G01 X70.8928 Y32.6168
G01 X70.8144 Y32.6130
G01 X70.7900 Y32.6106
G01 X70.7124 Y32.5990
G01 X70.6883 Y32.5943
G01 X70.6121 Y32.5752
G01 X70.5887 Y32.5681
G01 X70.5147 Y32.5416
G01 X70.4921 Y32.5322
G01 X70.4211 Y32.4987
G01 X70.3995 Y32.4871
G01 X70.3321 Y32.4467
G01 X70.3117 Y32.4331
G01 X70.2487 Y32.3863
G01 X70.2297 Y32.3708
G01 X70.1715 Y32.3180
G01 X70.1542 Y32.3007
G01 X70.1015 Y32.2425
G01 X70.0859 Y32.2236
G01 X70.0391 Y32.1605
G01 X70.0255 Y32.1401
G01 X69.9851 Y32.0728
G01 X69.9821 Y32.0671
G01 X69.1270 Y32.0671
G01 X69.0902 Y32.0656
G01 X69.0658 Y32.0632
G01 X69.0415 Y32.0596
G01 X69.0175 Y32.0548
G01 X68.9937 Y32.0489
G01 X68.9702 Y32.0418
G01 X68.9471 Y32.0335
G01 X68.9244 Y32.0241
G01 X68.9022 Y32.0136
G01 X68.8806 Y32.0020
G01 X68.8595 Y31.9894
G01 X68.8391 Y31.9758
G01 X68.8194 Y31.9612
G01 X68.8004 Y31.9456
G01 X68.7734 Y31.9207
G01 X64.5824 Y27.7297
G01 X64.5574 Y27.7026
G01 X64.5419 Y27.6836
G01 X64.5272 Y27.6639
G01 X64.5136 Y27.6435
G01 X64.5010 Y27.6224
G01 X64.4894 Y27.6008
G01 X64.4789 Y27.5786
G01 X64.4695 Y27.5560
G01 X64.4613 Y27.5328
G01 X64.4541 Y27.5094
G01 X64.4482 Y27.4856
G01 X64.4434 Y27.4615
G01 X64.4398 Y27.4372
G01 X64.4374 Y27.4128
G01 X64.4359 Y27.3760
G01 X64.4359 Y12.8512
G01 X62.4203 Y10.8356
G01 X62.4128 Y10.8481
G01 X62.3982 Y10.8678
G01 X62.3817 Y10.8860
G01 X62.3635 Y10.9025
G01 X62.3438 Y10.9171
G01 X62.3228 Y10.9297
G01 X62.3006 Y10.9402
G01 X62.2775 Y10.9485
G01 X62.2537 Y10.9544
G01 X62.2294 Y10.9580
G01 X62.2049 Y10.9592
G01 X60.4049 Y10.9592
G01 X60.3804 Y10.9580
G01 X60.3562 Y10.9544
G01 X60.3324 Y10.9485
G01 X60.3093 Y10.9402
G01 X60.2871 Y10.9297
G01 X60.2660 Y10.9171
G01 X60.2463 Y10.9025
G01 X60.2282 Y10.8860
G01 X60.2117 Y10.8678
G01 X60.1971 Y10.8481
G01 X60.1844 Y10.8271
G01 X60.1740 Y10.8049
G01 X60.1657 Y10.7818
G01 X60.1597 Y10.7580
G01 X60.1561 Y10.7337
G01 X60.1549 Y10.7092
G01 X60.1549 Y10.6591
G01 X56.2550 Y10.6591
G01 X56.2550 Y10.7092
G01 X56.2538 Y10.7337
G01 X56.2502 Y10.7580
G01 X56.2443 Y10.7818
G01 X56.2360 Y10.8049
G01 X56.2255 Y10.8271
G01 X56.2129 Y10.8481
G01 X56.1983 Y10.8678
G01 X56.1818 Y10.8860
G01 X56.1636 Y10.9025
G01 X56.1439 Y10.9171
G01 X56.1229 Y10.9297
G01 X56.1007 Y10.9402
G01 X56.0776 Y10.9485
G01 X56.0538 Y10.9544
G01 X56.0295 Y10.9580
G01 X56.0050 Y10.9592
G01 X54.2050 Y10.9592
G01 X54.1805 Y10.9580
G01 X54.1563 Y10.9544
G01 X54.1325 Y10.9485
G01 X54.1094 Y10.9402
G01 X54.0872 Y10.9297
G01 X54.0661 Y10.9171
G01 X54.0464 Y10.9025
G01 X54.0283 Y10.8860
G01 X54.0118 Y10.8678
G01 X53.9972 Y10.8481
G01 X53.9846 Y10.8271
G01 X53.9741 Y10.8049
G01 X53.9658 Y10.7818
G01 X53.9598 Y10.7580
G01 X53.9562 Y10.7337
G01 X53.9550 Y10.7092
G01 X53.9550 Y9.6092
G01 X53.9562 Y9.5847
G01 X53.9598 Y9.5605
G01 X53.9658 Y9.5367
G01 X53.9741 Y9.5136
G01 X53.9846 Y9.4914
G01 X53.9972 Y9.4703
G01 X54.0118 Y9.4506
G01 X54.0283 Y9.4325
G01 X54.0464 Y9.4160
G01 X54.0661 Y9.4014
G01 X54.0872 Y9.3887
G01 X54.1094 Y9.3783
G01 X54.1325 Y9.3700
G01 X54.1563 Y9.3640
G01 X54.1805 Y9.3604
G01 X54.2050 Y9.3592
G01 X56.0050 Y9.3592
G01 X56.0295 Y9.3604
G01 X56.0538 Y9.3640
G01 X56.0776 Y9.3700
G01 X56.1007 Y9.3783
G01 X56.1229 Y9.3887
G01 X56.1439 Y9.4014
G01 X56.1636 Y9.4160
G01 X56.1818 Y9.4325
G01 X56.1983 Y9.4506
G01 X56.2129 Y9.4703
G01 X56.2255 Y9.4914
G01 X56.2360 Y9.5136
G01 X56.2443 Y9.5367
G01 X56.2502 Y9.5605
G01 X56.2538 Y9.5847
G01 X56.2550 Y9.6092
G01 X56.2550 Y9.6589
G01 X60.1549 Y9.6589
G01 X60.1549 Y9.6092
G01 X60.1561 Y9.5847
G01 X60.1597 Y9.5605
G01 X60.1657 Y9.5367
G01 X60.1740 Y9.5136
G01 X60.1844 Y9.4914
G01 X60.1971 Y9.4703
G01 X60.2117 Y9.4506
G01 X60.2282 Y9.4325
G01 X60.2463 Y9.4160
G01 X60.2660 Y9.4014
G01 X60.2871 Y9.3887
G01 X60.3093 Y9.3783
G01 X60.3324 Y9.3700
G01 X60.3562 Y9.3640
G01 X60.3804 Y9.3604
G01 X60.4049 Y9.3592
G01 X60.8052 Y9.3592
G01 X60.8053 Y9.2220
G01 X57.4905 Y5.9051
G01 X45.7122 Y5.9051
G01 X43.6997 Y7.9177
G01 X43.6908 Y7.9261
G01 X43.6726 Y7.9426
G01 X43.6536 Y7.9582
G01 X43.6339 Y7.9728
G01 X43.6135 Y7.9864
G01 X43.5924 Y7.9990
G01 X43.5708 Y8.0106
G01 X43.5486 Y8.0211
G01 X43.5260 Y8.0305
G01 X43.5028 Y8.0388
G01 X43.4794 Y8.0459
G01 X43.4556 Y8.0518
G01 X43.4315 Y8.0566
G01 X43.4072 Y8.0602
G01 X43.3828 Y8.0626
G01 X43.3460 Y8.0641
G01 X30.9383 Y8.0641
G01 X30.9383 Y8.2525
G01 X30.9371 Y8.2770
G01 X30.9335 Y8.3013
G01 X30.9275 Y8.3251
G01 X30.9193 Y8.3482
G01 X30.9088 Y8.3704
G01 X30.8962 Y8.3914
G01 X30.8816 Y8.4111
G01 X30.8651 Y8.4293
G01 X30.8469 Y8.4458
G01 X30.8272 Y8.4604
G01 X30.8062 Y8.4730
G01 X30.7840 Y8.4835
G01 X30.7609 Y8.4917
G01 X30.7371 Y8.4977
G01 X30.7128 Y8.5013
G01 X30.6883 Y8.5025
G01 X29.5558 Y8.5025
G01 X29.5313 Y8.5013
G01 X29.5070 Y8.4977
G01 X29.4832 Y8.4917
G01 X29.4601 Y8.4835
G01 X29.4380 Y8.4730
G01 X29.4169 Y8.4604
G01 X29.3972 Y8.4458
G01 X29.3790 Y8.4293
G01 X29.3626 Y8.4111
G01 X29.3479 Y8.3914
G01 X29.3353 Y8.3704
G01 X29.3248 Y8.3482
G01 X29.3166 Y8.3251
G01 X29.3106 Y8.3013
G01 X29.3070 Y8.2770
G01 X29.3058 Y8.2525
G01 X29.3058 Y6.8755
G01 X29.3070 Y6.8510
G01 X29.3106 Y6.8267
G01 X29.3166 Y6.8029
G01 X29.3248 Y6.7798
G01 X29.3353 Y6.7577
G01 X29.3479 Y6.7366
G01 X29.3626 Y6.7169
G01 X29.3790 Y6.6987
G01 X29.3972 Y6.6823
G01 X29.4169 Y6.6676
G01 X29.4380 Y6.6550
G01 X29.4601 Y6.6445
G01 X29.4832 Y6.6363
G01 X29.5070 Y6.6303
G01 X29.5313 Y6.6267
G01 X29.5558 Y6.6255
G00 Z2.0000
G00 X29.5558 Y4.0855
G01 F60.00
G01 Z-0.5000
G01 F120.00
G01 X30.6883 Y4.0855
G01 X30.7128 Y4.0867
G01 X30.7371 Y4.0903
G01 X30.7609 Y4.0963
G01 X30.7840 Y4.1045
G01 X30.8062 Y4.1150
G01 X30.8272 Y4.1276
G01 X30.8469 Y4.1423
G01 X30.8651 Y4.1587
G01 X30.8816 Y4.1769
G01 X30.8962 Y4.1966
G01 X30.9088 Y4.2177
G01 X30.9193 Y4.2398
G01 X30.9275 Y4.2629
G01 X30.9335 Y4.2867
G01 X30.9371 Y4.3110
G01 X30.9383 Y4.3355
G01 X30.9383 Y4.5239
G01 X42.7579 Y4.5239
G01 X44.0804 Y3.2014
G01 X44.0893 Y3.1929
G01 X44.1075 Y3.1764
G01 X44.1264 Y3.1608
G01 X44.1461 Y3.1462
G01 X44.1665 Y3.1326
G01 X44.1876 Y3.1200
G01 X44.2092 Y3.1084
G01 X44.2314 Y3.0979
G01 X44.2541 Y3.0885
G01 X44.2772 Y3.0803
G01 X44.3007 Y3.0731
G01 X44.3245 Y3.0672
G01 X44.3485 Y3.0624
G01 X44.3728 Y3.0588
G01 X44.3972 Y3.0564
G01 X44.4340 Y3.0549
G01 X47.6050 Y3.0549
G01 X47.6050 Y3.0052
G01 X47.6062 Y2.9807
G01 X47.6098 Y2.9565
G01 X47.6158 Y2.9327
G01 X47.6241 Y2.9096
G01 X47.6346 Y2.8874
G01 X47.6472 Y2.8663
G01 X47.6618 Y2.8466
G01 X47.6783 Y2.8285
G01 X47.6964 Y2.8120
G01 X47.7161 Y2.7974
G01 X47.7372 Y2.7847
G01 X47.7594 Y2.7743
G01 X47.7825 Y2.7660
G01 X47.8063 Y2.7600
G01 X47.8305 Y2.7564
G01 X47.8550 Y2.7552
G01 X49.6550 Y2.7552
G01 X49.6795 Y2.7564
G01 X49.7038 Y2.7600
G01 X49.7276 Y2.7660
G01 X49.7507 Y2.7743
G01 X49.7729 Y2.7847
G01 X49.7939 Y2.7974
G01 X49.8136 Y2.8120
G01 X49.8318 Y2.8285
G01 X49.8483 Y2.8466
G01 X49.8629 Y2.8663
G01 X49.8755 Y2.8874
G01 X49.8860 Y2.9096
G01 X49.8943 Y2.9327
G01 X49.9002 Y2.9565
G01 X49.9038 Y2.9807
G01 X49.9050 Y3.0052
G01 X49.9050 Y3.0549
G01 X53.8049 Y3.0549
G01 X53.8049 Y3.0052
G01 X53.8061 Y2.9807
G01 X53.8097 Y2.9565
G01 X53.8157 Y2.9327
G01 X53.8240 Y2.9096
G01 X53.8344 Y2.8874
G01 X53.8471 Y2.8663
G01 X53.8617 Y2.8466
G01 X53.8782 Y2.8285
G01 X53.8963 Y2.8120
G01 X53.9160 Y2.7974
G01 X53.9371 Y2.7847
G01 X53.9593 Y2.7743
G01 X53.9824 Y2.7660
G01 X54.0062 Y2.7600
G01 X54.0304 Y2.7564
G01 X54.0549 Y2.7552
G01 X55.8549 Y2.7552
G01 X55.8794 Y2.7564
G01 X55.9037 Y2.7600
G01 X55.9275 Y2.7660
G01 X55.9506 Y2.7743
G01 X55.9728 Y2.7847
G01 X55.9938 Y2.7974
G01 X56.0135 Y2.8120
G01 X56.0317 Y2.8285
G01 X56.0482 Y2.8466
G01 X56.0628 Y2.8663
G01 X56.0754 Y2.8874
G01 X56.0859 Y2.9096
G01 X56.0942 Y2.9327
G01 X56.1001 Y2.9565
G01 X56.1037 Y2.9807
G01 X56.1049 Y3.0052
G01 X56.1049 Y3.0558
G01 X58.5149 Y3.0558
G01 X58.5272 Y3.0561
G01 X58.5517 Y3.0573
G01 X58.5761 Y3.0597
G01 X58.6004 Y3.0633
G01 X58.6244 Y3.0681
G01 X58.6482 Y3.0740
G01 X58.6717 Y3.0811
G01 X58.6948 Y3.0894
G01 X58.7175 Y3.0988
G01 X58.7397 Y3.1093
G01 X58.7613 Y3.1209
G01 X58.7824 Y3.1335
G01 X58.8028 Y3.1471
G01 X58.8225 Y3.1617
G01 X58.8415 Y3.1773
G01 X58.8685 Y3.2022
G01 X66.9407 Y11.2744
G01 X66.9656 Y11.3014
G01 X66.9812 Y11.3204
G01 X66.9958 Y11.3401
G01 X67.0094 Y11.3605
G01 X67.0220 Y11.3816
G01 X67.0336 Y11.4032
G01 X67.0441 Y11.4254
G01 X67.0535 Y11.4481
G01 X67.0618 Y11.4712
G01 X67.0689 Y11.4947
G01 X67.0748 Y11.5185
G01 X67.0796 Y11.5425
G01 X67.0832 Y11.5668
G01 X67.0856 Y11.5912
G01 X67.0871 Y11.6280
G01 X67.0871 Y26.5339
G01 X69.0802 Y28.5269
G01 X69.9823 Y28.5269
G01 X69.9851 Y28.5215
G01 X70.0255 Y28.4541
G01 X70.0391 Y28.4337
G01 X70.0859 Y28.3707
G01 X70.1015 Y28.3517
G01 X70.1542 Y28.2935
G01 X70.1715 Y28.2762
G01 X70.2297 Y28.2235
G01 X70.2487 Y28.2079
G01 X70.3117 Y28.1611
G01 X70.3321 Y28.1475
G01 X70.3995 Y28.1072
G01 X70.4211 Y28.0956
G01 X70.4921 Y28.0620
G01 X70.5147 Y28.0526
G01 X70.5887 Y28.0262
G01 X70.6121 Y28.0191
G01 X70.6883 Y28.0000
G01 X70.7124 Y27.9952
G01 X70.7900 Y27.9837
G01 X70.8144 Y27.9813
G01 X70.8928 Y27.9774
G01 X70.9174 Y27.9774
G01 X70.9958 Y27.9813
G01 X71.0202 Y27.9837
G01 X71.0979 Y27.9952
G01 X71.1219 Y28.0000
G01 X71.1981 Y28.0191
G01 X71.2216 Y28.0262
G01 X71.2955 Y28.0526
G01 X71.3181 Y28.0620
G01 X71.3891 Y28.0956
G01 X71.4108 Y28.1072
G01 X71.4781 Y28.1475
G01 X71.4985 Y28.1611
G01 X71.5615 Y28.2079
G01 X71.5805 Y28.2235
G01 X71.6387 Y28.2762
G01 X71.6560 Y28.2935
G01 X71.7088 Y28.3517
G01 X71.7243 Y28.3707
G01 X71.7711 Y28.4337
G01 X71.7847 Y28.4541
G01 X71.8251 Y28.5215
G01 X71.8366 Y28.5431
G01 X71.8702 Y28.6141
G01 X71.8796 Y28.6368
G01 X71.9060 Y28.7107
G01 X71.9132 Y28.7341
G01 X71.9322 Y28.8103
G01 X71.9370 Y28.8344
G01 X71.9486 Y28.9120
G01 X71.9510 Y28.9364
G01 X71.9548 Y29.0149
G01 X71.9548 Y29.0394
G01 X71.9510 Y29.1178
G01 X71.9486 Y29.1422
G01 X71.9370 Y29.2199
G01 X71.9322 Y29.2439
G01 X71.9132 Y29.3201
G01 X71.9060 Y29.3436
G01 X71.8796 Y29.4175
G01 X71.8702 Y29.4402
G01 X71.8366 Y29.5111
G01 X71.8251 Y29.5328
G01 X71.7847 Y29.6001
G01 X71.7711 Y29.6205
G01 X71.7243 Y29.6836
G01 X71.7088 Y29.7025
G01 X71.6560 Y29.7607
G01 X71.6387 Y29.7780
G01 X71.5805 Y29.8308
G01 X71.5615 Y29.8463
G01 X71.4985 Y29.8931
G01 X71.4781 Y29.9067
G01 X71.4108 Y29.9471
G01 X71.3891 Y29.9587
G01 X71.3181 Y29.9922
G01 X71.2955 Y30.0016
G01 X71.2216 Y30.0281
G01 X71.1981 Y30.0352
G01 X71.1219 Y30.0543
G01 X71.0979 Y30.0590
G01 X71.0202 Y30.0706
G01 X70.9958 Y30.0730
G01 X70.9174 Y30.0768
G01 X70.8928 Y30.0768
G01 X70.8144 Y30.0730
G01 X70.7900 Y30.0706
G01 X70.7124 Y30.0590
G01 X70.6883 Y30.0543
G01 X70.6121 Y30.0352
G01 X70.5887 Y30.0281
G01 X70.5147 Y30.0016
G01 X70.4921 Y29.9922
G01 X70.4211 Y29.9587
G01 X70.3995 Y29.9471
G01 X70.3321 Y29.9067
G01 X70.3117 Y29.8931
G01 X70.2487 Y29.8463
G01 X70.2297 Y29.8308
G01 X70.1715 Y29.7780
G01 X70.1542 Y29.7607
G01 X70.1015 Y29.7025
G01 X70.0859 Y29.6836
G01 X70.0391 Y29.6205
G01 X70.0255 Y29.6001
G01 X69.9851 Y29.5328
G01 X69.9821 Y29.5271
G01 X68.8730 Y29.5271
G01 X68.8607 Y29.5268
G01 X68.8362 Y29.5256
G01 X68.8118 Y29.5232
G01 X68.7875 Y29.5196
G01 X68.7635 Y29.5148
G01 X68.7397 Y29.5089
G01 X68.7162 Y29.5018
G01 X68.6931 Y29.4935
G01 X68.6704 Y29.4841
G01 X68.6482 Y29.4736
G01 X68.6266 Y29.4620
G01 X68.6055 Y29.4494
G01 X68.5851 Y29.4358
G01 X68.5654 Y29.4212
G01 X68.5464 Y29.4056
G01 X68.5194 Y29.3807
G01 X66.2334 Y27.0947
G01 X66.2084 Y27.0676
G01 X66.1929 Y27.0486
G01 X66.1782 Y27.0289
G01 X66.1646 Y27.0085
G01 X66.1520 Y26.9874
G01 X66.1404 Y26.9658
G01 X66.1299 Y26.9436
G01 X66.1205 Y26.9210
G01 X66.1123 Y26.8978
G01 X66.1051 Y26.8744
G01 X66.0992 Y26.8506
G01 X66.0944 Y26.8265
G01 X66.0908 Y26.8022
G01 X66.0884 Y26.7778
G01 X66.0869 Y26.7410
G01 X66.0869 Y11.8352
G01 X58.3077 Y4.0560
G01 X56.1049 Y4.0560
G01 X56.1049 Y4.1052
G01 X56.1037 Y4.1297
G01 X56.1001 Y4.1540
G01 X56.0942 Y4.1778
G01 X56.0859 Y4.2009
G01 X56.0754 Y4.2231
G01 X56.0628 Y4.2441
G01 X56.0482 Y4.2638
G01 X56.0317 Y4.2820
G01 X56.0135 Y4.2985
G01 X55.9938 Y4.3131
G01 X55.9728 Y4.3257
G01 X55.9506 Y4.3362
G01 X55.9275 Y4.3445
G01 X55.9037 Y4.3504
G01 X55.8794 Y4.3540
G01 X55.8549 Y4.3552
G01 X54.0549 Y4.3552
G01 X54.0304 Y4.3540
G01 X54.0062 Y4.3504
G01 X53.9824 Y4.3445
G01 X53.9593 Y4.3362
G01 X53.9371 Y4.3257
G01 X53.9160 Y4.3131
G01 X53.8963 Y4.2985
G01 X53.8782 Y4.2820
G01 X53.8617 Y4.2638
G01 X53.8471 Y4.2441
G01 X53.8344 Y4.2231
G01 X53.8240 Y4.2009
G01 X53.8157 Y4.1778
G01 X53.8097 Y4.1540
G01 X53.8061 Y4.1297
G01 X53.8049 Y4.1052
G01 X53.8049 Y4.0551
G01 X49.9050 Y4.0551
G01 X49.9050 Y4.1052
G01 X49.9038 Y4.1297
G01 X49.9002 Y4.1540
G01 X49.8943 Y4.1778
G01 X49.8860 Y4.2009
G01 X49.8755 Y4.2231
G01 X49.8629 Y4.2441
G01 X49.8483 Y4.2638
G01 X49.8318 Y4.2820
G01 X49.8136 Y4.2985
G01 X49.7939 Y4.3131
G01 X49.7729 Y4.3257
G01 X49.7507 Y4.3362
G01 X49.7276 Y4.3445
G01 X49.7038 Y4.3504
G01 X49.6795 Y4.3540
G01 X49.6550 Y4.3552
G01 X47.8550 Y4.3552
G01 X47.8305 Y4.3540
G01 X47.8063 Y4.3504
G01 X47.7825 Y4.3445
G01 X47.7594 Y4.3362
G01 X47.7372 Y4.3257
G01 X47.7161 Y4.3131
G01 X47.6964 Y4.2985
G01 X47.6783 Y4.2820
G01 X47.6618 Y4.2638
G01 X47.6472 Y4.2441
G01 X47.6346 Y4.2231
G01 X47.6241 Y4.2009
G01 X47.6158 Y4.1778
G01 X47.6098 Y4.1540
G01 X47.6062 Y4.1297
G01 X47.6050 Y4.1052
G01 X47.6050 Y4.0551
G01 X44.6412 Y4.0551
G01 X43.3187 Y5.3777
G01 X43.3098 Y5.3861
G01 X43.2916 Y5.4026
G01 X43.2726 Y5.4182
G01 X43.2529 Y5.4328
G01 X43.2325 Y5.4464
G01 X43.2114 Y5.4590
G01 X43.1898 Y5.4706
G01 X43.1676 Y5.4811
G01 X43.1450 Y5.4905
G01 X43.1218 Y5.4988
G01 X43.0984 Y5.5059
G01 X43.0746 Y5.5118
G01 X43.0505 Y5.5166
G01 X43.0262 Y5.5202
G01 X43.0018 Y5.5226
G01 X42.9650 Y5.5241
G01 X30.9383 Y5.5241
G01 X30.9383 Y5.7125
G01 X30.9371 Y5.7370
G01 X30.9335 Y5.7613
G01 X30.9275 Y5.7851
G01 X30.9193 Y5.8082
G01 X30.9088 Y5.8304
G01 X30.8962 Y5.8514
G01 X30.8816 Y5.8711
G01 X30.8651 Y5.8893
G01 X30.8469 Y5.9058
G01 X30.8272 Y5.9204
G01 X30.8062 Y5.9330
G01 X30.7840 Y5.9435
G01 X30.7609 Y5.9517
G01 X30.7371 Y5.9577
G01 X30.7128 Y5.9613
G01 X30.6883 Y5.9625
G01 X29.5558 Y5.9625
G01 X29.5313 Y5.9613
G01 X29.5070 Y5.9577
G01 X29.4832 Y5.9517
G01 X29.4601 Y5.9435
G01 X29.4380 Y5.9330
G01 X29.4169 Y5.9204
G01 X29.3972 Y5.9058
G01 X29.3790 Y5.8893
G01 X29.3626 Y5.8711
G01 X29.3479 Y5.8514
G01 X29.3353 Y5.8304
G01 X29.3248 Y5.8082
G01 X29.3166 Y5.7851
G01 X29.3106 Y5.7613
G01 X29.3070 Y5.7370
G01 X29.3058 Y5.7125
G01 X29.3058 Y4.3355
G01 X29.3070 Y4.3110
G01 X29.3106 Y4.2867
G01 X29.3166 Y4.2629
G01 X29.3248 Y4.2398
G01 X29.3353 Y4.2177
G01 X29.3479 Y4.1966
G01 X29.3626 Y4.1769
G01 X29.3790 Y4.1587
G01 X29.3972 Y4.1423
G01 X29.4169 Y4.1276
G01 X29.4380 Y4.1150
G01 X29.4601 Y4.1045
G01 X29.4832 Y4.0963
G01 X29.5070 Y4.0903
G01 X29.5313 Y4.0867
G01 X29.5558 Y4.0855
G00 Z2.0000
G00 X22.2719 Y16.1179
G01 F60.00
G01 Z-0.5000
G01 F120.00
G01 X22.2547 Y16.1076
G01 X22.2343 Y16.0940
G01 X22.1791 Y16.0530
G01 X22.1601 Y16.0375
G01 X22.1092 Y15.9913
G01 X22.0919 Y15.9740
G01 X22.0458 Y15.9231
G01 X22.0302 Y15.9041
G01 X21.9893 Y15.8489
G01 X21.9756 Y15.8285
G01 X21.9403 Y15.7696
G01 X21.9288 Y15.7480
G01 X21.8994 Y15.6859
G01 X21.8900 Y15.6632
G01 X21.8669 Y15.5985
G01 X21.8597 Y15.5751
G01 X21.8431 Y15.5084
G01 X21.8383 Y15.4844
G01 X21.8282 Y15.4164
G01 X21.8258 Y15.3920
G01 X21.8224 Y15.3234
G01 X21.8224 Y15.2989
G01 X21.8258 Y15.2302
G01 X21.8282 Y15.2058
G01 X21.8383 Y15.1379
G01 X21.8431 Y15.1138
G01 X21.8597 Y15.0472
G01 X21.8669 Y15.0237
G01 X21.8900 Y14.9590
G01 X21.8994 Y14.9364
G01 X21.9288 Y14.8743
G01 X21.9403 Y14.8526
G01 X21.9756 Y14.7937
G01 X21.9893 Y14.7733
G01 X22.0015 Y14.7568
G01 X17.4301 Y19.3282
G01 X17.4301 Y27.2490
G01 X17.4286 Y27.2858
G01 X17.4262 Y27.3102
G01 X17.4226 Y27.3345
G01 X17.4178 Y27.3586
G01 X17.4119 Y27.3824
G01 X17.4048 Y27.4058
G01 X17.3965 Y27.4290
G01 X17.3871 Y27.4516
G01 X17.3766 Y27.4738
G01 X17.3650 Y27.4954
G01 X17.3524 Y27.5165
G01 X17.3388 Y27.5369
G01 X17.3242 Y27.5566
G01 X17.3086 Y27.5756
G01 X17.2837 Y27.6027
G01 X12.9657 Y31.9207
G01 X12.9386 Y31.9456
G01 X12.9196 Y31.9612
G01 X12.8999 Y31.9758
G01 X12.8795 Y31.9894
G01 X12.8584 Y32.0020
G01 X12.8368 Y32.0136
G01 X12.8146 Y32.0241
G01 X12.7920 Y32.0335
G01 X12.7688 Y32.0418
G01 X12.7454 Y32.0489
G01 X12.7216 Y32.0548
G01 X12.6975 Y32.0596
G01 X12.6732 Y32.0632
G01 X12.6488 Y32.0656
G01 X12.6120 Y32.0671
G01 X11.3761 Y32.0671
G01 X11.3731 Y32.0728
G01 X11.3327 Y32.1401
G01 X11.3191 Y32.1605
G01 X11.2723 Y32.2236
G01 X11.2568 Y32.2425
G01 X11.2040 Y32.3007
G01 X11.1867 Y32.3180
G01 X11.1285 Y32.3708
G01 X11.1095 Y32.3863
G01 X11.0465 Y32.4331
G01 X11.0261 Y32.4467
G01 X10.9588 Y32.4871
G01 X10.9371 Y32.4987
G01 X10.8661 Y32.5322
G01 X10.8435 Y32.5416
G01 X10.7696 Y32.5681
G01 X10.7461 Y32.5752
G01 X10.6699 Y32.5943
G01 X10.6459 Y32.5990
G01 X10.5682 Y32.6106
G01 X10.5438 Y32.6130
G01 X10.4654 Y32.6168
G01 X10.4408 Y32.6168
G01 X10.3624 Y32.6130
G01 X10.3380 Y32.6106
G01 X10.2604 Y32.5990
G01 X10.2363 Y32.5943
G01 X10.1601 Y32.5752
G01 X10.1367 Y32.5681
G01 X10.0627 Y32.5416
G01 X10.0401 Y32.5322
G01 X9.9691 Y32.4987
G01 X9.9475 Y32.4871
G01 X9.8801 Y32.4467
G01 X9.8597 Y32.4331
G01 X9.7967 Y32.3863
G01 X9.7777 Y32.3708
G01 X9.7195 Y32.3180
G01 X9.7022 Y32.3007
G01 X9.6495 Y32.2425
G01 X9.6339 Y32.2236
G01 X9.5871 Y32.1605
G01 X9.5735 Y32.1401
G01 X9.5331 Y32.0728
G01 X9.5216 Y32.0511
G01 X9.4880 Y31.9802
G01 X9.4786 Y31.9575
G01 X9.4522 Y31.8836
G01 X9.4451 Y31.8601
G01 X9.4260 Y31.7839
G01 X9.4212 Y31.7599
G01 X9.4097 Y31.6822
G01 X9.4073 Y31.6578
G01 X9.4034 Y31.5794
G01 X9.4034 Y31.5549
G01 X9.4073 Y31.4764
G01 X9.4097 Y31.4520
G01 X9.4212 Y31.3744
G01 X9.4260 Y31.3503
G01 X9.4451 Y31.2741
G01 X9.4522 Y31.2507
G01 X9.4786 Y31.1768
G01 X9.4880 Y31.1541
G01 X9.5216 Y31.0831
G01 X9.5331 Y31.0615
G01 X9.5735 Y30.9941
G01 X9.5871 Y30.9737
G01 X9.6339 Y30.9107
G01 X9.6495 Y30.8917
G01 X9.7022 Y30.8335
G01 X9.7195 Y30.8162
G01 X9.7777 Y30.7635
G01 X9.7967 Y30.7479
G01 X9.8597 Y30.7011
G01 X9.8801 Y30.6875
G01 X9.9475 Y30.6472
G01 X9.9691 Y30.6356
G01 X10.0401 Y30.6020
G01 X10.0627 Y30.5926
G01 X10.1367 Y30.5662
G01 X10.1601 Y30.5591
G01 X10.2363 Y30.5400
G01 X10.2604 Y30.5352
G01 X10.3380 Y30.5237
G01 X10.3624 Y30.5213
G01 X10.4408 Y30.5174
G01 X10.4654 Y30.5174
G01 X10.5438 Y30.5213
G01 X10.5682 Y30.5237
G01 X10.6459 Y30.5352
G01 X10.6699 Y30.5400
G01 X10.7461 Y30.5591
G01 X10.7696 Y30.5662
G01 X10.8435 Y30.5926
G01 X10.8661 Y30.6020
G01 X10.9371 Y30.6356
G01 X10.9588 Y30.6472
G01 X11.0261 Y30.6875
G01 X11.0465 Y30.7011
G01 X11.1095 Y30.7479
G01 X11.1285 Y30.7635
G01 X11.1867 Y30.8162
G01 X11.2040 Y30.8335
G01 X11.2568 Y30.8917
G01 X11.2723 Y30.9107
G01 X11.3191 Y30.9737
G01 X11.3327 Y30.9941
G01 X11.3731 Y31.0615
G01 X11.3760 Y31.0669
G01 X12.4049 Y31.0669
G01 X16.4299 Y27.0419
G01 X16.4299 Y19.1210
G01 X16.4314 Y19.0842
G01 X16.4338 Y19.0598
G01 X16.4374 Y19.0355
G01 X16.4422 Y19.0115
G01 X16.4481 Y18.9877
G01 X16.4553 Y18.9642
G01 X16.4635 Y18.9411
G01 X16.4729 Y18.9184
G01 X16.4834 Y18.8962
G01 X16.4950 Y18.8746
G01 X16.5076 Y18.8535
G01 X16.5212 Y18.8331
G01 X16.5359 Y18.8134
G01 X16.5514 Y18.7944
G01 X16.5764 Y18.7674
G01 X23.1644 Y12.1794
G01 X23.1914 Y12.1544
G01 X23.2104 Y12.1389
G01 X23.2301 Y12.1242
G01 X23.2505 Y12.1106
G01 X23.2716 Y12.0980
G01 X23.2932 Y12.0864
G01 X23.3154 Y12.0759
G01 X23.3381 Y12.0665
G01 X23.3612 Y12.0583
G01 X23.3847 Y12.0512
G01 X23.4085 Y12.0452
G01 X23.4325 Y12.0404
G01 X23.4568 Y12.0368
G01 X23.4812 Y12.0344
G01 X23.5180 Y12.0329
G01 X24.5005 Y12.0329
G01 X24.5005 Y11.9667
G01 X24.5017 Y11.9422
G01 X24.5053 Y11.9179
G01 X24.5113 Y11.8941
G01 X24.5195 Y11.8710
G01 X24.5300 Y11.8489
G01 X24.5426 Y11.8278
G01 X24.5573 Y11.8081
G01 X24.5737 Y11.7899
G01 X24.5919 Y11.7735
G01 X24.6116 Y11.7588
G01 X24.6327 Y11.7462
G01 X24.6548 Y11.7357
G01 X24.6779 Y11.7275
G01 X24.7017 Y11.7215
G01 X24.7260 Y11.7179
G01 X24.7505 Y11.7167
G01 X26.1275 Y11.7167
G01 X26.1520 Y11.7179
G01 X26.1763 Y11.7215
G01 X26.2001 Y11.7275
G01 X26.2232 Y11.7357
G01 X26.2454 Y11.7462
G01 X26.2664 Y11.7588
G01 X26.2861 Y11.7735
G01 X26.3043 Y11.7899
G01 X26.3208 Y11.8081
G01 X26.3354 Y11.8278
G01 X26.3480 Y11.8489
G01 X26.3585 Y11.8710
G01 X26.3667 Y11.8941
G01 X26.3727 Y11.9179
G01 X26.3763 Y11.9422
G01 X26.3775 Y11.9667
G01 X26.3775 Y12.0329
G01 X37.0120 Y12.0329
G01 X37.0488 Y12.0344
G01 X37.0732 Y12.0368
G01 X37.0975 Y12.0404
G01 X37.1216 Y12.0452
G01 X37.1454 Y12.0512
G01 X37.1688 Y12.0583
G01 X37.1920 Y12.0665
G01 X37.2146 Y12.0759
G01 X37.2368 Y12.0864
G01 X37.2584 Y12.0980
G01 X37.2795 Y12.1106
G01 X37.2999 Y12.1242
G01 X37.3196 Y12.1389
G01 X37.3386 Y12.1544
G01 X37.3657 Y12.1794
G01 X41.5762 Y16.3899
G01 X47.7320 Y16.3899
G01 X47.7320 Y16.3402
G01 X47.7332 Y16.3157
G01 X47.7368 Y16.2915
G01 X47.7428 Y16.2677
G01 X47.7511 Y16.2446
G01 X47.7616 Y16.2224
G01 X47.7742 Y16.2013
G01 X47.7888 Y16.1816
G01 X47.8053 Y16.1635
G01 X47.8234 Y16.1470
G01 X47.8431 Y16.1324
G01 X47.8642 Y16.1197
G01 X47.8864 Y16.1093
G01 X47.9095 Y16.1010
G01 X47.9333 Y16.0950
G01 X47.9575 Y16.0914
G01 X47.9820 Y16.0902
G01 X49.7820 Y16.0902
G01 X49.8065 Y16.0914
G01 X49.8308 Y16.0950
G01 X49.8546 Y16.1010
G01 X49.8777 Y16.1093
G01 X49.8999 Y16.1197
G01 X49.9209 Y16.1324
G01 X49.9406 Y16.1470
G01 X49.9588 Y16.1635
G01 X49.9753 Y16.1816
G01 X49.9899 Y16.2013
G01 X50.0025 Y16.2224
G01 X50.0130 Y16.2446
G01 X50.0213 Y16.2677
G01 X50.0272 Y16.2915
G01 X50.0308 Y16.3157
G01 X50.0320 Y16.3402
G01 X50.0320 Y16.3899
G01 X53.9319 Y16.3899
G01 X53.9319 Y16.3402
G01 X53.9331 Y16.3157
G01 X53.9367 Y16.2915
G01 X53.9427 Y16.2677
G01 X53.9510 Y16.2446
G01 X53.9614 Y16.2224
G01 X53.9741 Y16.2013
G01 X53.9887 Y16.1816
G01 X54.0052 Y16.1635
G01 X54.0233 Y16.1470
G01 X54.0430 Y16.1324
G01 X54.0641 Y16.1197
G01 X54.0863 Y16.1093
G01 X54.1094 Y16.1010
G01 X54.1332 Y16.0950
G01 X54.1574 Y16.0914
G01 X54.1819 Y16.0902
G01 X55.9819 Y16.0902
G01 X56.0064 Y16.0914
G01 X56.0307 Y16.0950
G01 X56.0545 Y16.1010
G01 X56.0776 Y16.1093
G01 X56.0998 Y16.1197
G01 X56.1208 Y16.1324
G01 X56.1405 Y16.1470
G01 X56.1587 Y16.1635
G01 X56.1752 Y16.1816
G01 X56.1898 Y16.2013
G01 X56.2024 Y16.2224
G01 X56.2129 Y16.2446
G01 X56.2212 Y16.2677
G01 X56.2271 Y16.2915
G01 X56.2307 Y16.3157
G01 X56.2319 Y16.3402
G01 X56.2319 Y17.4402
G01 X56.2307 Y17.4647
G01 X56.2271 Y17.4890
G01 X56.2212 Y17.5128
G01 X56.2129 Y17.5359
G01 X56.2024 Y17.5581
G01 X56.1898 Y17.5791
G01 X56.1752 Y17.5988
G01 X56.1587 Y17.6170
G01 X56.1405 Y17.6335
G01 X56.1208 Y17.6481
G01 X56.0998 Y17.6607
G01 X56.0776 Y17.6712
G01 X56.0545 Y17.6795
G01 X56.0307 Y17.6854
G01 X56.0064 Y17.6890
G01 X55.9819 Y17.6902
G01 X54.1819 Y17.6902
G01 X54.1574 Y17.6890
G01 X54.1332 Y17.6854
G01 X54.1094 Y17.6795
G01 X54.0863 Y17.6712
G01 X54.0641 Y17.6607
G01 X54.0430 Y17.6481
G01 X54.0233 Y17.6335
G01 X54.0052 Y17.6170
G01 X53.9887 Y17.5988
G01 X53.9741 Y17.5791
G01 X53.9614 Y17.5581
G01 X53.9510 Y17.5359
G01 X53.9427 Y17.5128
G01 X53.9367 Y17.4890
G01 X53.9331 Y17.4647
G01 X53.9319 Y17.4402
G01 X53.9319 Y17.3901
G01 X50.0320 Y17.3901
G01 X50.0320 Y17.4402
G01 X50.0308 Y17.4647
G01 X50.0272 Y17.4890
G01 X50.0213 Y17.5128
G01 X50.0130 Y17.5359
G01 X50.0025 Y17.5581
G01 X49.9899 Y17.5791
G01 X49.9753 Y17.5988
G01 X49.9588 Y17.6170
G01 X49.9406 Y17.6335
G01 X49.9209 Y17.6481
G01 X49.8999 Y17.6607
G01 X49.8777 Y17.6712
G01 X49.8546 Y17.6795
G01 X49.8308 Y17.6854
G01 X49.8065 Y17.6890
G01 X49.7820 Y17.6902
G01 X47.9820 Y17.6902
G01 X47.9575 Y17.6890
G01 X47.9333 Y17.6854
G01 X47.9095 Y17.6795
G01 X47.8864 Y17.6712
G01 X47.8642 Y17.6607
G01 X47.8431 Y17.6481
G01 X47.8234 Y17.6335
G01 X47.8053 Y17.6170
G01 X47.7888 Y17.5988
G01 X47.7742 Y17.5791
G01 X47.7616 Y17.5581
G01 X47.7511 Y17.5359
G01 X47.7428 Y17.5128
G01 X47.7368 Y17.4890
G01 X47.7332 Y17.4647
G01 X47.7320 Y17.4402
G01 X47.7320 Y17.3901
G01 X41.3690 Y17.3901
G01 X41.3322 Y17.3886
G01 X41.3200 Y17.3877
G01 X41.3078 Y17.3862
G01 X41.2715 Y17.3805
G01 X41.2357 Y17.3719
G01 X41.2239 Y17.3686
G01 X41.2122 Y17.3647
G01 X41.1776 Y17.3521
G01 X41.1442 Y17.3366
G01 X41.1333 Y17.3311
G01 X41.1226 Y17.3250
G01 X41.1015 Y17.3124
G01 X41.0912 Y17.3058
G01 X41.0811 Y17.2988
G01 X41.0518 Y17.2766
G01 X41.0425 Y17.2686
G01 X41.0154 Y17.2436
G01 X36.8049 Y13.0331
G01 X26.3775 Y13.0331
G01 X26.3775 Y13.0992
G01 X26.3763 Y13.1237
G01 X26.3727 Y13.1480
G01 X26.3667 Y13.1718
G01 X26.3585 Y13.1949
G01 X26.3480 Y13.2171
G01 X26.3354 Y13.2381
G01 X26.3208 Y13.2578
G01 X26.3043 Y13.2760
G01 X26.2861 Y13.2925
G01 X26.2664 Y13.3071
G01 X26.2454 Y13.3197
G01 X26.2232 Y13.3302
G01 X26.2001 Y13.3384
G01 X26.1763 Y13.3444
G01 X26.1520 Y13.3480
G01 X26.1275 Y13.3492
G01 X24.7505 Y13.3492
G01 X24.7260 Y13.3480
G01 X24.7017 Y13.3444
G01 X24.6779 Y13.3384
G01 X24.6548 Y13.3302
G01 X24.6327 Y13.3197
G01 X24.6116 Y13.3071
G01 X24.5919 Y13.2925
G01 X24.5737 Y13.2760
G01 X24.5573 Y13.2578
G01 X24.5426 Y13.2381
G01 X24.5300 Y13.2171
G01 X24.5195 Y13.1949
G01 X24.5113 Y13.1718
G01 X24.5053 Y13.1480
G01 X24.5017 Y13.1237
G01 X24.5005 Y13.0992
G01 X24.5005 Y13.0331
G01 X23.7252 Y13.0331
G01 X22.2178 Y14.5405
G01 X22.2343 Y14.5283
G01 X22.2547 Y14.5147
G01 X22.3136 Y14.4793
G01 X22.3352 Y14.4678
G01 X22.3973 Y14.4384
G01 X22.4200 Y14.4290
G01 X22.4847 Y14.4059
G01 X22.5082 Y14.3988
G01 X22.5748 Y14.3821
G01 X22.5989 Y14.3773
G01 X22.6668 Y14.3672
G01 X22.6912 Y14.3648
G01 X22.7598 Y14.3614
G01 X22.7844 Y14.3614
G01 X22.8530 Y14.3648
G01 X22.8774 Y14.3672
G01 X22.9454 Y14.3773
G01 X22.9694 Y14.3821
G01 X22.9888 Y14.3869
G01 X23.1964 Y14.1794
G01 X23.2234 Y14.1544
G01 X23.2424 Y14.1389
G01 X23.2621 Y14.1242
G01 X23.2825 Y14.1106
G01 X23.3036 Y14.0980
G01 X23.3252 Y14.0864
G01 X23.3474 Y14.0759
G01 X23.3701 Y14.0665
G01 X23.3932 Y14.0583
G01 X23.4167 Y14.0511
G01 X23.4405 Y14.0452
G01 X23.4645 Y14.0404
G01 X23.4888 Y14.0368
G01 X23.5132 Y14.0344
G01 X23.5500 Y14.0329
G01 X24.5006 Y14.0329
G01 X24.5006 Y13.9669
G01 X24.5018 Y13.9424
G01 X24.5054 Y13.9181
G01 X24.5114 Y13.8943
G01 X24.5196 Y13.8712
G01 X24.5301 Y13.8490
G01 X24.5427 Y13.8280
G01 X24.5574 Y13.8083
G01 X24.5738 Y13.7901
G01 X24.5920 Y13.7736
G01 X24.6117 Y13.7590
G01 X24.6328 Y13.7464
G01 X24.6549 Y13.7359
G01 X24.6780 Y13.7276
G01 X24.7018 Y13.7217
G01 X24.7261 Y13.7181
G01 X24.7506 Y13.7169
G01 X26.1276 Y13.7169
G01 X26.1521 Y13.7181
G01 X26.1764 Y13.7217
G01 X26.2002 Y13.7276
G01 X26.2233 Y13.7359
G01 X26.2455 Y13.7464
G01 X26.2665 Y13.7590
G01 X26.2862 Y13.7736
G01 X26.3044 Y13.7901
G01 X26.3209 Y13.8083
G01 X26.3355 Y13.8280
G01 X26.3481 Y13.8490
G01 X26.3586 Y13.8712
G01 X26.3668 Y13.8943
G01 X26.3728 Y13.9181
G01 X26.3764 Y13.9424
G01 X26.3776 Y13.9669
G01 X26.3776 Y15.0994
G01 X26.3764 Y15.1239
G01 X26.3728 Y15.1481
G01 X26.3668 Y15.1719
G01 X26.3586 Y15.1950
G01 X26.3481 Y15.2172
G01 X26.3355 Y15.2383
G01 X26.3209 Y15.2580
G01 X26.3044 Y15.2761
G01 X26.2862 Y15.2926
G01 X26.2665 Y15.3072
G01 X26.2455 Y15.3198
G01 X26.2233 Y15.3303
G01 X26.2002 Y15.3386
G01 X26.1764 Y15.3446
G01 X26.1521 Y15.3482
G01 X26.1276 Y15.3494
G01 X24.7506 Y15.3494
G01 X24.7261 Y15.3482
G01 X24.7018 Y15.3446
G01 X24.6780 Y15.3386
G01 X24.6549 Y15.3303
G01 X24.6328 Y15.3198
G01 X24.6117 Y15.3072
G01 X24.5920 Y15.2926
G01 X24.5738 Y15.2761
G01 X24.5574 Y15.2580
G01 X24.5427 Y15.2383
G01 X24.5301 Y15.2172
G01 X24.5196 Y15.1950
G01 X24.5114 Y15.1719
G01 X24.5054 Y15.1481
G01 X24.5018 Y15.1239
G01 X24.5006 Y15.0994
G01 X24.5006 Y15.0331
G01 X23.7572 Y15.0331
G01 X23.6962 Y15.0941
G01 X23.7012 Y15.1138
G01 X23.7060 Y15.1379
G01 X23.7160 Y15.2058
G01 X23.7184 Y15.2302
G01 X23.7218 Y15.2989
G01 X23.7218 Y15.3234
G01 X23.7184 Y15.3920
G01 X23.7160 Y15.4164
G01 X23.7060 Y15.4844
G01 X23.7012 Y15.5084
G01 X23.6845 Y15.5751
G01 X23.6774 Y15.5985
G01 X23.6542 Y15.6632
G01 X23.6448 Y15.6859
G01 X23.6155 Y15.7480
G01 X23.6039 Y15.7696
G01 X23.5686 Y15.8285
G01 X23.5549 Y15.8489
G01 X23.5140 Y15.9041
G01 X23.4985 Y15.9231
G01 X23.4523 Y15.9740
G01 X23.4350 Y15.9913
G01 X23.3841 Y16.0375
G01 X23.3651 Y16.0530
G01 X23.3099 Y16.0940
G01 X23.2895 Y16.1076
G01 X23.2721 Y16.1180
G01 X23.2721 Y16.2822
G01 X23.2895 Y16.2927
G01 X23.3099 Y16.3063
G01 X23.3651 Y16.3472
G01 X23.3841 Y16.3628
G01 X23.4350 Y16.4089
G01 X23.4523 Y16.4263
G01 X23.4985 Y16.4772
G01 X23.5140 Y16.4961
G01 X23.5549 Y16.5513
G01 X23.5686 Y16.5717
G01 X23.6039 Y16.6306
G01 X23.6155 Y16.6523
G01 X23.6448 Y16.7144
G01 X23.6542 Y16.7370
G01 X23.6774 Y16.8017
G01 X23.6845 Y16.8252
G01 X23.7012 Y16.8918
G01 X23.7060 Y16.9159
G01 X23.7160 Y16.9838
G01 X23.7184 Y17.0082
G01 X23.7218 Y17.0769
G01 X23.7218 Y17.1014
G01 X23.7184 Y17.1700
G01 X23.7160 Y17.1944
G01 X23.7060 Y17.2624
G01 X23.7012 Y17.2864
G01 X23.6845 Y17.3531
G01 X23.6774 Y17.3765
G01 X23.6542 Y17.4412
G01 X23.6448 Y17.4639
G01 X23.6155 Y17.5260
G01 X23.6039 Y17.5476
G01 X23.5686 Y17.6065
G01 X23.5549 Y17.6269
G01 X23.5140 Y17.6821
G01 X23.4985 Y17.7011
G01 X23.4567 Y17.7471
G01 X24.2465 Y17.7471
G01 X24.2465 Y17.6817
G01 X24.2477 Y17.6572
G01 X24.2513 Y17.6329
G01 X24.2573 Y17.6091
G01 X24.2655 Y17.5860
G01 X24.2760 Y17.5639
G01 X24.2886 Y17.5428
G01 X24.3033 Y17.5231
G01 X24.3197 Y17.5049
G01 X24.3379 Y17.4885
G01 X24.3576 Y17.4738
G01 X24.3787 Y17.4612
G01 X24.4008 Y17.4507
G01 X24.4239 Y17.4425
G01 X24.4477 Y17.4365
G01 X24.4720 Y17.4329
G01 X24.4965 Y17.4317
G01 X25.0618 Y17.4317
G01 X25.3815 Y16.8486
G01 X25.3999 Y16.8179
G01 X25.4134 Y16.7981
G01 X25.4277 Y16.7790
G01 X25.4430 Y16.7607
G01 X25.4591 Y16.7430
G01 X25.4760 Y16.7262
G01 X25.4937 Y16.7102
G01 X25.5122 Y16.6950
G01 X25.5314 Y16.6808
G01 X25.5512 Y16.6675
G01 X25.5716 Y16.6551
G01 X25.5926 Y16.6437
G01 X25.6141 Y16.6334
G01 X25.6361 Y16.6241
G01 X25.6586 Y16.6158
G01 X25.6813 Y16.6086
G01 X25.7044 Y16.6026
G01 X25.7278 Y16.5976
G01 X25.7514 Y16.5938
G01 X25.7751 Y16.5911
G01 X25.8109 Y16.5890
G01 X28.5550 Y16.5387
G01 X28.5550 Y16.4672
G01 X28.5562 Y16.4427
G01 X28.5598 Y16.4185
G01 X28.5658 Y16.3947
G01 X28.5741 Y16.3716
G01 X28.5846 Y16.3494
G01 X28.5972 Y16.3283
G01 X28.6118 Y16.3086
G01 X28.6283 Y16.2905
G01 X28.6464 Y16.2740
G01 X28.6661 Y16.2594
G01 X28.6872 Y16.2467
G01 X28.7094 Y16.2363
G01 X28.7325 Y16.2280
G01 X28.7563 Y16.2220
G01 X28.7805 Y16.2184
G01 X28.8050 Y16.2172
G01 X30.6050 Y16.2172
G01 X30.6295 Y16.2184
G01 X30.6538 Y16.2220
G01 X30.6776 Y16.2280
G01 X30.7007 Y16.2363
G01 X30.7229 Y16.2467
G01 X30.7439 Y16.2594
G01 X30.7636 Y16.2740
G01 X30.7818 Y16.2905
G01 X30.7983 Y16.3086
G01 X30.8129 Y16.3283
G01 X30.8255 Y16.3494
G01 X30.8360 Y16.3716
G01 X30.8443 Y16.3947
G01 X30.8502 Y16.4185
G01 X30.8538 Y16.4427
G01 X30.8550 Y16.4672
G01 X30.8550 Y16.5169
G01 X34.7549 Y16.5169
G01 X34.7549 Y16.4672
G01 X34.7561 Y16.4427
G01 X34.7597 Y16.4185
G01 X34.7657 Y16.3947
G01 X34.7740 Y16.3716
G01 X34.7844 Y16.3494
G01 X34.7971 Y16.3283
G01 X34.8117 Y16.3086
G01 X34.8282 Y16.2905
G01 X34.8463 Y16.2740
G01 X34.8660 Y16.2594
G01 X34.8871 Y16.2467
G01 X34.9093 Y16.2363
G01 X34.9324 Y16.2280
G01 X34.9562 Y16.2220
G01 X34.9804 Y16.2184
G01 X35.0049 Y16.2172
G01 X36.8049 Y16.2172
G01 X36.8294 Y16.2184
G01 X36.8537 Y16.2220
G01 X36.8775 Y16.2280
G01 X36.9006 Y16.2363
G01 X36.9228 Y16.2467
G01 X36.9438 Y16.2594
G01 X36.9635 Y16.2740
G01 X36.9817 Y16.2905
G01 X36.9982 Y16.3086
G01 X37.0128 Y16.3283
G01 X37.0254 Y16.3494
G01 X37.0359 Y16.3716
G01 X37.0442 Y16.3947
G01 X37.0501 Y16.4185
G01 X37.0537 Y16.4427
G01 X37.0549 Y16.4672
G01 X37.0549 Y17.5672
G01 X37.0537 Y17.5917
G01 X37.0501 Y17.6160
G01 X37.0442 Y17.6398
G01 X37.0359 Y17.6629
G01 X37.0254 Y17.6851
G01 X37.0128 Y17.7061
G01 X36.9982 Y17.7258
G01 X36.9817 Y17.7440
G01 X36.9635 Y17.7605
G01 X36.9438 Y17.7751
G01 X36.9228 Y17.7877
G01 X36.9006 Y17.7982
G01 X36.8775 Y17.8065
G01 X36.8537 Y17.8124
G01 X36.8294 Y17.8160
G01 X36.8049 Y17.8172
G01 X35.0049 Y17.8172
G01 X34.9804 Y17.8160
G01 X34.9562 Y17.8124
G01 X34.9324 Y17.8065
G01 X34.9093 Y17.7982
G01 X34.8871 Y17.7877
G01 X34.8660 Y17.7751
G01 X34.8463 Y17.7605
G01 X34.8282 Y17.7440
G01 X34.8117 Y17.7258
G01 X34.7971 Y17.7061
G01 X34.7844 Y17.6851
G01 X34.7740 Y17.6629
G01 X34.7657 Y17.6398
G01 X34.7597 Y17.6160
G01 X34.7561 Y17.5917
G01 X34.7549 Y17.5672
G01 X34.7549 Y17.5171
G01 X30.8550 Y17.5171
G01 X30.8550 Y17.5672
G01 X30.8538 Y17.5917
G01 X30.8502 Y17.6160
G01 X30.8443 Y17.6398
G01 X30.8360 Y17.6629
G01 X30.8255 Y17.6851
G01 X30.8129 Y17.7061
G01 X30.7983 Y17.7258
G01 X30.7818 Y17.7440
G01 X30.7636 Y17.7605
G01 X30.7439 Y17.7751
G01 X30.7229 Y17.7877
G01 X30.7007 Y17.7982
G01 X30.6776 Y17.8065
G01 X30.6538 Y17.8124
G01 X30.6295 Y17.8160
G01 X30.6050 Y17.8172
G01 X28.8050 Y17.8172
G01 X28.7805 Y17.8160
G01 X28.7563 Y17.8124
G01 X28.7325 Y17.8065
G01 X28.7094 Y17.7982
G01 X28.6872 Y17.7877
G01 X28.6661 Y17.7751
G01 X28.6464 Y17.7605
G01 X28.6283 Y17.7440
G01 X28.6118 Y17.7258
G01 X28.5972 Y17.7061
G01 X28.5846 Y17.6851
G01 X28.5741 Y17.6629
G01 X28.5658 Y17.6398
G01 X28.5598 Y17.6160
G01 X28.5562 Y17.5917
G01 X28.5550 Y17.5672
G01 X28.5550 Y17.5391
G01 X26.1191 Y17.5837
G01 X26.1098 Y17.6008
G01 X26.1127 Y17.6091
G01 X26.1187 Y17.6329
G01 X26.1223 Y17.6572
G01 X26.1235 Y17.6817
G01 X26.1235 Y18.8142
G01 X26.1223 Y18.8387
G01 X26.1187 Y18.8630
G01 X26.1127 Y18.8868
G01 X26.1045 Y18.9099
G01 X26.0940 Y18.9321
G01 X26.0814 Y18.9531
G01 X26.0668 Y18.9728
G01 X26.0503 Y18.9910
G01 X26.0321 Y19.0075
G01 X26.0124 Y19.0221
G01 X25.9914 Y19.0347
G01 X25.9692 Y19.0452
G01 X25.9461 Y19.0534
G01 X25.9223 Y19.0594
G01 X25.8980 Y19.0630
G01 X25.8735 Y19.0642
G01 X24.4965 Y19.0642
G01 X24.4720 Y19.0630
G01 X24.4477 Y19.0594
G01 X24.4239 Y19.0534
G01 X24.4008 Y19.0452
G01 X24.3787 Y19.0347
G01 X24.3576 Y19.0221
G01 X24.3379 Y19.0075
G01 X24.3197 Y18.9910
G01 X24.3033 Y18.9728
G01 X24.2886 Y18.9531
G01 X24.2760 Y18.9321
G01 X24.2655 Y18.9099
G01 X24.2573 Y18.8868
G01 X24.2513 Y18.8630
G01 X24.2477 Y18.8387
G01 X24.2465 Y18.8142
G01 X24.2465 Y18.7474
G01 X22.4559 Y18.7474
G01 X19.5891 Y21.6142
G01 X19.5891 Y28.0110
G01 X19.5876 Y28.0478
G01 X19.5852 Y28.0722
G01 X19.5816 Y28.0965
G01 X19.5768 Y28.1206
G01 X19.5709 Y28.1444
G01 X19.5638 Y28.1678
G01 X19.5555 Y28.1910
G01 X19.5461 Y28.2136
G01 X19.5356 Y28.2358
G01 X19.5240 Y28.2574
G01 X19.5114 Y28.2785
G01 X19.4978 Y28.2989
G01 X19.4832 Y28.3186
G01 X19.4676 Y28.3376
G01 X19.4427 Y28.3647
G01 X13.3467 Y34.4607
G01 X13.3196 Y34.4856
G01 X13.3006 Y34.5012
G01 X13.2809 Y34.5158
G01 X13.2605 Y34.5294
G01 X13.2394 Y34.5420
G01 X13.2178 Y34.5536
G01 X13.1956 Y34.5641
G01 X13.1730 Y34.5735
G01 X13.1498 Y34.5818
G01 X13.1264 Y34.5889
G01 X13.1026 Y34.5948
G01 X13.0785 Y34.5996
G01 X13.0542 Y34.6032
G01 X13.0298 Y34.6056
G01 X13.0053 Y34.6068
G01 X12.9930 Y34.6071
G01 X11.3761 Y34.6071
G01 X11.3731 Y34.6128
G01 X11.3327 Y34.6801
G01 X11.3191 Y34.7005
G01 X11.2723 Y34.7636
G01 X11.2568 Y34.7825
G01 X11.2040 Y34.8407
G01 X11.1867 Y34.8580
G01 X11.1285 Y34.9108
G01 X11.1095 Y34.9263
G01 X11.0465 Y34.9731
G01 X11.0261 Y34.9867
G01 X10.9588 Y35.0271
G01 X10.9371 Y35.0387
G01 X10.8661 Y35.0722
G01 X10.8435 Y35.0816
G01 X10.7696 Y35.1081
G01 X10.7461 Y35.1152
G01 X10.6699 Y35.1343
G01 X10.6459 Y35.1390
G01 X10.5682 Y35.1506
G01 X10.5438 Y35.1530
G01 X10.4654 Y35.1568
G01 X10.4408 Y35.1568
G01 X10.3624 Y35.1530
G01 X10.3380 Y35.1506
G01 X10.2604 Y35.1390
G01 X10.2363 Y35.1343
G01 X10.1601 Y35.1152
G01 X10.1367 Y35.1081
G01 X10.0627 Y35.0816
G01 X10.0401 Y35.0722
G01 X9.9691 Y35.0387
G01 X9.9475 Y35.0271
G01 X9.8801 Y34.9867
G01 X9.8597 Y34.9731
G01 X9.7967 Y34.9263
G01 X9.7777 Y34.9108
G01 X9.7195 Y34.8580
G01 X9.7022 Y34.8407
G01 X9.6495 Y34.7825
G01 X9.6339 Y34.7636
G01 X9.5871 Y34.7005
G01 X9.5735 Y34.6801
G01 X9.5331 Y34.6128
G01 X9.5216 Y34.5911
G01 X9.4880 Y34.5202
G01 X9.4786 Y34.4975
G01 X9.4522 Y34.4236
G01 X9.4451 Y34.4001
G01 X9.4260 Y34.3239
G01 X9.4212 Y34.2999
G01 X9.4097 Y34.2222
G01 X9.4073 Y34.1978
G01 X9.4034 Y34.1194
G01 X9.4034 Y34.0949
G01 X9.4073 Y34.0164
G01 X9.4097 Y33.9920
G01 X9.4212 Y33.9144
G01 X9.4260 Y33.8903
G01 X9.4451 Y33.8141
G01 X9.4522 Y33.7907
G01 X9.4786 Y33.7168
G01 X9.4880 Y33.6941
G01 X9.5216 Y33.6231
G01 X9.5331 Y33.6015
G01 X9.5735 Y33.5341
G01 X9.5871 Y33.5137
G01 X9.6339 Y33.4507
G01 X9.6495 Y33.4317
G01 X9.7022 Y33.3735
G01 X9.7195 Y33.3562
G01 X9.7777 Y33.3035
G01 X9.7967 Y33.2879
G01 X9.8597 Y33.2411
G01 X9.8801 Y33.2275
G01 X9.9475 Y33.1872
G01 X9.9691 Y33.1756
G01 X10.0401 Y33.1420
G01 X10.0627 Y33.1326
G01 X10.1367 Y33.1062
G01 X10.1601 Y33.0991
G01 X10.2363 Y33.0800
G01 X10.2604 Y33.0752
G01 X10.3380 Y33.0637
G01 X10.3624 Y33.0613
G01 X10.4408 Y33.0574
G01 X10.4654 Y33.0574
G01 X10.5438 Y33.0613
G01 X10.5682 Y33.0637
G01 X10.6459 Y33.0752
G01 X10.6699 Y33.0800
G01 X10.7461 Y33.0991
G01 X10.7696 Y33.1062
G01 X10.8435 Y33.1326
G01 X10.8661 Y33.1420
G01 X10.9371 Y33.1756
G01 X10.9588 Y33.1872
G01 X11.0261 Y33.2275
G01 X11.0465 Y33.2411
G01 X11.1095 Y33.2879
G01 X11.1285 Y33.3035
G01 X11.1867 Y33.3562
G01 X11.2040 Y33.3735
G01 X11.2568 Y33.4317
G01 X11.2723 Y33.4507
G01 X11.3191 Y33.5137
G01 X11.3327 Y33.5341
G01 X11.3731 Y33.6015
G01 X11.3760 Y33.6069
G01 X12.7859 Y33.6069
G01 X18.5889 Y27.8039
G01 X18.5889 Y21.4070
G01 X18.5904 Y21.3702
G01 X18.5928 Y21.3458
G01 X18.5964 Y21.3215
G01 X18.6012 Y21.2975
G01 X18.6071 Y21.2737
G01 X18.6143 Y21.2502
G01 X18.6225 Y21.2271
G01 X18.6319 Y21.2044
G01 X18.6424 Y21.1822
G01 X18.6540 Y21.1606
G01 X18.6666 Y21.1395
G01 X18.6802 Y21.1191
G01 X18.6949 Y21.0994
G01 X18.7104 Y21.0804
G01 X18.7354 Y21.0534
G01 X21.8951 Y17.8936
G01 X21.9222 Y17.8687
G01 X21.9411 Y17.8531
G01 X21.9609 Y17.8385
G01 X21.9813 Y17.8248
G01 X22.0023 Y17.8122
G01 X22.0239 Y17.8007
G01 X22.0461 Y17.7902
G01 X22.0688 Y17.7808
G01 X22.0919 Y17.7725
G01 X22.1076 Y17.7677
G01 X22.0919 Y17.7520
G01 X22.0458 Y17.7011
G01 X22.0302 Y17.6821
G01 X21.9893 Y17.6269
G01 X21.9756 Y17.6065
G01 X21.9403 Y17.5476
G01 X21.9288 Y17.5260
G01 X21.8994 Y17.4639
G01 X21.8900 Y17.4412
G01 X21.8669 Y17.3765
G01 X21.8597 Y17.3531
G01 X21.8431 Y17.2864
G01 X21.8383 Y17.2624
G01 X21.8282 Y17.1944
G01 X21.8258 Y17.1700
G01 X21.8224 Y17.1014
G01 X21.8224 Y17.0769
G01 X21.8258 Y17.0082
G01 X21.8282 Y16.9838
G01 X21.8383 Y16.9159
G01 X21.8431 Y16.8918
G01 X21.8597 Y16.8252
G01 X21.8669 Y16.8017
G01 X21.8900 Y16.7370
G01 X21.8994 Y16.7144
G01 X21.9288 Y16.6523
G01 X21.9403 Y16.6306
G01 X21.9756 Y16.5717
G01 X21.9893 Y16.5513
G01 X22.0302 Y16.4961
G01 X22.0458 Y16.4772
G01 X22.0919 Y16.4263
G01 X22.1092 Y16.4089
G01 X22.1601 Y16.3628
G01 X22.1791 Y16.3472
G01 X22.2343 Y16.3063
G01 X22.2547 Y16.2927
G01 X22.2719 Y16.2824
G01 X22.2719 Y16.1179
G00 Z2.0000
G00 X26.5078 Y21.7385
G01 F60.00
G01 Z-0.5000
G01 F120.00
G01 X27.6403 Y21.7385
G01 X27.6648 Y21.7397
G01 X27.6891 Y21.7433
G01 X27.7129 Y21.7493
G01 X27.7360 Y21.7575
G01 X27.7582 Y21.7680
G01 X27.7792 Y21.7806
G01 X27.7989 Y21.7953
G01 X27.8171 Y21.8117
G01 X27.8336 Y21.8299
G01 X27.8482 Y21.8496
G01 X27.8608 Y21.8707
G01 X27.8713 Y21.8928
G01 X27.8795 Y21.9159
G01 X27.8855 Y21.9397
G01 X27.8891 Y21.9640
G01 X27.8903 Y21.9885
G01 X27.8903 Y22.1769
G01 X46.6680 Y22.1769
G01 X46.7048 Y22.1784
G01 X46.7292 Y22.1808
G01 X46.7535 Y22.1844
G01 X46.7775 Y22.1892
G01 X46.8013 Y22.1951
G01 X46.8248 Y22.2023
G01 X46.8479 Y22.2105
G01 X46.8706 Y22.2199
G01 X46.8928 Y22.2304
G01 X46.9144 Y22.2420
G01 X46.9355 Y22.2546
G01 X46.9559 Y22.2682
G01 X46.9756 Y22.2829
G01 X46.9945 Y22.2984
G01 X47.0127 Y22.3149
G01 X47.0216 Y22.3234
G01 X49.0434 Y24.3452
G01 X50.0360 Y24.3452
G01 X50.0605 Y24.3464
G01 X50.0848 Y24.3500
G01 X50.1086 Y24.3560
G01 X50.1317 Y24.3643
G01 X50.1539 Y24.3747
G01 X50.1749 Y24.3874
G01 X50.1946 Y24.4020
G01 X50.2128 Y24.4185
G01 X50.2293 Y24.4366
G01 X50.2439 Y24.4563
G01 X50.2565 Y24.4774
G01 X50.2670 Y24.4996
G01 X50.2753 Y24.5227
G01 X50.2812 Y24.5465
G01 X50.2848 Y24.5707
G01 X50.2860 Y24.5952
G01 X50.2860 Y24.6449
G01 X54.1859 Y24.6449
G01 X54.1859 Y24.5952
G01 X54.1871 Y24.5707
G01 X54.1907 Y24.5465
G01 X54.1967 Y24.5227
G01 X54.2050 Y24.4996
G01 X54.2154 Y24.4774
G01 X54.2281 Y24.4563
G01 X54.2427 Y24.4366
G01 X54.2592 Y24.4185
G01 X54.2773 Y24.4020
G01 X54.2970 Y24.3874
G01 X54.3181 Y24.3747
G01 X54.3403 Y24.3643
G01 X54.3634 Y24.3560
G01 X54.3872 Y24.3500
G01 X54.4114 Y24.3464
G01 X54.4359 Y24.3452
G01 X56.2359 Y24.3452
G01 X56.2604 Y24.3464
G01 X56.2847 Y24.3500
G01 X56.3085 Y24.3560
G01 X56.3316 Y24.3643
G01 X56.3538 Y24.3747
G01 X56.3748 Y24.3874
G01 X56.3945 Y24.4020
G01 X56.4127 Y24.4185
G01 X56.4292 Y24.4366
G01 X56.4438 Y24.4563
G01 X56.4564 Y24.4774
G01 X56.4669 Y24.4996
G01 X56.4752 Y24.5227
G01 X56.4811 Y24.5465
G01 X56.4847 Y24.5707
G01 X56.4859 Y24.5952
G01 X56.4859 Y24.6458
G01 X60.4199 Y24.6458
G01 X60.4567 Y24.6473
G01 X60.4811 Y24.6497
G01 X60.5054 Y24.6533
G01 X60.5294 Y24.6581
G01 X60.5532 Y24.6640
G01 X60.5767 Y24.6711
G01 X60.5998 Y24.6794
G01 X60.6225 Y24.6888
G01 X60.6447 Y24.6993
G01 X60.6663 Y24.7109
G01 X60.6874 Y24.7235
G01 X60.7078 Y24.7371
G01 X60.7275 Y24.7517
G01 X60.7465 Y24.7673
G01 X60.7735 Y24.7922
G01 X69.5882 Y33.6069
G01 X69.9823 Y33.6069
G01 X69.9851 Y33.6015
G01 X70.0255 Y33.5341
G01 X70.0391 Y33.5137
G01 X70.0859 Y33.4507
G01 X70.1015 Y33.4317
G01 X70.1542 Y33.3735
G01 X70.1715 Y33.3562
G01 X70.2297 Y33.3035
G01 X70.2487 Y33.2879
G01 X70.3117 Y33.2411
G01 X70.3321 Y33.2275
G01 X70.3995 Y33.1872
G01 X70.4211 Y33.1756
G01 X70.4921 Y33.1420
G01 X70.5147 Y33.1326
G01 X70.5887 Y33.1062
G01 X70.6121 Y33.0991
G01 X70.6883 Y33.0800
G01 X70.7124 Y33.0752
G01 X70.7900 Y33.0637
G01 X70.8144 Y33.0613
G01 X70.8928 Y33.0574
G01 X70.9174 Y33.0574
G01 X70.9958 Y33.0613
G01 X71.0202 Y33.0637
G01 X71.0979 Y33.0752
G01 X71.1219 Y33.0800
G01 X71.1981 Y33.0991
G01 X71.2216 Y33.1062
G01 X71.2955 Y33.1326
G01 X71.3181 Y33.1420
G01 X71.3891 Y33.1756
G01 X71.4108 Y33.1872
G01 X71.4781 Y33.2275
G01 X71.4985 Y33.2411
G01 X71.5615 Y33.2879
G01 X71.5805 Y33.3035
G01 X71.6387 Y33.3562
G01 X71.6560 Y33.3735
G01 X71.7088 Y33.4317
G01 X71.7243 Y33.4507
G01 X71.7711 Y33.5137
G01 X71.7847 Y33.5341
G01 X71.8251 Y33.6015
G01 X71.8366 Y33.6231
G01 X71.8702 Y33.6941
G01 X71.8796 Y33.7168
G01 X71.9060 Y33.7907
G01 X71.9132 Y33.8141
G01 X71.9322 Y33.8903
G01 X71.9370 Y33.9144
G01 X71.9486 Y33.9920
G01 X71.9510 Y34.0164
G01 X71.9548 Y34.0949
G01 X71.9548 Y34.1194
G01 X71.9510 Y34.1978
G01 X71.9486 Y34.2222
G01 X71.9370 Y34.2999
G01 X71.9322 Y34.3239
G01 X71.9132 Y34.4001
G01 X71.9060 Y34.4236
G01 X71.8796 Y34.4975
G01 X71.8702 Y34.5202
G01 X71.8366 Y34.5911
G01 X71.8251 Y34.6128
G01 X71.7847 Y34.6801
G01 X71.7711 Y34.7005
G01 X71.7243 Y34.7636
G01 X71.7088 Y34.7825
G01 X71.6560 Y34.8407
G01 X71.6387 Y34.8580
G01 X71.5805 Y34.9108
G01 X71.5615 Y34.9263
G01 X71.4985 Y34.9731
G01 X71.4781 Y34.9867
G01 X71.4108 Y35.0271
G01 X71.3891 Y35.0387
G01 X71.3181 Y35.0722
G01 X71.2955 Y35.0816
G01 X71.2216 Y35.1081
G01 X71.1981 Y35.1152
G01 X71.1219 Y35.1343
G01 X71.0979 Y35.1390
G01 X71.0202 Y35.1506
G01 X70.9958 Y35.1530
G01 X70.9174 Y35.1568
G01 X70.8928 Y35.1568
G01 X70.8144 Y35.1530
G01 X70.7900 Y35.1506
G01 X70.7124 Y35.1390
G01 X70.6883 Y35.1343
G01 X70.6121 Y35.1152
G01 X70.5887 Y35.1081
G01 X70.5147 Y35.0816
G01 X70.4921 Y35.0722
G01 X70.4211 Y35.0387
G01 X70.3995 Y35.0271
G01 X70.3321 Y34.9867
G01 X70.3117 Y34.9731
G01 X70.2487 Y34.9263
G01 X70.2297 Y34.9108
G01 X70.1715 Y34.8580
G01 X70.1542 Y34.8407
G01 X70.1015 Y34.7825
G01 X70.0859 Y34.7636
G01 X70.0391 Y34.7005
G01 X70.0255 Y34.6801
G01 X69.9851 Y34.6128
G01 X69.9821 Y34.6071
G01 X69.3810 Y34.6071
G01 X69.3442 Y34.6056
G01 X69.3198 Y34.6032
G01 X69.2955 Y34.5996
G01 X69.2715 Y34.5948
G01 X69.2477 Y34.5889
G01 X69.2242 Y34.5818
G01 X69.2011 Y34.5735
G01 X69.1784 Y34.5641
G01 X69.1562 Y34.5536
G01 X69.1346 Y34.5420
G01 X69.1135 Y34.5294
G01 X69.0931 Y34.5158
G01 X69.0734 Y34.5012
G01 X69.0544 Y34.4856
G01 X69.0274 Y34.4607
G01 X60.2127 Y25.6460
G01 X56.4859 Y25.6460
G01 X56.4859 Y25.6952
G01 X56.4847 Y25.7197
G01 X56.4811 Y25.7440
G01 X56.4752 Y25.7678
G01 X56.4669 Y25.7909
G01 X56.4564 Y25.8131
G01 X56.4438 Y25.8341
G01 X56.4292 Y25.8538
G01 X56.4127 Y25.8720
G01 X56.3945 Y25.8885
G01 X56.3748 Y25.9031
G01 X56.3538 Y25.9157
G01 X56.3316 Y25.9262
G01 X56.3085 Y25.9345
G01 X56.2847 Y25.9404
G01 X56.2604 Y25.9440
G01 X56.2359 Y25.9452
G01 X54.4359 Y25.9452
G01 X54.4114 Y25.9440
G01 X54.3872 Y25.9404
G01 X54.3634 Y25.9345
G01 X54.3403 Y25.9262
G01 X54.3181 Y25.9157
G01 X54.2970 Y25.9031
G01 X54.2773 Y25.8885
G01 X54.2592 Y25.8720
G01 X54.2427 Y25.8538
G01 X54.2281 Y25.8341
G01 X54.2154 Y25.8131
G01 X54.2050 Y25.7909
G01 X54.1967 Y25.7678
G01 X54.1907 Y25.7440
G01 X54.1871 Y25.7197
G01 X54.1859 Y25.6952
G01 X54.1859 Y25.6451
G01 X50.2860 Y25.6451
G01 X50.2860 Y25.6952
G01 X50.2848 Y25.7197
G01 X50.2812 Y25.7440
G01 X50.2753 Y25.7678
G01 X50.2670 Y25.7909
G01 X50.2565 Y25.8131
G01 X50.2439 Y25.8341
G01 X50.2293 Y25.8538
G01 X50.2128 Y25.8720
G01 X50.1946 Y25.8885
G01 X50.1749 Y25.9031
G01 X50.1539 Y25.9157
G01 X50.1317 Y25.9262
G01 X50.1086 Y25.9345
G01 X50.0848 Y25.9404
G01 X50.0605 Y25.9440
G01 X50.0360 Y25.9452
G01 X48.2360 Y25.9452
G01 X48.2115 Y25.9440
G01 X48.1873 Y25.9404
G01 X48.1635 Y25.9345
G01 X48.1404 Y25.9262
G01 X48.1182 Y25.9157
G01 X48.0971 Y25.9031
G01 X48.0774 Y25.8885
G01 X48.0593 Y25.8720
G01 X48.0428 Y25.8538
G01 X48.0282 Y25.8341
G01 X48.0156 Y25.8131
G01 X48.0051 Y25.7909
G01 X47.9968 Y25.7678
G01 X47.9908 Y25.7440
G01 X47.9872 Y25.7197
G01 X47.9860 Y25.6952
G01 X47.9860 Y24.7024
G01 X46.4608 Y23.1771
G01 X27.8903 Y23.1771
G01 X27.8903 Y23.3655
G01 X27.8891 Y23.3900
G01 X27.8855 Y23.4143
G01 X27.8795 Y23.4381
G01 X27.8713 Y23.4612
G01 X27.8608 Y23.4834
G01 X27.8482 Y23.5044
G01 X27.8336 Y23.5241
G01 X27.8171 Y23.5423
G01 X27.7989 Y23.5588
G01 X27.7792 Y23.5734
G01 X27.7582 Y23.5860
G01 X27.7360 Y23.5965
G01 X27.7129 Y23.6047
G01 X27.6891 Y23.6107
G01 X27.6648 Y23.6143
G01 X27.6403 Y23.6155
G01 X26.5078 Y23.6155
G01 X26.4833 Y23.6143
G01 X26.4590 Y23.6107
G01 X26.4352 Y23.6047
G01 X26.4121 Y23.5965
G01 X26.3900 Y23.5860
G01 X26.3689 Y23.5734
G01 X26.3492 Y23.5588
G01 X26.3310 Y23.5423
G01 X26.3146 Y23.5241
G01 X26.2999 Y23.5044
G01 X26.2873 Y23.4834
G01 X26.2768 Y23.4612
G01 X26.2686 Y23.4381
G01 X26.2626 Y23.4143
G01 X26.2590 Y23.3900
G01 X26.2578 Y23.3655
G01 X26.2578 Y21.9885
G01 X26.2590 Y21.9640
G01 X26.2626 Y21.9397
G01 X26.2686 Y21.9159
G01 X26.2768 Y21.8928
G01 X26.2873 Y21.8707
G01 X26.2999 Y21.8496
G01 X26.3146 Y21.8299
G01 X26.3310 Y21.8117
G01 X26.3492 Y21.7953
G01 X26.3689 Y21.7806
G01 X26.3900 Y21.7680
G01 X26.4121 Y21.7575
G01 X26.4352 Y21.7493
G01 X26.4590 Y21.7433
G01 X26.4833 Y21.7397
G01 X26.5078 Y21.7385
G00 Z2.0000
G00 X22.2719 Y23.4839
G01 F60.00
G01 Z-0.5000
G01 F120.00
G01 X22.2547 Y23.4736
G01 X22.2343 Y23.4600
G01 X22.1791 Y23.4190
G01 X22.1601 Y23.4035
G01 X22.1092 Y23.3573
G01 X22.0919 Y23.3400
G01 X22.0458 Y23.2891
G01 X22.0302 Y23.2701
G01 X21.9893 Y23.2149
G01 X21.9756 Y23.1945
G01 X21.9403 Y23.1356
G01 X21.9288 Y23.1140
G01 X21.8994 Y23.0519
G01 X21.8900 Y23.0292
G01 X21.8669 Y22.9645
G01 X21.8597 Y22.9411
G01 X21.8431 Y22.8744
G01 X21.8383 Y22.8504
G01 X21.8282 Y22.7824
G01 X21.8258 Y22.7580
G01 X21.8224 Y22.6894
G01 X21.8224 Y22.6649
G01 X21.8258 Y22.5962
G01 X21.8282 Y22.5718
G01 X21.8383 Y22.5039
G01 X21.8431 Y22.4798
G01 X21.8597 Y22.4132
G01 X21.8669 Y22.3897
G01 X21.8900 Y22.3250
G01 X21.8994 Y22.3024
G01 X21.9288 Y22.2403
G01 X21.9403 Y22.2186
G01 X21.9756 Y22.1597
G01 X21.9893 Y22.1393
G01 X22.0302 Y22.0841
G01 X22.0458 Y22.0652
G01 X22.0919 Y22.0143
G01 X22.1092 Y21.9969
G01 X22.1601 Y21.9508
G01 X22.1791 Y21.9352
G01 X22.2343 Y21.8943
G01 X22.2547 Y21.8807
G01 X22.3136 Y21.8453
G01 X22.3352 Y21.8338
G01 X22.3973 Y21.8044
G01 X22.4200 Y21.7950
G01 X22.4847 Y21.7719
G01 X22.5082 Y21.7648
G01 X22.5748 Y21.7481
G01 X22.5989 Y21.7433
G01 X22.6668 Y21.7332
G01 X22.6912 Y21.7308
G01 X22.7598 Y21.7274
G01 X22.7844 Y21.7274
G01 X22.8530 Y21.7308
G01 X22.8774 Y21.7332
G01 X22.9454 Y21.7433
G01 X22.9694 Y21.7481
G01 X23.0361 Y21.7648
G01 X23.0595 Y21.7719
G01 X23.1242 Y21.7950
G01 X23.1469 Y21.8044
G01 X23.2090 Y21.8338
G01 X23.2306 Y21.8453
G01 X23.2895 Y21.8807
G01 X23.3099 Y21.8943
G01 X23.3651 Y21.9352
G01 X23.3841 Y21.9508
G01 X23.4350 Y21.9969
G01 X23.4523 Y22.0143
G01 X23.4985 Y22.0652
G01 X23.5140 Y22.0841
G01 X23.5549 Y22.1393
G01 X23.5686 Y22.1597
G01 X23.5789 Y22.1769
G01 X24.2577 Y22.1769
G01 X24.2577 Y21.9885
G01 X24.2589 Y21.9640
G01 X24.2625 Y21.9397
G01 X24.2685 Y21.9159
G01 X24.2767 Y21.8928
G01 X24.2872 Y21.8707
G01 X24.2998 Y21.8496
G01 X24.3145 Y21.8299
G01 X24.3309 Y21.8117
G01 X24.3491 Y21.7953
G01 X24.3688 Y21.7806
G01 X24.3899 Y21.7680
G01 X24.4120 Y21.7575
G01 X24.4351 Y21.7493
G01 X24.4589 Y21.7433
G01 X24.4832 Y21.7397
G01 X24.5077 Y21.7385
G01 X24.5739 Y21.7385
G01 X24.5739 Y21.0644
G01 X24.4966 Y21.0644
G01 X24.4721 Y21.0632
G01 X24.4478 Y21.0596
G01 X24.4240 Y21.0536
G01 X24.4009 Y21.0453
G01 X24.3788 Y21.0348
G01 X24.3577 Y21.0222
G01 X24.3380 Y21.0076
G01 X24.3198 Y20.9911
G01 X24.3034 Y20.9730
G01 X24.2887 Y20.9533
G01 X24.2761 Y20.9322
G01 X24.2656 Y20.9100
G01 X24.2574 Y20.8869
G01 X24.2514 Y20.8631
G01 X24.2478 Y20.8389
G01 X24.2466 Y20.8144
G01 X24.2466 Y19.6819
G01 X24.2478 Y19.6574
G01 X24.2514 Y19.6331
G01 X24.2574 Y19.6093
G01 X24.2656 Y19.5862
G01 X24.2761 Y19.5640
G01 X24.2887 Y19.5430
G01 X24.3034 Y19.5233
G01 X24.3198 Y19.5051
G01 X24.3380 Y19.4886
G01 X24.3577 Y19.4740
G01 X24.3788 Y19.4614
G01 X24.4009 Y19.4509
G01 X24.4240 Y19.4426
G01 X24.4478 Y19.4367
G01 X24.4721 Y19.4331
G01 X24.4966 Y19.4319
G01 X25.8736 Y19.4319
G01 X25.8981 Y19.4331
G01 X25.9224 Y19.4367
G01 X25.9462 Y19.4426
G01 X25.9693 Y19.4509
G01 X25.9915 Y19.4614
G01 X26.0125 Y19.4740
G01 X26.0322 Y19.4886
G01 X26.0504 Y19.5051
G01 X26.0669 Y19.5233
G01 X26.0815 Y19.5430
G01 X26.0941 Y19.5640
G01 X26.1046 Y19.5862
G01 X26.1128 Y19.6093
G01 X26.1188 Y19.6331
G01 X26.1224 Y19.6574
G01 X26.1236 Y19.6819
G01 X26.1236 Y20.8144
G01 X26.1224 Y20.8389
G01 X26.1188 Y20.8631
G01 X26.1128 Y20.8869
G01 X26.1046 Y20.9100
G01 X26.0941 Y20.9322
G01 X26.0815 Y20.9533
G01 X26.0669 Y20.9730
G01 X26.0504 Y20.9911
G01 X26.0322 Y21.0076
G01 X26.0125 Y21.0222
G01 X25.9915 Y21.0348
G01 X25.9693 Y21.0453
G01 X25.9462 Y21.0536
G01 X25.9224 Y21.0596
G01 X25.8981 Y21.0632
G01 X25.8736 Y21.0644
G01 X25.5741 Y21.0644
G01 X25.5741 Y21.7385
G01 X25.6402 Y21.7385
G01 X25.6647 Y21.7397
G01 X25.6890 Y21.7433
G01 X25.7128 Y21.7493
G01 X25.7359 Y21.7575
G01 X25.7581 Y21.7680
G01 X25.7791 Y21.7806
G01 X25.7988 Y21.7953
G01 X25.8170 Y21.8117
G01 X25.8335 Y21.8299
G01 X25.8481 Y21.8496
G01 X25.8607 Y21.8707
G01 X25.8712 Y21.8928
G01 X25.8794 Y21.9159
G01 X25.8854 Y21.9397
G01 X25.8890 Y21.9640
G01 X25.8902 Y21.9885
G01 X25.8902 Y23.3655
G01 X25.8890 Y23.3900
G01 X25.8854 Y23.4143
G01 X25.8794 Y23.4381
G01 X25.8712 Y23.4612
G01 X25.8607 Y23.4834
G01 X25.8481 Y23.5044
G01 X25.8335 Y23.5241
G01 X25.8170 Y23.5423
G01 X25.7988 Y23.5588
G01 X25.7791 Y23.5734
G01 X25.7581 Y23.5860
G01 X25.7359 Y23.5965
G01 X25.7128 Y23.6047
G01 X25.6890 Y23.6107
G01 X25.6647 Y23.6143
G01 X25.6402 Y23.6155
G01 X24.5077 Y23.6155
G01 X24.4832 Y23.6143
G01 X24.4589 Y23.6107
G01 X24.4351 Y23.6047
G01 X24.4120 Y23.5965
G01 X24.3899 Y23.5860
G01 X24.3688 Y23.5734
G01 X24.3491 Y23.5588
G01 X24.3309 Y23.5423
G01 X24.3145 Y23.5241
G01 X24.2998 Y23.5044
G01 X24.2872 Y23.4834
G01 X24.2767 Y23.4612
G01 X24.2685 Y23.4381
G01 X24.2625 Y23.4143
G01 X24.2589 Y23.3900
G01 X24.2577 Y23.3655
G01 X24.2577 Y23.1771
G01 X23.5790 Y23.1771
G01 X23.5686 Y23.1945
G01 X23.5549 Y23.2149
G01 X23.5140 Y23.2701
G01 X23.4985 Y23.2891
G01 X23.4523 Y23.3400
G01 X23.4350 Y23.3573
G01 X23.3841 Y23.4035
G01 X23.3651 Y23.4190
G01 X23.3099 Y23.4600
G01 X23.2895 Y23.4736
G01 X23.2721 Y23.4840
G01 X23.2721 Y23.6482
G01 X23.2895 Y23.6587
G01 X23.3099 Y23.6723
G01 X23.3651 Y23.7132
G01 X23.3841 Y23.7288
G01 X23.4350 Y23.7749
G01 X23.4523 Y23.7923
G01 X23.4985 Y23.8432
G01 X23.5140 Y23.8621
G01 X23.5549 Y23.9173
G01 X23.5686 Y23.9377
G01 X23.6039 Y23.9966
G01 X23.6155 Y24.0183
G01 X23.6448 Y24.0804
G01 X23.6542 Y24.1030
G01 X23.6774 Y24.1677
G01 X23.6845 Y24.1912
G01 X23.7012 Y24.2578
G01 X23.7060 Y24.2819
G01 X23.7160 Y24.3498
G01 X23.7184 Y24.3742
G01 X23.7218 Y24.4429
G01 X23.7218 Y24.4674
G01 X23.7184 Y24.5360
G01 X23.7160 Y24.5604
G01 X23.7060 Y24.6284
G01 X23.7012 Y24.6524
G01 X23.6845 Y24.7191
G01 X23.6774 Y24.7425
G01 X23.6542 Y24.8072
G01 X23.6448 Y24.8299
G01 X23.6155 Y24.8920
G01 X23.6039 Y24.9136
G01 X23.5686 Y24.9725
G01 X23.5549 Y24.9929
G01 X23.5140 Y25.0481
G01 X23.4985 Y25.0671
G01 X23.4523 Y25.1180
G01 X23.4350 Y25.1353
G01 X23.3841 Y25.1815
G01 X23.3651 Y25.1970
G01 X23.3099 Y25.2380
G01 X23.2895 Y25.2516
G01 X23.2306 Y25.2869
G01 X23.2090 Y25.2985
G01 X23.1469 Y25.3278
G01 X23.1242 Y25.3372
G01 X23.0595 Y25.3604
G01 X23.0361 Y25.3675
G01 X22.9694 Y25.3842
G01 X22.9454 Y25.3890
G01 X22.8774 Y25.3990
G01 X22.8530 Y25.4014
G01 X22.7844 Y25.4048
G01 X22.7598 Y25.4048
G01 X22.6912 Y25.4014
G01 X22.6668 Y25.3990
G01 X22.5989 Y25.3890
G01 X22.5748 Y25.3842
G01 X22.5082 Y25.3675
G01 X22.4847 Y25.3604
G01 X22.4200 Y25.3372
G01 X22.3973 Y25.3278
G01 X22.3352 Y25.2985
G01 X22.3136 Y25.2869
G01 X22.2547 Y25.2516
G01 X22.2343 Y25.2380
G01 X22.1791 Y25.1970
G01 X22.1601 Y25.1815
G01 X22.1092 Y25.1353
G01 X22.0919 Y25.1180
G01 X22.0458 Y25.0671
G01 X22.0302 Y25.0481
G01 X21.9893 Y24.9929
G01 X21.9756 Y24.9725
G01 X21.9403 Y24.9136
G01 X21.9288 Y24.8920
G01 X21.8994 Y24.8299
G01 X21.8900 Y24.8072
G01 X21.8669 Y24.7425
G01 X21.8597 Y24.7191
G01 X21.8431 Y24.6524
G01 X21.8383 Y24.6284
G01 X21.8282 Y24.5604
G01 X21.8258 Y24.5360
G01 X21.8224 Y24.4674
G01 X21.8224 Y24.4429
G01 X21.8258 Y24.3742
G01 X21.8282 Y24.3498
G01 X21.8383 Y24.2819
G01 X21.8431 Y24.2578
G01 X21.8597 Y24.1912
G01 X21.8669 Y24.1677
G01 X21.8900 Y24.1030
G01 X21.8994 Y24.0804
G01 X21.9288 Y24.0183
G01 X21.9403 Y23.9966
G01 X21.9756 Y23.9377
G01 X21.9893 Y23.9173
G01 X22.0302 Y23.8621
G01 X22.0458 Y23.8432
G01 X22.0919 Y23.7923
G01 X22.1092 Y23.7749
G01 X22.1601 Y23.7288
G01 X22.1791 Y23.7132
G01 X22.2343 Y23.6723
G01 X22.2547 Y23.6587
G01 X22.2719 Y23.6484
G01 X22.2719 Y23.4839
G00 Z2.0000
G00 X26.2745 Y26.3217
G01 F60.00
G01 Z-0.5000
G01 F120.00
G01 X27.6515 Y26.3217
G01 X27.6760 Y26.3229
G01 X27.7003 Y26.3265
G01 X27.7241 Y26.3325
G01 X27.7472 Y26.3407
G01 X27.7694 Y26.3512
G01 X27.7904 Y26.3638
G01 X27.8101 Y26.3785
G01 X27.8283 Y26.3949
G01 X27.8448 Y26.4131
G01 X27.8594 Y26.4328
G01 X27.8720 Y26.4539
G01 X27.8825 Y26.4760
G01 X27.8907 Y26.4991
G01 X27.8967 Y26.5229
G01 X27.9003 Y26.5472
G01 X27.9015 Y26.5717
G01 X27.9015 Y26.6379
G01 X37.2839 Y26.6379
G01 X38.3340 Y25.5877
G01 X38.3340 Y24.5952
G01 X38.3352 Y24.5707
G01 X38.3388 Y24.5465
G01 X38.3448 Y24.5227
G01 X38.3531 Y24.4996
G01 X38.3636 Y24.4774
G01 X38.3762 Y24.4563
G01 X38.3908 Y24.4366
G01 X38.4073 Y24.4185
G01 X38.4254 Y24.4020
G01 X38.4451 Y24.3874
G01 X38.4662 Y24.3747
G01 X38.4884 Y24.3643
G01 X38.5115 Y24.3560
G01 X38.5353 Y24.3500
G01 X38.5595 Y24.3464
G01 X38.5840 Y24.3452
G01 X40.3840 Y24.3452
G01 X40.4085 Y24.3464
G01 X40.4328 Y24.3500
G01 X40.4566 Y24.3560
G01 X40.4797 Y24.3643
G01 X40.5019 Y24.3747
G01 X40.5229 Y24.3874
G01 X40.5426 Y24.4020
G01 X40.5608 Y24.4185
G01 X40.5773 Y24.4366
G01 X40.5919 Y24.4563
G01 X40.6045 Y24.4774
G01 X40.6150 Y24.4996
G01 X40.6233 Y24.5227
G01 X40.6292 Y24.5465
G01 X40.6328 Y24.5707
G01 X40.6340 Y24.5952
G01 X40.6340 Y24.6450
G01 X44.5339 Y24.6450
G01 X44.5339 Y24.5952
G01 X44.5351 Y24.5707
G01 X44.5387 Y24.5465
G01 X44.5447 Y24.5227
G01 X44.5530 Y24.4996
G01 X44.5634 Y24.4774
G01 X44.5761 Y24.4563
G01 X44.5907 Y24.4366
G01 X44.6072 Y24.4185
G01 X44.6253 Y24.4020
G01 X44.6450 Y24.3874
G01 X44.6661 Y24.3747
G01 X44.6883 Y24.3643
G01 X44.7114 Y24.3560
G01 X44.7352 Y24.3500
G01 X44.7594 Y24.3464
G01 X44.7839 Y24.3452
G01 X46.5839 Y24.3452
G01 X46.6084 Y24.3464
G01 X46.6327 Y24.3500
G01 X46.6565 Y24.3560
G01 X46.6796 Y24.3643
G01 X46.7018 Y24.3747
G01 X46.7228 Y24.3874
G01 X46.7425 Y24.4020
G01 X46.7607 Y24.4185
G01 X46.7772 Y24.4366
G01 X46.7918 Y24.4563
G01 X46.8044 Y24.4774
G01 X46.8149 Y24.4996
G01 X46.8232 Y24.5227
G01 X46.8291 Y24.5465
G01 X46.8327 Y24.5707
G01 X46.8339 Y24.5952
G01 X46.8339 Y25.5877
G01 X47.7411 Y26.4949
G01 X59.9830 Y26.4949
G01 X60.0198 Y26.4964
G01 X60.0442 Y26.4988
G01 X60.0685 Y26.5024
G01 X60.0926 Y26.5072
G01 X60.1164 Y26.5131
G01 X60.1398 Y26.5203
G01 X60.1630 Y26.5285
G01 X60.1856 Y26.5379
G01 X60.2078 Y26.5484
G01 X60.2294 Y26.5600
G01 X60.2505 Y26.5726
G01 X60.2709 Y26.5862
G01 X60.2906 Y26.6009
G01 X60.3096 Y26.6164
G01 X60.3367 Y26.6414
G01 X69.8422 Y36.1469
G01 X69.9823 Y36.1469
G01 X69.9851 Y36.1415
G01 X70.0255 Y36.0741
G01 X70.0391 Y36.0537
G01 X70.0859 Y35.9907
G01 X70.1015 Y35.9717
G01 X70.1542 Y35.9135
G01 X70.1715 Y35.8962
G01 X70.2297 Y35.8435
G01 X70.2487 Y35.8279
G01 X70.3117 Y35.7811
G01 X70.3321 Y35.7675
G01 X70.3995 Y35.7272
G01 X70.4211 Y35.7156
G01 X70.4921 Y35.6820
G01 X70.5147 Y35.6726
G01 X70.5887 Y35.6462
G01 X70.6121 Y35.6391
G01 X70.6883 Y35.6200
G01 X70.7124 Y35.6152
G01 X70.7900 Y35.6037
G01 X70.8144 Y35.6013
G01 X70.8928 Y35.5974
G01 X70.9174 Y35.5974
G01 X70.9958 Y35.6013
G01 X71.0202 Y35.6037
G01 X71.0979 Y35.6152
G01 X71.1219 Y35.6200
G01 X71.1981 Y35.6391
G01 X71.2216 Y35.6462
G01 X71.2955 Y35.6726
G01 X71.3181 Y35.6820
G01 X71.3891 Y35.7156
G01 X71.4108 Y35.7272
G01 X71.4781 Y35.7675
G01 X71.4985 Y35.7811
G01 X71.5615 Y35.8279
G01 X71.5805 Y35.8435
G01 X71.6387 Y35.8962
G01 X71.6560 Y35.9135
G01 X71.7088 Y35.9717
G01 X71.7243 Y35.9907
G01 X71.7711 Y36.0537
G01 X71.7847 Y36.0741
G01 X71.8251 Y36.1415
G01 X71.8366 Y36.1631
G01 X71.8702 Y36.2341
G01 X71.8796 Y36.2568
G01 X71.9060 Y36.3307
G01 X71.9132 Y36.3541
G01 X71.9322 Y36.4303
G01 X71.9370 Y36.4544
G01 X71.9486 Y36.5320
G01 X71.9510 Y36.5564
G01 X71.9548 Y36.6349
G01 X71.9548 Y36.6594
G01 X71.9510 Y36.7378
G01 X71.9486 Y36.7622
G01 X71.9370 Y36.8399
G01 X71.9322 Y36.8639
G01 X71.9132 Y36.9401
G01 X71.9060 Y36.9636
G01 X71.8796 Y37.0375
G01 X71.8702 Y37.0602
G01 X71.8366 Y37.1311
G01 X71.8251 Y37.1528
G01 X71.7847 Y37.2201
G01 X71.7711 Y37.2405
G01 X71.7243 Y37.3036
G01 X71.7088 Y37.3225
G01 X71.6560 Y37.3807
G01 X71.6387 Y37.3980
G01 X71.5805 Y37.4508
G01 X71.5615 Y37.4663
G01 X71.4985 Y37.5131
G01 X71.4781 Y37.5267
G01 X71.4108 Y37.5671
G01 X71.3891 Y37.5787
G01 X71.3181 Y37.6122
G01 X71.2955 Y37.6216
G01 X71.2216 Y37.6481
G01 X71.1981 Y37.6552
G01 X71.1219 Y37.6743
G01 X71.0979 Y37.6790
G01 X71.0202 Y37.6906
G01 X70.9958 Y37.6930
G01 X70.9174 Y37.6968
G01 X70.8928 Y37.6968
G01 X70.8144 Y37.6930
G01 X70.7900 Y37.6906
G01 X70.7124 Y37.6790
G01 X70.6883 Y37.6743
G01 X70.6121 Y37.6552
G01 X70.5887 Y37.6481
G01 X70.5147 Y37.6216
G01 X70.4921 Y37.6122
G01 X70.4211 Y37.5787
G01 X70.3995 Y37.5671
G01 X70.3321 Y37.5267
G01 X70.3117 Y37.5131
G01 X70.2487 Y37.4663
G01 X70.2297 Y37.4508
G01 X70.1715 Y37.3980
G01 X70.1542 Y37.3807
G01 X70.1015 Y37.3225
G01 X70.0859 Y37.3036
G01 X70.0391 Y37.2405
G01 X70.0255 Y37.2201
G01 X69.9851 Y37.1528
G01 X69.9821 Y37.1471
G01 X69.6350 Y37.1471
G01 X69.5982 Y37.1456
G01 X69.5738 Y37.1432
G01 X69.5495 Y37.1396
G01 X69.5255 Y37.1348
G01 X69.5017 Y37.1289
G01 X69.4782 Y37.1218
G01 X69.4551 Y37.1135
G01 X69.4324 Y37.1041
G01 X69.4102 Y37.0936
G01 X69.3886 Y37.0820
G01 X69.3675 Y37.0694
G01 X69.3471 Y37.0558
G01 X69.3274 Y37.0412
G01 X69.3084 Y37.0256
G01 X69.2814 Y37.0007
G01 X59.7759 Y27.4951
G01 X47.5340 Y27.4951
G01 X47.4972 Y27.4936
G01 X47.4728 Y27.4912
G01 X47.4485 Y27.4876
G01 X47.4244 Y27.4828
G01 X47.4006 Y27.4769
G01 X47.3771 Y27.4698
G01 X47.3540 Y27.4615
G01 X47.3314 Y27.4521
G01 X47.3092 Y27.4416
G01 X47.2875 Y27.4300
G01 X47.2665 Y27.4174
G01 X47.2461 Y27.4038
G01 X47.2264 Y27.3892
G01 X47.2074 Y27.3736
G01 X47.1803 Y27.3486
G01 X45.7769 Y25.9452
G01 X44.7839 Y25.9452
G01 X44.7594 Y25.9440
G01 X44.7352 Y25.9404
G01 X44.7114 Y25.9345
G01 X44.6883 Y25.9262
G01 X44.6661 Y25.9157
G01 X44.6450 Y25.9031
G01 X44.6253 Y25.8885
G01 X44.6072 Y25.8720
G01 X44.5907 Y25.8538
G01 X44.5761 Y25.8341
G01 X44.5634 Y25.8131
G01 X44.5530 Y25.7909
G01 X44.5447 Y25.7678
G01 X44.5387 Y25.7440
G01 X44.5351 Y25.7197
G01 X44.5339 Y25.6952
G01 X44.5339 Y25.6453
G01 X40.6340 Y25.6453
G01 X40.6340 Y25.6952
G01 X40.6328 Y25.7197
G01 X40.6292 Y25.7440
G01 X40.6233 Y25.7678
G01 X40.6150 Y25.7909
G01 X40.6045 Y25.8131
G01 X40.5919 Y25.8341
G01 X40.5773 Y25.8538
G01 X40.5608 Y25.8720
G01 X40.5426 Y25.8885
G01 X40.5229 Y25.9031
G01 X40.5019 Y25.9157
G01 X40.4797 Y25.9262
G01 X40.4566 Y25.9345
G01 X40.4328 Y25.9404
G01 X40.4085 Y25.9440
G01 X40.3840 Y25.9452
G01 X39.3911 Y25.9452
G01 X37.8447 Y27.4917
G01 X37.8358 Y27.5001
G01 X37.8176 Y27.5166
G01 X37.7987 Y27.5322
G01 X37.7790 Y27.5468
G01 X37.7586 Y27.5604
G01 X37.7375 Y27.5730
G01 X37.7159 Y27.5846
G01 X37.6937 Y27.5951
G01 X37.6710 Y27.6045
G01 X37.6479 Y27.6128
G01 X37.6244 Y27.6199
G01 X37.6006 Y27.6258
G01 X37.5765 Y27.6306
G01 X37.5523 Y27.6342
G01 X37.5278 Y27.6366
G01 X37.4911 Y27.6381
G01 X27.9015 Y27.6381
G01 X27.9015 Y27.7042
G01 X27.9003 Y27.7287
G01 X27.8967 Y27.7530
G01 X27.8907 Y27.7768
G01 X27.8825 Y27.7999
G01 X27.8720 Y27.8221
G01 X27.8594 Y27.8431
G01 X27.8448 Y27.8628
G01 X27.8283 Y27.8810
G01 X27.8101 Y27.8975
G01 X27.7904 Y27.9121
G01 X27.7694 Y27.9247
G01 X27.7472 Y27.9352
G01 X27.7241 Y27.9434
G01 X27.7003 Y27.9494
G01 X27.6760 Y27.9530
G01 X27.6515 Y27.9542
G01 X26.2745 Y27.9542
G01 X26.2500 Y27.9530
G01 X26.2257 Y27.9494
G01 X26.2019 Y27.9434
G01 X26.1788 Y27.9352
G01 X26.1567 Y27.9247
G01 X26.1356 Y27.9121
G01 X26.1159 Y27.8975
G01 X26.0977 Y27.8810
G01 X26.0813 Y27.8628
G01 X26.0666 Y27.8431
G01 X26.0540 Y27.8221
G01 X26.0435 Y27.7999
G01 X26.0353 Y27.7768
G01 X26.0293 Y27.7530
G01 X26.0257 Y27.7287
G01 X26.0245 Y27.7042
G01 X26.0245 Y26.5717
G01 X26.0257 Y26.5472
G01 X26.0293 Y26.5229
G01 X26.0353 Y26.4991
G01 X26.0435 Y26.4760
G01 X26.0540 Y26.4539
G01 X26.0666 Y26.4328
G01 X26.0813 Y26.4131
G01 X26.0977 Y26.3949
G01 X26.1159 Y26.3785
G01 X26.1356 Y26.3638
G01 X26.1567 Y26.3512
G01 X26.1788 Y26.3407
G01 X26.2019 Y26.3325
G01 X26.2257 Y26.3265
G01 X26.2500 Y26.3229
G01 X26.2745 Y26.3217
G00 Z2.0000
G00 X22.2719 Y30.4689
G01 F60.00
G01 Z-0.5000
G01 F120.00
G01 X22.2547 Y30.4586
G01 X22.2343 Y30.4450
G01 X22.1791 Y30.4040
G01 X22.1601 Y30.3885
G01 X22.1092 Y30.3423
G01 X22.0919 Y30.3250
G01 X22.0458 Y30.2741
G01 X22.0302 Y30.2551
G01 X21.9893 Y30.1999
G01 X21.9756 Y30.1795
G01 X21.9403 Y30.1206
G01 X21.9288 Y30.0990
G01 X21.8994 Y30.0369
G01 X21.8900 Y30.0142
G01 X21.8669 Y29.9495
G01 X21.8597 Y29.9261
G01 X21.8431 Y29.8594
G01 X21.8383 Y29.8354
G01 X21.8282 Y29.7674
G01 X21.8258 Y29.7430
G01 X21.8224 Y29.6744
G01 X21.8224 Y29.6499
G01 X21.8258 Y29.5812
G01 X21.8282 Y29.5568
G01 X21.8383 Y29.4889
G01 X21.8431 Y29.4648
G01 X21.8597 Y29.3982
G01 X21.8669 Y29.3747
G01 X21.8698 Y29.3665
G01 X14.4897 Y36.7467
G01 X14.4626 Y36.7716
G01 X14.4436 Y36.7872
G01 X14.4239 Y36.8018
G01 X14.4035 Y36.8154
G01 X14.3824 Y36.8280
G01 X14.3608 Y36.8396
G01 X14.3386 Y36.8501
G01 X14.3160 Y36.8595
G01 X14.2928 Y36.8678
G01 X14.2694 Y36.8749
G01 X14.2456 Y36.8808
G01 X14.2215 Y36.8856
G01 X14.1972 Y36.8892
G01 X14.1728 Y36.8916
G01 X14.1360 Y36.8931
G01 X11.4729 Y36.8931
G01 X11.4612 Y36.9401
G01 X11.4540 Y36.9636
G01 X11.4276 Y37.0375
G01 X11.4182 Y37.0602
G01 X11.3846 Y37.1311
G01 X11.3731 Y37.1528
G01 X11.3327 Y37.2201
G01 X11.3191 Y37.2405
G01 X11.2723 Y37.3036
G01 X11.2568 Y37.3225
G01 X11.2040 Y37.3807
G01 X11.1867 Y37.3980
G01 X11.1285 Y37.4508
G01 X11.1095 Y37.4663
G01 X11.0465 Y37.5131
G01 X11.0261 Y37.5267
G01 X10.9588 Y37.5671
G01 X10.9371 Y37.5787
G01 X10.8661 Y37.6122
G01 X10.8435 Y37.6216
G01 X10.7696 Y37.6481
G01 X10.7461 Y37.6552
G01 X10.6699 Y37.6743
G01 X10.6459 Y37.6790
G01 X10.5682 Y37.6906
G01 X10.5438 Y37.6930
G01 X10.4654 Y37.6968
G01 X10.4408 Y37.6968
G01 X10.3624 Y37.6930
G01 X10.3380 Y37.6906
G01 X10.2604 Y37.6790
G01 X10.2363 Y37.6743
G01 X10.1601 Y37.6552
G01 X10.1367 Y37.6481
G01 X10.0627 Y37.6216
G01 X10.0401 Y37.6122
G01 X9.9691 Y37.5787
G01 X9.9475 Y37.5671
G01 X9.8801 Y37.5267
G01 X9.8597 Y37.5131
G01 X9.7967 Y37.4663
G01 X9.7777 Y37.4508
G01 X9.7195 Y37.3980
G01 X9.7022 Y37.3807
G01 X9.6495 Y37.3225
G01 X9.6339 Y37.3036
G01 X9.5871 Y37.2405
G01 X9.5735 Y37.2201
G01 X9.5331 Y37.1528
G01 X9.5216 Y37.1311
G01 X9.4880 Y37.0602
G01 X9.4786 Y37.0375
G01 X9.4522 Y36.9636
G01 X9.4451 Y36.9401
G01 X9.4260 Y36.8639
G01 X9.4212 Y36.8399
G01 X9.4097 Y36.7622
G01 X9.4073 Y36.7378
G01 X9.4034 Y36.6594
G01 X9.4034 Y36.6349
G01 X9.4073 Y36.5564
G01 X9.4097 Y36.5320
G01 X9.4212 Y36.4544
G01 X9.4260 Y36.4303
G01 X9.4451 Y36.3541
G01 X9.4522 Y36.3307
G01 X9.4786 Y36.2568
G01 X9.4880 Y36.2341
G01 X9.5216 Y36.1631
G01 X9.5331 Y36.1415
G01 X9.5735 Y36.0741
G01 X9.5871 Y36.0537
G01 X9.6339 Y35.9907
G01 X9.6495 Y35.9717
G01 X9.7022 Y35.9135
G01 X9.7195 Y35.8962
G01 X9.7777 Y35.8435
G01 X9.7967 Y35.8279
G01 X9.8597 Y35.7811
G01 X9.8801 Y35.7675
G01 X9.9475 Y35.7272
G01 X9.9691 Y35.7156
G01 X10.0401 Y35.6820
G01 X10.0627 Y35.6726
G01 X10.1367 Y35.6462
G01 X10.1601 Y35.6391
G01 X10.2363 Y35.6200
G01 X10.2604 Y35.6152
G01 X10.3380 Y35.6037
G01 X10.3624 Y35.6013
G01 X10.4408 Y35.5974
G01 X10.4654 Y35.5974
G01 X10.5438 Y35.6013
G01 X10.5682 Y35.6037
G01 X10.6459 Y35.6152
G01 X10.6699 Y35.6200
G01 X10.7461 Y35.6391
G01 X10.7696 Y35.6462
G01 X10.8435 Y35.6726
G01 X10.8661 Y35.6820
G01 X10.9371 Y35.7156
G01 X10.9588 Y35.7272
G01 X11.0261 Y35.7675
G01 X11.0465 Y35.7811
G01 X11.1095 Y35.8279
G01 X11.1285 Y35.8435
G01 X11.1830 Y35.8929
G01 X13.9289 Y35.8929
G01 X23.0374 Y26.7844
G01 X23.0463 Y26.7759
G01 X23.0644 Y26.7594
G01 X23.0834 Y26.7439
G01 X23.1031 Y26.7292
G01 X23.1235 Y26.7156
G01 X23.1446 Y26.7030
G01 X23.1662 Y26.6914
G01 X23.1884 Y26.6809
G01 X23.2111 Y26.6715
G01 X23.2342 Y26.6633
G01 X23.2577 Y26.6562
G01 X23.2815 Y26.6502
G01 X23.3055 Y26.6454
G01 X23.3298 Y26.6418
G01 X23.3542 Y26.6394
G01 X23.3910 Y26.6379
G01 X23.8655 Y26.6379
G01 X23.8655 Y26.5717
G01 X23.8667 Y26.5472
G01 X23.8703 Y26.5229
G01 X23.8763 Y26.4991
G01 X23.8845 Y26.4760
G01 X23.8950 Y26.4539
G01 X23.9076 Y26.4328
G01 X23.9223 Y26.4131
G01 X23.9387 Y26.3949
G01 X23.9569 Y26.3785
G01 X23.9766 Y26.3638
G01 X23.9977 Y26.3512
G01 X24.0198 Y26.3407
G01 X24.0429 Y26.3325
G01 X24.0667 Y26.3265
G01 X24.0910 Y26.3229
G01 X24.1155 Y26.3217
G01 X24.3039 Y26.3217
G01 X24.3039 Y25.1450
G01 X24.3054 Y25.1082
G01 X24.3078 Y25.0838
G01 X24.3114 Y25.0595
G01 X24.3162 Y25.0355
G01 X24.3221 Y25.0116
G01 X24.3293 Y24.9882
G01 X24.3375 Y24.9651
G01 X24.3469 Y24.9424
G01 X24.3574 Y24.9202
G01 X24.3690 Y24.8986
G01 X24.3816 Y24.8775
G01 X24.3952 Y24.8571
G01 X24.4099 Y24.8374
G01 X24.4254 Y24.8184
G01 X24.4419 Y24.8002
G01 X24.4593 Y24.7829
G01 X24.4774 Y24.7664
G01 X24.4964 Y24.7508
G01 X24.5161 Y24.7362
G01 X24.5365 Y24.7226
G01 X24.5576 Y24.7100
G01 X24.5792 Y24.6984
G01 X24.6014 Y24.6879
G01 X24.6241 Y24.6785
G01 X24.6472 Y24.6703
G01 X24.6707 Y24.6631
G01 X24.6945 Y24.6572
G01 X24.7185 Y24.6524
G01 X24.7428 Y24.6488
G01 X24.7672 Y24.6464
G01 X24.8040 Y24.6449
G01 X28.5550 Y24.6449
G01 X28.5550 Y24.5952
G01 X28.5562 Y24.5707
G01 X28.5598 Y24.5465
G01 X28.5658 Y24.5227
G01 X28.5741 Y24.4996
G01 X28.5846 Y24.4774
G01 X28.5972 Y24.4563
G01 X28.6118 Y24.4366
G01 X28.6283 Y24.4185
G01 X28.6464 Y24.4020
G01 X28.6661 Y24.3874
G01 X28.6872 Y24.3747
G01 X28.7094 Y24.3643
G01 X28.7325 Y24.3560
G01 X28.7563 Y24.3500
G01 X28.7805 Y24.3464
G01 X28.8050 Y24.3452
G01 X30.6050 Y24.3452
G01 X30.6295 Y24.3464
G01 X30.6538 Y24.3500
G01 X30.6776 Y24.3560
G01 X30.7007 Y24.3643
G01 X30.7229 Y24.3747
G01 X30.7439 Y24.3874
G01 X30.7636 Y24.4020
G01 X30.7818 Y24.4185
G01 X30.7983 Y24.4366
G01 X30.8129 Y24.4563
G01 X30.8255 Y24.4774
G01 X30.8360 Y24.4996
G01 X30.8443 Y24.5227
G01 X30.8502 Y24.5465
G01 X30.8538 Y24.5707
G01 X30.8550 Y24.5952
G01 X30.8550 Y24.6449
G01 X34.7549 Y24.6449
G01 X34.7549 Y24.5952
G01 X34.7561 Y24.5707
G01 X34.7597 Y24.5465
G01 X34.7657 Y24.5227
G01 X34.7740 Y24.4996
G01 X34.7844 Y24.4774
G01 X34.7971 Y24.4563
G01 X34.8117 Y24.4366
G01 X34.8282 Y24.4185
G01 X34.8463 Y24.4020
G01 X34.8660 Y24.3874
G01 X34.8871 Y24.3747
G01 X34.9093 Y24.3643
G01 X34.9324 Y24.3560
G01 X34.9562 Y24.3500
G01 X34.9804 Y24.3464
G01 X35.0049 Y24.3452
G01 X36.8049 Y24.3452
G01 X36.8294 Y24.3464
G01 X36.8537 Y24.3500
G01 X36.8775 Y24.3560
G01 X36.9006 Y24.3643
G01 X36.9228 Y24.3747
G01 X36.9438 Y24.3874
G01 X36.9635 Y24.4020
G01 X36.9817 Y24.4185
G01 X36.9982 Y24.4366
G01 X37.0128 Y24.4563
G01 X37.0254 Y24.4774
G01 X37.0359 Y24.4996
G01 X37.0442 Y24.5227
G01 X37.0501 Y24.5465
G01 X37.0537 Y24.5707
G01 X37.0549 Y24.5952
G01 X37.0549 Y25.6952
G01 X37.0537 Y25.7197
G01 X37.0501 Y25.7440
G01 X37.0442 Y25.7678
G01 X37.0359 Y25.7909
G01 X37.0254 Y25.8131
G01 X37.0128 Y25.8341
G01 X36.9982 Y25.8538
G01 X36.9817 Y25.8720
G01 X36.9635 Y25.8885
G01 X36.9438 Y25.9031
G01 X36.9228 Y25.9157
G01 X36.9006 Y25.9262
G01 X36.8775 Y25.9345
G01 X36.8537 Y25.9404
G01 X36.8294 Y25.9440
G01 X36.8049 Y25.9452
G01 X35.0049 Y25.9452
G01 X34.9804 Y25.9440
G01 X34.9562 Y25.9404
G01 X34.9324 Y25.9345
G01 X34.9093 Y25.9262
G01 X34.8871 Y25.9157
G01 X34.8660 Y25.9031
G01 X34.8463 Y25.8885
G01 X34.8282 Y25.8720
G01 X34.8117 Y25.8538
G01 X34.7971 Y25.8341
G01 X34.7844 Y25.8131
G01 X34.7740 Y25.7909
G01 X34.7657 Y25.7678
G01 X34.7597 Y25.7440
G01 X34.7561 Y25.7197
G01 X34.7549 Y25.6952
G01 X34.7549 Y25.6451
G01 X30.8550 Y25.6451
G01 X30.8550 Y25.6952
G01 X30.8538 Y25.7197
G01 X30.8502 Y25.7440
G01 X30.8443 Y25.7678
G01 X30.8360 Y25.7909
G01 X30.8255 Y25.8131
G01 X30.8129 Y25.8341
G01 X30.7983 Y25.8538
G01 X30.7818 Y25.8720
G01 X30.7636 Y25.8885
G01 X30.7439 Y25.9031
G01 X30.7229 Y25.9157
G01 X30.7007 Y25.9262
G01 X30.6776 Y25.9345
G01 X30.6538 Y25.9404
G01 X30.6295 Y25.9440
G01 X30.6050 Y25.9452
G01 X28.8050 Y25.9452
G01 X28.7805 Y25.9440
G01 X28.7563 Y25.9404
G01 X28.7325 Y25.9345
G01 X28.7094 Y25.9262
G01 X28.6872 Y25.9157
G01 X28.6661 Y25.9031
G01 X28.6464 Y25.8885
G01 X28.6283 Y25.8720
G01 X28.6118 Y25.8538
G01 X28.5972 Y25.8341
G01 X28.5846 Y25.8131
G01 X28.5741 Y25.7909
G01 X28.5658 Y25.7678
G01 X28.5598 Y25.7440
G01 X28.5562 Y25.7197
G01 X28.5550 Y25.6952
G01 X28.5550 Y25.6451
G01 X25.3041 Y25.6451
G01 X25.3041 Y26.3217
G01 X25.4925 Y26.3217
G01 X25.5170 Y26.3229
G01 X25.5413 Y26.3265
G01 X25.5651 Y26.3325
G01 X25.5882 Y26.3407
G01 X25.6104 Y26.3512
G01 X25.6314 Y26.3638
G01 X25.6511 Y26.3785
G01 X25.6693 Y26.3949
G01 X25.6858 Y26.4131
G01 X25.7004 Y26.4328
G01 X25.7130 Y26.4539
G01 X25.7235 Y26.4760
G01 X25.7317 Y26.4991
G01 X25.7377 Y26.5229
G01 X25.7413 Y26.5472
G01 X25.7425 Y26.5717
G01 X25.7425 Y27.7042
G01 X25.7413 Y27.7287
G01 X25.7377 Y27.7530
G01 X25.7317 Y27.7768
G01 X25.7235 Y27.7999
G01 X25.7130 Y27.8221
G01 X25.7004 Y27.8431
G01 X25.6858 Y27.8628
G01 X25.6693 Y27.8810
G01 X25.6511 Y27.8975
G01 X25.6314 Y27.9121
G01 X25.6104 Y27.9247
G01 X25.5882 Y27.9352
G01 X25.5651 Y27.9434
G01 X25.5413 Y27.9494
G01 X25.5170 Y27.9530
G01 X25.4925 Y27.9542
G01 X24.1155 Y27.9542
G01 X24.0910 Y27.9530
G01 X24.0667 Y27.9494
G01 X24.0429 Y27.9434
G01 X24.0198 Y27.9352
G01 X23.9977 Y27.9247
G01 X23.9766 Y27.9121
G01 X23.9569 Y27.8975
G01 X23.9387 Y27.8810
G01 X23.9223 Y27.8628
G01 X23.9076 Y27.8431
G01 X23.8950 Y27.8221
G01 X23.8845 Y27.7999
G01 X23.8763 Y27.7768
G01 X23.8703 Y27.7530
G01 X23.8667 Y27.7287
G01 X23.8655 Y27.7042
G01 X23.8655 Y27.6381
G01 X23.5982 Y27.6381
G01 X22.4765 Y28.7598
G01 X22.4847 Y28.7569
G01 X22.5082 Y28.7498
G01 X22.5748 Y28.7331
G01 X22.5989 Y28.7283
G01 X22.6668 Y28.7182
G01 X22.6912 Y28.7158
G01 X22.7598 Y28.7124
G01 X22.7844 Y28.7124
G01 X22.8530 Y28.7158
G01 X22.8774 Y28.7182
G01 X22.9454 Y28.7283
G01 X22.9694 Y28.7331
G01 X22.9945 Y28.7393
G01 X23.0081 Y28.7292
G01 X23.0285 Y28.7156
G01 X23.0496 Y28.7030
G01 X23.0712 Y28.6914
G01 X23.0934 Y28.6809
G01 X23.1161 Y28.6715
G01 X23.1392 Y28.6633
G01 X23.1627 Y28.6561
G01 X23.1865 Y28.6502
G01 X23.2105 Y28.6454
G01 X23.2348 Y28.6418
G01 X23.2592 Y28.6394
G01 X23.2960 Y28.6379
G01 X23.8656 Y28.6379
G01 X23.8656 Y28.5719
G01 X23.8668 Y28.5474
G01 X23.8704 Y28.5231
G01 X23.8764 Y28.4993
G01 X23.8846 Y28.4762
G01 X23.8951 Y28.4540
G01 X23.9077 Y28.4330
G01 X23.9224 Y28.4133
G01 X23.9388 Y28.3951
G01 X23.9570 Y28.3786
G01 X23.9767 Y28.3640
G01 X23.9978 Y28.3514
G01 X24.0199 Y28.3409
G01 X24.0430 Y28.3326
G01 X24.0668 Y28.3267
G01 X24.0911 Y28.3231
G01 X24.1156 Y28.3219
G01 X25.4926 Y28.3219
G01 X25.5171 Y28.3231
G01 X25.5414 Y28.3267
G01 X25.5652 Y28.3326
G01 X25.5883 Y28.3409
G01 X25.6105 Y28.3514
G01 X25.6315 Y28.3640
G01 X25.6512 Y28.3786
G01 X25.6694 Y28.3951
G01 X25.6859 Y28.4133
G01 X25.7005 Y28.4330
G01 X25.7131 Y28.4540
G01 X25.7236 Y28.4762
G01 X25.7318 Y28.4993
G01 X25.7378 Y28.5231
G01 X25.7414 Y28.5474
G01 X25.7426 Y28.5719
G01 X25.7426 Y28.6379
G01 X26.0246 Y28.6379
G01 X26.0246 Y28.5719
G01 X26.0258 Y28.5474
G01 X26.0294 Y28.5231
G01 X26.0354 Y28.4993
G01 X26.0436 Y28.4762
G01 X26.0541 Y28.4540
G01 X26.0667 Y28.4330
G01 X26.0814 Y28.4133
G01 X26.0978 Y28.3951
G01 X26.1160 Y28.3786
G01 X26.1357 Y28.3640
G01 X26.1568 Y28.3514
G01 X26.1789 Y28.3409
G01 X26.2020 Y28.3326
G01 X26.2258 Y28.3267
G01 X26.2501 Y28.3231
G01 X26.2746 Y28.3219
G01 X27.6516 Y28.3219
G01 X27.6761 Y28.3231
G01 X27.7004 Y28.3267
G01 X27.7242 Y28.3326
G01 X27.7473 Y28.3409
G01 X27.7695 Y28.3514
G01 X27.7905 Y28.3640
G01 X27.8102 Y28.3786
G01 X27.8284 Y28.3951
G01 X27.8449 Y28.4133
G01 X27.8595 Y28.4330
G01 X27.8721 Y28.4540
G01 X27.8826 Y28.4762
G01 X27.8908 Y28.4993
G01 X27.8968 Y28.5231
G01 X27.9004 Y28.5474
G01 X27.9016 Y28.5719
G01 X27.9016 Y29.7044
G01 X27.9004 Y29.7289
G01 X27.8968 Y29.7531
G01 X27.8908 Y29.7769
G01 X27.8826 Y29.8000
G01 X27.8721 Y29.8222
G01 X27.8595 Y29.8433
G01 X27.8449 Y29.8630
G01 X27.8284 Y29.8811
G01 X27.8102 Y29.8976
G01 X27.7905 Y29.9122
G01 X27.7695 Y29.9248
G01 X27.7473 Y29.9353
G01 X27.7242 Y29.9436
G01 X27.7004 Y29.9496
G01 X27.6761 Y29.9532
G01 X27.6516 Y29.9544
G01 X26.2746 Y29.9544
G01 X26.2501 Y29.9532
G01 X26.2258 Y29.9496
G01 X26.2020 Y29.9436
G01 X26.1789 Y29.9353
G01 X26.1568 Y29.9248
G01 X26.1357 Y29.9122
G01 X26.1160 Y29.8976
G01 X26.0978 Y29.8811
G01 X26.0814 Y29.8630
G01 X26.0667 Y29.8433
G01 X26.0541 Y29.8222
G01 X26.0436 Y29.8000
G01 X26.0354 Y29.7769
G01 X26.0294 Y29.7531
G01 X26.0258 Y29.7289
G01 X26.0246 Y29.7044
G01 X26.0246 Y29.6381
G01 X25.7426 Y29.6381
G01 X25.7426 Y29.7044
G01 X25.7414 Y29.7289
G01 X25.7378 Y29.7531
G01 X25.7318 Y29.7769
G01 X25.7236 Y29.8000
G01 X25.7131 Y29.8222
G01 X25.7005 Y29.8433
G01 X25.6859 Y29.8630
G01 X25.6694 Y29.8811
G01 X25.6512 Y29.8976
G01 X25.6315 Y29.9122
G01 X25.6105 Y29.9248
G01 X25.5883 Y29.9353
G01 X25.5652 Y29.9436
G01 X25.5414 Y29.9496
G01 X25.5171 Y29.9532
G01 X25.4926 Y29.9544
G01 X25.4471 Y29.9544
G01 X25.4471 Y30.5015
G01 X25.5132 Y30.5015
G01 X25.5377 Y30.5027
G01 X25.5620 Y30.5063
G01 X25.5858 Y30.5123
G01 X25.6089 Y30.5205
G01 X25.6311 Y30.5310
G01 X25.6521 Y30.5436
G01 X25.6718 Y30.5583
G01 X25.6900 Y30.5747
G01 X25.7065 Y30.5929
G01 X25.7211 Y30.6126
G01 X25.7337 Y30.6337
G01 X25.7442 Y30.6558
G01 X25.7524 Y30.6789
G01 X25.7584 Y30.7027
G01 X25.7620 Y30.7270
G01 X25.7632 Y30.7515
G01 X25.7632 Y32.1285
G01 X25.7620 Y32.1530
G01 X25.7584 Y32.1773
G01 X25.7524 Y32.2011
G01 X25.7442 Y32.2242
G01 X25.7337 Y32.2464
G01 X25.7211 Y32.2674
G01 X25.7065 Y32.2871
G01 X25.6900 Y32.3053
G01 X25.6718 Y32.3218
G01 X25.6521 Y32.3364
G01 X25.6311 Y32.3490
G01 X25.6089 Y32.3595
G01 X25.5858 Y32.3677
G01 X25.5620 Y32.3737
G01 X25.5377 Y32.3773
G01 X25.5132 Y32.3785
G01 X24.3807 Y32.3785
G01 X24.3562 Y32.3773
G01 X24.3319 Y32.3737
G01 X24.3081 Y32.3677
G01 X24.2850 Y32.3595
G01 X24.2629 Y32.3490
G01 X24.2418 Y32.3364
G01 X24.2221 Y32.3218
G01 X24.2039 Y32.3053
G01 X24.1875 Y32.2871
G01 X24.1728 Y32.2674
G01 X24.1602 Y32.2464
G01 X24.1497 Y32.2242
G01 X24.1415 Y32.2011
G01 X24.1355 Y32.1773
G01 X24.1319 Y32.1530
G01 X24.1307 Y32.1285
G01 X24.1307 Y30.7515
G01 X24.1319 Y30.7270
G01 X24.1355 Y30.7027
G01 X24.1415 Y30.6789
G01 X24.1497 Y30.6558
G01 X24.1602 Y30.6337
G01 X24.1728 Y30.6126
G01 X24.1875 Y30.5929
G01 X24.2039 Y30.5747
G01 X24.2221 Y30.5583
G01 X24.2418 Y30.5436
G01 X24.2629 Y30.5310
G01 X24.2850 Y30.5205
G01 X24.3081 Y30.5123
G01 X24.3319 Y30.5063
G01 X24.3562 Y30.5027
G01 X24.3807 Y30.5015
G01 X24.4469 Y30.5015
G01 X24.4469 Y29.9544
G01 X24.1156 Y29.9544
G01 X24.0911 Y29.9532
G01 X24.0668 Y29.9496
G01 X24.0430 Y29.9436
G01 X24.0199 Y29.9353
G01 X23.9978 Y29.9248
G01 X23.9767 Y29.9122
G01 X23.9570 Y29.8976
G01 X23.9388 Y29.8811
G01 X23.9224 Y29.8630
G01 X23.9077 Y29.8433
G01 X23.8951 Y29.8222
G01 X23.8846 Y29.8000
G01 X23.8764 Y29.7769
G01 X23.8704 Y29.7531
G01 X23.8668 Y29.7289
G01 X23.8656 Y29.7044
G01 X23.8656 Y29.6381
G01 X23.7212 Y29.6381
G01 X23.7218 Y29.6499
G01 X23.7218 Y29.6744
G01 X23.7184 Y29.7430
G01 X23.7160 Y29.7674
G01 X23.7060 Y29.8354
G01 X23.7012 Y29.8594
G01 X23.6845 Y29.9261
G01 X23.6774 Y29.9495
G01 X23.6542 Y30.0142
G01 X23.6448 Y30.0369
G01 X23.6155 Y30.0990
G01 X23.6039 Y30.1206
G01 X23.5686 Y30.1795
G01 X23.5549 Y30.1999
G01 X23.5140 Y30.2551
G01 X23.4985 Y30.2741
G01 X23.4523 Y30.3250
G01 X23.4350 Y30.3423
G01 X23.3841 Y30.3885
G01 X23.3651 Y30.4040
G01 X23.3099 Y30.4450
G01 X23.2895 Y30.4586
G01 X23.2721 Y30.4690
G01 X23.2721 Y30.6332
G01 X23.2895 Y30.6437
G01 X23.3099 Y30.6573
G01 X23.3651 Y30.6982
G01 X23.3841 Y30.7138
G01 X23.4350 Y30.7599
G01 X23.4523 Y30.7773
G01 X23.4985 Y30.8282
G01 X23.5140 Y30.8471
G01 X23.5549 Y30.9023
G01 X23.5686 Y30.9227
G01 X23.6039 Y30.9816
G01 X23.6155 Y31.0033
G01 X23.6448 Y31.0654
G01 X23.6542 Y31.0880
G01 X23.6774 Y31.1527
G01 X23.6845 Y31.1762
G01 X23.7012 Y31.2428
G01 X23.7060 Y31.2669
G01 X23.7160 Y31.3348
G01 X23.7184 Y31.3592
G01 X23.7218 Y31.4279
G01 X23.7218 Y31.4524
G01 X23.7184 Y31.5210
G01 X23.7160 Y31.5454
G01 X23.7060 Y31.6134
G01 X23.7012 Y31.6374
G01 X23.6845 Y31.7041
G01 X23.6774 Y31.7275
G01 X23.6542 Y31.7922
G01 X23.6448 Y31.8149
G01 X23.6155 Y31.8770
G01 X23.6039 Y31.8986
G01 X23.5686 Y31.9575
G01 X23.5549 Y31.9779
G01 X23.5140 Y32.0331
G01 X23.4985 Y32.0521
G01 X23.4523 Y32.1030
G01 X23.4350 Y32.1203
G01 X23.3841 Y32.1665
G01 X23.3651 Y32.1820
G01 X23.3099 Y32.2230
G01 X23.2895 Y32.2366
G01 X23.2306 Y32.2719
G01 X23.2090 Y32.2835
G01 X23.1469 Y32.3128
G01 X23.1242 Y32.3222
G01 X23.0595 Y32.3454
G01 X23.0361 Y32.3525
G01 X22.9694 Y32.3692
G01 X22.9454 Y32.3740
G01 X22.8774 Y32.3840
G01 X22.8530 Y32.3864
G01 X22.7844 Y32.3898
G01 X22.7598 Y32.3898
G01 X22.6912 Y32.3864
G01 X22.6668 Y32.3840
G01 X22.5989 Y32.3740
G01 X22.5748 Y32.3692
G01 X22.5082 Y32.3525
G01 X22.4847 Y32.3454
G01 X22.4200 Y32.3222
G01 X22.3973 Y32.3128
G01 X22.3352 Y32.2835
G01 X22.3136 Y32.2719
G01 X22.2547 Y32.2366
G01 X22.2343 Y32.2230
G01 X22.1791 Y32.1820
G01 X22.1601 Y32.1665
G01 X22.1092 Y32.1203
G01 X22.0919 Y32.1030
G01 X22.0458 Y32.0521
G01 X22.0302 Y32.0331
G01 X21.9893 Y31.9779
G01 X21.9756 Y31.9575
G01 X21.9403 Y31.8986
G01 X21.9288 Y31.8770
G01 X21.8994 Y31.8149
G01 X21.8900 Y31.7922
G01 X21.8669 Y31.7275
G01 X21.8597 Y31.7041
G01 X21.8431 Y31.6374
G01 X21.8383 Y31.6134
G01 X21.8282 Y31.5454
G01 X21.8258 Y31.5210
G01 X21.8224 Y31.4524
G01 X21.8224 Y31.4279
G01 X21.8258 Y31.3592
G01 X21.8282 Y31.3348
G01 X21.8383 Y31.2669
G01 X21.8431 Y31.2428
G01 X21.8597 Y31.1762
G01 X21.8669 Y31.1527
G01 X21.8900 Y31.0880
G01 X21.8994 Y31.0654
G01 X21.9288 Y31.0033
G01 X21.9403 Y30.9816
G01 X21.9756 Y30.9227
G01 X21.9893 Y30.9023
G01 X22.0302 Y30.8471
G01 X22.0458 Y30.8282
G01 X22.0919 Y30.7773
G01 X22.1092 Y30.7599
G01 X22.1601 Y30.7138
G01 X22.1791 Y30.6982
G01 X22.2343 Y30.6573
G01 X22.2547 Y30.6437
G01 X22.2719 Y30.6334
G01 X22.2719 Y30.4689
G00 Z2.0000
G00 X20.4048 Y33.5239
G01 F60.00
G01 Z-0.5000
G01 F120.00
G01 X23.5991 Y33.5239
G01 X23.6266 Y33.5254
G01 X23.6537 Y33.5299
G01 X23.6968 Y33.5395
G01 X23.7182 Y33.5453
G01 X23.7389 Y33.5529
G01 X23.7589 Y33.5624
G01 X23.7780 Y33.5735
G01 X23.7960 Y33.5863
G01 X23.8305 Y33.6133
G01 X23.8506 Y33.6306
G01 X23.8686 Y33.6500
G01 X23.8845 Y33.6712
G01 X23.8981 Y33.6940
G01 X23.9184 Y33.7326
G01 X23.9298 Y33.7575
G01 X23.9384 Y33.7835
G01 X23.9442 Y33.8103
G01 X23.9469 Y33.8376
G01 X23.9489 Y33.8818
G01 X23.9487 Y33.9091
G01 X23.9455 Y33.9362
G01 X23.9393 Y33.9628
G01 X23.9303 Y33.9886
G01 X23.9136 Y34.0292
G01 X23.9076 Y34.0425
G01 X23.8766 Y34.1068
G01 X23.8655 Y34.1479
G01 X23.8603 Y34.2070
G01 X23.8603 Y35.3087
G01 X23.8656 Y35.3680
G01 X23.8772 Y35.4113
G01 X23.8955 Y35.4507
G01 X23.9209 Y35.4865
G01 X23.9435 Y35.5092
G01 X23.9604 Y35.5278
G01 X23.9753 Y35.5481
G01 X23.9971 Y35.5811
G01 X24.0096 Y35.6021
G01 X24.0200 Y35.6243
G01 X24.0282 Y35.6474
G01 X24.0340 Y35.6712
G01 X24.0416 Y35.7103
G01 X24.0451 Y35.7343
G01 X24.0462 Y35.7584
G01 X24.0450 Y35.7826
G01 X24.0415 Y35.8065
G01 X24.0339 Y35.8451
G01 X24.0280 Y35.8688
G01 X24.0199 Y35.8917
G01 X24.0096 Y35.9137
G01 X23.9971 Y35.9346
G01 X23.9753 Y35.9677
G01 X23.9604 Y35.9879
G01 X23.9436 Y36.0065
G01 X23.9217 Y36.0283
G01 X23.8593 Y36.1182
G01 X23.8438 Y36.1382
G01 X23.8264 Y36.1566
G01 X23.8073 Y36.1731
G01 X23.7865 Y36.1875
G01 X23.7540 Y36.2079
G01 X23.7339 Y36.2192
G01 X23.7128 Y36.2286
G01 X23.6910 Y36.2360
G01 X23.6686 Y36.2414
G01 X23.6315 Y36.2485
G01 X23.6080 Y36.2518
G01 X23.5844 Y36.2530
G01 X23.4290 Y36.2530
G01 X23.3957 Y36.2507
G01 X23.3692 Y36.2472
G01 X23.3478 Y36.2434
G01 X23.3268 Y36.2377
G01 X23.3064 Y36.2302
G01 X23.2820 Y36.2200
G01 X23.2538 Y36.2061
G01 X23.1977 Y36.1740
G01 X23.0891 Y36.1279
G01 X22.9764 Y36.0958
G01 X22.8605 Y36.0781
G01 X22.7423 Y36.0745
G01 X22.6255 Y36.0849
G01 X22.5112 Y36.1102
G01 X22.4002 Y36.1493
G01 X22.2947 Y36.2017
G01 X22.1971 Y36.2664
G01 X22.1077 Y36.3429
G01 X22.0287 Y36.4295
G01 X21.9611 Y36.5256
G01 X21.9053 Y36.6296
G01 X21.8627 Y36.7390
G01 X21.8342 Y36.8526
G01 X21.8196 Y36.9697
G01 X21.8192 Y37.1380
G01 X21.8177 Y37.1646
G01 X21.8134 Y37.1908
G01 X21.8063 Y37.2164
G01 X21.7967 Y37.2453
G01 X21.7872 Y37.2695
G01 X21.7753 Y37.2926
G01 X21.7610 Y37.3143
G01 X21.7427 Y37.3392
G01 X21.7309 Y37.3541
G01 X21.7180 Y37.3680
G01 X19.9999 Y39.0860
G01 X19.9801 Y39.1039
G01 X19.9584 Y39.1195
G01 X19.9228 Y39.1424
G01 X19.9002 Y39.1553
G01 X19.8765 Y39.1658
G01 X19.8517 Y39.1737
G01 X19.8263 Y39.1791
G01 X19.7841 Y39.1857
G01 X19.7572 Y39.1884
G01 X19.7302 Y39.1882
G01 X19.7037 Y39.1866
G01 X19.5818 Y39.1939
G01 X19.4610 Y39.2164
G01 X19.3435 Y39.2527
G01 X19.2322 Y39.3031
G01 X19.1266 Y39.3669
G01 X19.0300 Y39.4423
G01 X18.9433 Y39.5290
G01 X18.8674 Y39.6257
G01 X18.8040 Y39.7305
G01 X18.7538 Y39.8428
G01 X18.7171 Y39.9599
G01 X18.6951 Y40.0802
G01 X18.6878 Y40.2031
G01 X18.6951 Y40.3256
G01 X18.7171 Y40.4464
G01 X18.7538 Y40.5634
G01 X18.8040 Y40.6755
G01 X18.8673 Y40.7799
G01 X18.9433 Y40.8767
G01 X19.0302 Y40.9636
G01 X19.1268 Y41.0395
G01 X19.2318 Y41.1030
G01 X19.3435 Y41.1531
G01 X19.4610 Y41.1898
G01 X19.5814 Y41.2118
G01 X19.7038 Y41.2191
G01 X19.8267 Y41.2118
G01 X19.9471 Y41.1898
G01 X20.0646 Y41.1531
G01 X20.1763 Y41.1030
G01 X20.2813 Y41.0395
G01 X20.3779 Y40.9636
G01 X20.4648 Y40.8767
G01 X20.5406 Y40.7802
G01 X20.6037 Y40.6755
G01 X20.6544 Y40.5631
G01 X20.6910 Y40.4464
G01 X20.7129 Y40.3256
G01 X20.7203 Y40.2031
G01 X20.7130 Y40.0804
G01 X20.7030 Y40.0263
G01 X20.7001 Y40.0057
G01 X20.6989 Y39.9850
G01 X20.6984 Y39.9520
G01 X20.6994 Y39.9255
G01 X20.7032 Y39.8994
G01 X20.7097 Y39.8738
G01 X20.7193 Y39.8428
G01 X20.7285 Y39.8180
G01 X20.7402 Y39.7944
G01 X20.7544 Y39.7721
G01 X20.7732 Y39.7457
G01 X20.7860 Y39.7293
G01 X20.8001 Y39.7139
G01 X21.4066 Y39.1074
G01 X21.4242 Y39.0914
G01 X21.4432 Y39.0771
G01 X21.4747 Y39.0558
G01 X21.4948 Y39.0435
G01 X21.5159 Y39.0332
G01 X21.5379 Y39.0249
G01 X21.5606 Y39.0188
G01 X21.5972 Y39.0106
G01 X21.6190 Y39.0068
G01 X21.6411 Y39.0049
G01 X21.6633 Y39.0050
G01 X21.6854 Y39.0070
G01 X21.7225 Y39.0121
G01 X21.7463 Y39.0165
G01 X21.7696 Y39.0233
G01 X21.7921 Y39.0322
G01 X21.8137 Y39.0433
G01 X21.8462 Y39.0621
G01 X21.8654 Y39.0745
G01 X21.8834 Y39.0885
G01 X21.9001 Y39.1041
G01 X21.9153 Y39.1211
G01 X21.9391 Y39.1506
G01 X21.9499 Y39.1648
G01 X22.0290 Y39.2780
G01 X22.1077 Y39.3644
G01 X22.1971 Y39.4408
G01 X22.2947 Y39.5055
G01 X22.4002 Y39.5579
G01 X22.5112 Y39.5970
G01 X22.6255 Y39.6223
G01 X22.7423 Y39.6327
G01 X22.8605 Y39.6291
G01 X22.9764 Y39.6114
G01 X23.0891 Y39.5793
G01 X23.1974 Y39.5334
G01 X23.2992 Y39.4746
G01 X23.3927 Y39.4040
G01 X23.4018 Y39.3952
G01 X23.4204 Y39.3788
G01 X23.4406 Y39.3642
G01 X23.4736 Y39.3429
G01 X23.4949 Y39.3306
G01 X23.5173 Y39.3204
G01 X23.5406 Y39.3125
G01 X23.5646 Y39.3069
G01 X23.6037 Y39.2998
G01 X23.6271 Y39.2967
G01 X23.6506 Y39.2958
G01 X23.6741 Y39.2971
G01 X23.6974 Y39.3006
G01 X23.7355 Y39.3082
G01 X23.7596 Y39.3143
G01 X23.7830 Y39.3228
G01 X23.8054 Y39.3335
G01 X23.8267 Y39.3464
G01 X23.8597 Y39.3687
G01 X23.8794 Y39.3836
G01 X23.8976 Y39.4002
G01 X23.9140 Y39.4186
G01 X23.9285 Y39.4386
G01 X23.9499 Y39.4711
G01 X23.9617 Y39.4911
G01 X23.9717 Y39.5122
G01 X23.9796 Y39.5342
G01 X23.9855 Y39.5567
G01 X23.9936 Y39.5953
G01 X23.9977 Y39.6210
G01 X23.9990 Y39.6469
G01 X23.9990 Y39.9876
G01 X24.0039 Y40.0472
G01 X24.0153 Y40.0893
G01 X24.0338 Y40.1293
G01 X24.0594 Y40.1655
G01 X24.0905 Y40.1966
G01 X24.1266 Y40.2218
G01 X24.1671 Y40.2406
G01 X24.2099 Y40.2522
G01 X24.2690 Y40.2574
G01 X24.8376 Y40.2574
G01 X24.8616 Y40.2586
G01 X24.8854 Y40.2620
G01 X24.9246 Y40.2696
G01 X24.9494 Y40.2758
G01 X24.9735 Y40.2845
G01 X24.9966 Y40.2956
G01 X25.0184 Y40.3090
G01 X25.0509 Y40.3314
G01 X25.0695 Y40.3455
G01 X25.0867 Y40.3612
G01 X25.1023 Y40.3786
G01 X25.1163 Y40.3972
G01 X25.1387 Y40.4303
G01 X25.1516 Y40.4516
G01 X25.1624 Y40.4742
G01 X25.1708 Y40.4977
G01 X25.1769 Y40.5220
G01 X25.1845 Y40.5606
G01 X25.1880 Y40.5845
G01 X25.1892 Y40.6087
G01 X25.1881 Y40.6329
G01 X25.1846 Y40.6568
G01 X25.1770 Y40.6959
G01 X25.1708 Y40.7208
G01 X25.1621 Y40.7448
G01 X25.1511 Y40.7679
G01 X25.1377 Y40.7897
G01 X25.1153 Y40.8222
G01 X25.1015 Y40.8404
G01 X25.0862 Y40.8573
G01 X24.4370 Y41.5074
G01 X24.3945 Y41.5588
G01 X24.3909 Y41.5639
G01 X24.3584 Y41.6178
G01 X24.3247 Y41.6959
G01 X24.3236 Y41.6990
G01 X24.3079 Y41.7630
G01 X24.3040 Y41.7888
G01 X24.2993 Y41.8123
G01 X24.2924 Y41.8353
G01 X24.2792 Y41.8724
G01 X24.2699 Y41.8948
G01 X24.2586 Y41.9162
G01 X24.2452 Y41.9365
G01 X24.2300 Y41.9553
G01 X24.2040 Y41.9842
G01 X24.1873 Y42.0013
G01 X24.1689 Y42.0167
G01 X24.1492 Y42.0302
G01 X24.1282 Y42.0418
G01 X24.0932 Y42.0591
G01 X24.0708 Y42.0687
G01 X24.0477 Y42.0762
G01 X24.0289 Y42.0813
G01 X23.9890 Y42.0998
G01 X23.9527 Y42.1254
G01 X23.9217 Y42.1563
G01 X23.8593 Y42.2462
G01 X23.8438 Y42.2662
G01 X23.8264 Y42.2846
G01 X23.8073 Y42.3011
G01 X23.7865 Y42.3155
G01 X23.7540 Y42.3359
G01 X23.7338 Y42.3472
G01 X23.7126 Y42.3567
G01 X23.6906 Y42.3641
G01 X23.6680 Y42.3695
G01 X23.6304 Y42.3766
